(Exported by FreeCAD)
(Post Processor: grbl_post)
(Output Time:2025-08-26 05:48:41.064519)
(Begin preamble)
G17 G90
G21
(Begin operation: Fixture)
(Path: Fixture)
G54
(Finish operation: Fixture)
(Begin operation: 4mm-10-Endmill001)
(Path: 4mm-10-Endmill001)
(4mm-10-Endmill001)
(Begin toolchange)
( M6 T6 )
(Finish operation: 4mm-10-Endmill001)
(Begin operation: 4mm-pocket)
(Path: 4mm-pocket)
(Pocket_Shape044)
G0 Z5.000
G0
G0 X-0.011 Y0.200
G0 X-0.011 Y0.200 Z3.000
G1 X-0.011 Y0.200 Z-1.000 F60.000
G3 X0.009 Y-0.200 Z-1.000 I0.011 J-0.200 K0.000 F60.000
G3 X0.200 Y0.010 Z-1.000 I-0.009 J0.200 K0.000 F60.000
G3 X-0.011 Y0.200 Z-1.000 I-0.200 J-0.010 K0.000 F60.000
G0 Z5.000
G0 X-0.066 Y1.198 Z5.000
G0 X-0.066 Y1.198 Z3.000
G1 X-0.066 Y1.198 Z-1.000 F60.000
G3 X0.057 Y-1.199 Z-1.000 I0.065 J-1.198 K0.000 F60.000
G3 X1.198 Y0.061 Z-1.000 I-0.057 J1.199 K0.000 F60.000
G3 X-0.066 Y1.198 Z-1.000 I-1.198 J-0.061 K0.000 F60.000
G0 Z5.000
G0 X-0.178 Y4.396 Z5.000
G0 X-0.178 Y4.396 Z3.000
G1 X-0.178 Y4.396 Z-1.000 F60.000
G3 X-4.397 Y-0.178 Z-1.000 I0.178 J-4.396 K0.000 F60.000
G3 X0.178 Y-4.396 Z-1.000 I4.396 J0.178 K0.000 F60.000
G3 X4.397 Y0.178 Z-1.000 I-0.178 J4.396 K0.000 F60.000
G3 X-0.178 Y4.396 Z-1.000 I-4.396 J-0.178 K0.000 F60.000
G0 Z5.000
G0 X-0.308 Y7.594 Z5.000
G0 X-0.308 Y7.594 Z3.000
G1 X-0.308 Y7.594 Z-1.000 F60.000
G3 X-7.594 Y-0.308 Z-1.000 I0.308 J-7.594 K0.000 F60.000
G3 X0.308 Y-7.594 Z-1.000 I7.594 J0.308 K0.000 F60.000
G3 X7.594 Y0.308 Z-1.000 I-0.308 J7.594 K0.000 F60.000
G3 X-0.308 Y7.594 Z-1.000 I-7.594 J-0.308 K0.000 F60.000
G0 Z5.000
G0 X-0.988 Y-10.788 Z5.000
G0 X-0.988 Y-10.788 Z3.000
G1 X-0.988 Y-10.788 Z-1.000 F60.000
G2 X0.042 Y-10.833 Z-1.000 I0.234 J-6.439 K0.000 F60.000
G2 X1.071 Y-10.780 Z-1.000 I0.845 J-6.388 K0.000 F60.000
G2 X2.091 Y-10.629 Z-1.000 I1.448 J-6.279 K0.000 F60.000
G2 X3.092 Y-10.382 Z-1.000 I2.039 J-6.112 K0.000 F60.000
G2 X4.065 Y-10.041 Z-1.000 I2.611 J-5.891 K0.000 F60.000
G2 X5.001 Y-9.609 Z-1.000 I3.159 J-5.616 K0.000 F60.000
G2 X5.892 Y-9.090 Z-1.000 I3.678 J-5.291 K0.000 F60.000
G2 X6.729 Y-8.489 Z-1.000 I4.165 J-4.917 K0.000 F60.000
G2 X7.506 Y-7.811 Z-1.000 I4.613 J-4.499 K0.000 F60.000
G2 X8.214 Y-7.062 Z-1.000 I5.020 J-4.040 K0.000 F60.000
G2 X8.848 Y-6.249 Z-1.000 I5.381 J-3.544 K0.000 F60.000
G2 X9.402 Y-5.380 Z-1.000 I5.694 J-3.017 K0.000 F60.000
G2 X9.871 Y-4.462 Z-1.000 I5.955 J-2.462 K0.000 F60.000
G2 X10.250 Y-3.504 Z-1.000 I6.162 J-1.885 K0.000 F60.000
G2 X10.537 Y-2.513 Z-1.000 I6.313 J-1.291 K0.000 F60.000
G2 X10.728 Y-1.500 Z-1.000 I6.407 J-0.685 K0.000 F60.000
G2 X10.822 Y-0.474 Z-1.000 I6.443 J-0.073 K0.000 F60.000
G2 X10.818 Y0.557 Z-1.000 I6.421 J0.540 K0.000 F60.000
G2 X10.716 Y1.583 Z-1.000 I6.340 J1.148 K0.000 F60.000
G2 X10.517 Y2.594 Z-1.000 I6.203 J1.746 K0.000 F60.000
G2 X10.223 Y3.582 Z-1.000 I6.009 J2.327 K0.000 F60.000
G2 X9.836 Y4.538 Z-1.000 I5.760 J2.888 K0.000 F60.000
G2 X9.360 Y5.452 Z-1.000 I5.460 J3.422 K0.000 F60.000
G2 X8.800 Y6.318 Z-1.000 I5.109 J3.926 K0.000 F60.000
G2 X8.159 Y7.125 Z-1.000 I4.713 J4.394 K0.000 F60.000
G2 X7.445 Y7.869 Z-1.000 I4.274 J4.822 K0.000 F60.000
G2 X6.663 Y8.541 Z-1.000 I3.796 J5.206 K0.000 F60.000
G2 X5.821 Y9.136 Z-1.000 I3.284 J5.544 K0.000 F60.000
G2 X4.927 Y9.648 Z-1.000 I2.743 J5.831 K0.000 F60.000
G2 X3.987 Y10.072 Z-1.000 I2.176 J6.065 K0.000 F60.000
G2 X3.012 Y10.406 Z-1.000 I1.590 J6.244 K0.000 F60.000
G2 X2.009 Y10.645 Z-1.000 I0.989 J6.367 K0.000 F60.000
G2 X0.988 Y10.788 Z-1.000 I0.379 J6.432 K0.000 F60.000
G2 X-0.042 Y10.833 Z-1.000 I-0.234 J6.439 K0.000 F60.000
G2 X-1.071 Y10.780 Z-1.000 I-0.845 J6.388 K0.000 F60.000
G2 X-2.091 Y10.629 Z-1.000 I-1.448 J6.279 K0.000 F60.000
G2 X-3.092 Y10.382 Z-1.000 I-2.039 J6.112 K0.000 F60.000
G2 X-4.065 Y10.041 Z-1.000 I-2.611 J5.891 K0.000 F60.000
G2 X-5.001 Y9.609 Z-1.000 I-3.159 J5.616 K0.000 F60.000
G2 X-5.892 Y9.090 Z-1.000 I-3.678 J5.291 K0.000 F60.000
G2 X-6.729 Y8.489 Z-1.000 I-4.165 J4.917 K0.000 F60.000
G2 X-7.506 Y7.811 Z-1.000 I-4.613 J4.499 K0.000 F60.000
G2 X-8.214 Y7.062 Z-1.000 I-5.020 J4.040 K0.000 F60.000
G2 X-8.848 Y6.249 Z-1.000 I-5.381 J3.544 K0.000 F60.000
G2 X-9.402 Y5.380 Z-1.000 I-5.694 J3.017 K0.000 F60.000
G2 X-9.871 Y4.462 Z-1.000 I-5.955 J2.462 K0.000 F60.000
G2 X-10.250 Y3.504 Z-1.000 I-6.162 J1.885 K0.000 F60.000
G2 X-10.537 Y2.513 Z-1.000 I-6.313 J1.291 K0.000 F60.000
G2 X-10.728 Y1.500 Z-1.000 I-6.407 J0.685 K0.000 F60.000
G2 X-10.822 Y0.474 Z-1.000 I-6.443 J0.073 K0.000 F60.000
G2 X-10.818 Y-0.557 Z-1.000 I-6.421 J-0.540 K0.000 F60.000
G2 X-10.716 Y-1.583 Z-1.000 I-6.340 J-1.148 K0.000 F60.000
G2 X-10.517 Y-2.594 Z-1.000 I-6.203 J-1.746 K0.000 F60.000
G2 X-10.223 Y-3.582 Z-1.000 I-6.009 J-2.327 K0.000 F60.000
G2 X-9.836 Y-4.538 Z-1.000 I-5.760 J-2.888 K0.000 F60.000
G2 X-9.360 Y-5.452 Z-1.000 I-5.460 J-3.422 K0.000 F60.000
G2 X-8.800 Y-6.318 Z-1.000 I-5.109 J-3.926 K0.000 F60.000
G2 X-8.159 Y-7.125 Z-1.000 I-4.713 J-4.394 K0.000 F60.000
G2 X-7.445 Y-7.869 Z-1.000 I-4.274 J-4.822 K0.000 F60.000
G2 X-6.663 Y-8.541 Z-1.000 I-3.796 J-5.206 K0.000 F60.000
G2 X-5.821 Y-9.136 Z-1.000 I-3.284 J-5.544 K0.000 F60.000
G2 X-4.927 Y-9.648 Z-1.000 I-2.743 J-5.831 K0.000 F60.000
G2 X-3.987 Y-10.072 Z-1.000 I-2.176 J-6.065 K0.000 F60.000
G2 X-3.012 Y-10.406 Z-1.000 I-1.590 J-6.244 K0.000 F60.000
G2 X-2.009 Y-10.645 Z-1.000 I-0.989 J-6.367 K0.000 F60.000
G2 X-0.988 Y-10.788 Z-1.000 I-0.379 J-6.432 K0.000 F60.000
G0 Z5.000
G0 X-1.333 Y-14.008 Z5.000
G0 X-1.333 Y-14.008 Z3.000
G1 X-1.333 Y-14.008 Z-1.000 F60.000
G2 X0.005 Y-14.072 Z-1.000 I0.480 J-4.017 K0.000 F60.000
G2 X1.343 Y-14.008 Z-1.000 I0.860 J-3.953 K0.000 F60.000
G2 X2.668 Y-13.816 Z-1.000 I1.232 J-3.854 K0.000 F60.000
G2 X3.969 Y-13.500 Z-1.000 I1.593 J-3.719 K0.000 F60.000
G2 X5.235 Y-13.062 Z-1.000 I1.939 J-3.551 K0.000 F60.000
G2 X6.452 Y-12.505 Z-1.000 I2.268 J-3.350 K0.000 F60.000
G2 X7.612 Y-11.835 Z-1.000 I2.576 J-3.120 K0.000 F60.000
G2 X8.702 Y-11.058 Z-1.000 I2.861 J-2.861 K0.000 F60.000
G2 X9.714 Y-10.181 Z-1.000 I3.120 J-2.576 K0.000 F60.000
G2 X10.638 Y-9.211 Z-1.000 I3.350 J-2.268 K0.000 F60.000
G2 X11.465 Y-8.158 Z-1.000 I3.551 J-1.939 K0.000 F60.000
G2 X12.189 Y-7.032 Z-1.000 I3.719 J-1.592 K0.000 F60.000
G2 X12.802 Y-5.841 Z-1.000 I3.854 J-1.232 K0.000 F60.000
G2 X13.299 Y-4.598 Z-1.000 I3.953 J-0.860 K0.000 F60.000
G2 X13.676 Y-3.313 Z-1.000 I4.017 J-0.480 K0.000 F60.000
G2 X13.929 Y-1.998 Z-1.000 I4.044 J-0.096 K0.000 F60.000
G2 X14.056 Y-0.665 Z-1.000 I4.035 J0.289 K0.000 F60.000
G2 X14.056 Y0.674 Z-1.000 I3.990 J0.671 K0.000 F60.000
G2 X13.928 Y2.007 Z-1.000 I3.908 J1.047 K0.000 F60.000
G2 X13.674 Y3.322 Z-1.000 I3.791 J1.414 K0.000 F60.000
G2 X13.296 Y4.607 Z-1.000 I3.639 J1.768 K0.000 F60.000
G2 X12.798 Y5.850 Z-1.000 I3.454 J2.106 K0.000 F60.000
G2 X12.184 Y7.040 Z-1.000 I3.239 J2.425 K0.000 F60.000
G2 X11.460 Y8.166 Z-1.000 I2.994 J2.721 K0.000 F60.000
G2 X10.631 Y9.219 Z-1.000 I2.721 J2.994 K0.000 F60.000
G2 X9.707 Y10.188 Z-1.000 I2.424 J3.239 K0.000 F60.000
G2 X8.695 Y11.064 Z-1.000 I2.106 J3.455 K0.000 F60.000
G2 X7.604 Y11.841 Z-1.000 I1.768 J3.639 K0.000 F60.000
G2 X6.444 Y12.510 Z-1.000 I1.414 J3.791 K0.000 F60.000
G2 X5.225 Y13.066 Z-1.000 I1.047 J3.908 K0.000 F60.000
G2 X3.960 Y13.503 Z-1.000 I0.671 J3.990 K0.000 F60.000
G2 X2.658 Y13.818 Z-1.000 I0.289 J4.035 K0.000 F60.000
G2 X1.333 Y14.008 Z-1.000 I-0.096 J4.044 K0.000 F60.000
G2 X-0.005 Y14.072 Z-1.000 I-0.480 J4.017 K0.000 F60.000
G2 X-1.343 Y14.008 Z-1.000 I-0.860 J3.953 K0.000 F60.000
G2 X-2.668 Y13.816 Z-1.000 I-1.232 J3.854 K0.000 F60.000
G2 X-3.969 Y13.500 Z-1.000 I-1.593 J3.719 K0.000 F60.000
G2 X-5.235 Y13.062 Z-1.000 I-1.939 J3.551 K0.000 F60.000
G2 X-6.452 Y12.505 Z-1.000 I-2.268 J3.350 K0.000 F60.000
G2 X-7.612 Y11.835 Z-1.000 I-2.576 J3.120 K0.000 F60.000
G2 X-8.702 Y11.058 Z-1.000 I-2.861 J2.861 K0.000 F60.000
G2 X-9.714 Y10.181 Z-1.000 I-3.120 J2.576 K0.000 F60.000
G2 X-10.638 Y9.211 Z-1.000 I-3.350 J2.268 K0.000 F60.000
G2 X-11.465 Y8.158 Z-1.000 I-3.551 J1.939 K0.000 F60.000
G2 X-12.189 Y7.032 Z-1.000 I-3.719 J1.592 K0.000 F60.000
G2 X-12.802 Y5.841 Z-1.000 I-3.854 J1.232 K0.000 F60.000
G2 X-13.299 Y4.598 Z-1.000 I-3.953 J0.860 K0.000 F60.000
G2 X-13.676 Y3.313 Z-1.000 I-4.017 J0.480 K0.000 F60.000
G2 X-13.929 Y1.998 Z-1.000 I-4.044 J0.096 K0.000 F60.000
G2 X-14.056 Y0.665 Z-1.000 I-4.035 J-0.289 K0.000 F60.000
G2 X-14.056 Y-0.674 Z-1.000 I-3.990 J-0.671 K0.000 F60.000
G2 X-13.928 Y-2.007 Z-1.000 I-3.908 J-1.047 K0.000 F60.000
G2 X-13.674 Y-3.322 Z-1.000 I-3.791 J-1.414 K0.000 F60.000
G2 X-13.296 Y-4.607 Z-1.000 I-3.639 J-1.768 K0.000 F60.000
G2 X-12.798 Y-5.850 Z-1.000 I-3.454 J-2.106 K0.000 F60.000
G2 X-12.184 Y-7.040 Z-1.000 I-3.239 J-2.425 K0.000 F60.000
G2 X-11.460 Y-8.166 Z-1.000 I-2.994 J-2.721 K0.000 F60.000
G2 X-10.631 Y-9.219 Z-1.000 I-2.721 J-2.994 K0.000 F60.000
G2 X-9.707 Y-10.188 Z-1.000 I-2.424 J-3.239 K0.000 F60.000
G2 X-8.695 Y-11.064 Z-1.000 I-2.106 J-3.455 K0.000 F60.000
G2 X-7.604 Y-11.841 Z-1.000 I-1.768 J-3.639 K0.000 F60.000
G2 X-6.444 Y-12.510 Z-1.000 I-1.414 J-3.791 K0.000 F60.000
G2 X-5.225 Y-13.066 Z-1.000 I-1.047 J-3.908 K0.000 F60.000
G2 X-3.960 Y-13.503 Z-1.000 I-0.671 J-3.990 K0.000 F60.000
G2 X-2.658 Y-13.818 Z-1.000 I-0.289 J-4.035 K0.000 F60.000
G2 X-1.333 Y-14.008 Z-1.000 I0.096 J-4.044 K0.000 F60.000
G0 Z5.000
G0 X-0.011 Y0.200 Z5.000
G0 X-0.011 Y0.200 Z3.000
G1 X-0.011 Y0.200 Z-2.000 F60.000
G3 X0.009 Y-0.200 Z-2.000 I0.011 J-0.200 K0.000 F60.000
G3 X0.200 Y0.010 Z-2.000 I-0.009 J0.200 K0.000 F60.000
G3 X-0.011 Y0.200 Z-2.000 I-0.200 J-0.010 K0.000 F60.000
G0 Z5.000
G0 X-0.066 Y1.198 Z5.000
G0 X-0.066 Y1.198 Z3.000
G1 X-0.066 Y1.198 Z-2.000 F60.000
G3 X0.057 Y-1.199 Z-2.000 I0.065 J-1.198 K0.000 F60.000
G3 X1.198 Y0.061 Z-2.000 I-0.057 J1.199 K0.000 F60.000
G3 X-0.066 Y1.198 Z-2.000 I-1.198 J-0.061 K0.000 F60.000
G0 Z5.000
G0 X-0.178 Y4.396 Z5.000
G0 X-0.178 Y4.396 Z3.000
G1 X-0.178 Y4.396 Z-2.000 F60.000
G3 X-4.397 Y-0.178 Z-2.000 I0.178 J-4.396 K0.000 F60.000
G3 X0.178 Y-4.396 Z-2.000 I4.396 J0.178 K0.000 F60.000
G3 X4.397 Y0.178 Z-2.000 I-0.178 J4.396 K0.000 F60.000
G3 X-0.178 Y4.396 Z-2.000 I-4.396 J-0.178 K0.000 F60.000
G0 Z5.000
G0 X-0.308 Y7.594 Z5.000
G0 X-0.308 Y7.594 Z3.000
G1 X-0.308 Y7.594 Z-2.000 F60.000
G3 X-7.594 Y-0.308 Z-2.000 I0.308 J-7.594 K0.000 F60.000
G3 X0.308 Y-7.594 Z-2.000 I7.594 J0.308 K0.000 F60.000
G3 X7.594 Y0.308 Z-2.000 I-0.308 J7.594 K0.000 F60.000
G3 X-0.308 Y7.594 Z-2.000 I-7.594 J-0.308 K0.000 F60.000
G0 Z5.000
G0 X-0.988 Y-10.788 Z5.000
G0 X-0.988 Y-10.788 Z3.000
G1 X-0.988 Y-10.788 Z-2.000 F60.000
G2 X0.042 Y-10.833 Z-2.000 I0.234 J-6.439 K0.000 F60.000
G2 X1.071 Y-10.780 Z-2.000 I0.845 J-6.388 K0.000 F60.000
G2 X2.091 Y-10.629 Z-2.000 I1.448 J-6.279 K0.000 F60.000
G2 X3.092 Y-10.382 Z-2.000 I2.039 J-6.112 K0.000 F60.000
G2 X4.065 Y-10.041 Z-2.000 I2.611 J-5.891 K0.000 F60.000
G2 X5.001 Y-9.609 Z-2.000 I3.159 J-5.616 K0.000 F60.000
G2 X5.892 Y-9.090 Z-2.000 I3.678 J-5.291 K0.000 F60.000
G2 X6.729 Y-8.489 Z-2.000 I4.165 J-4.917 K0.000 F60.000
G2 X7.506 Y-7.811 Z-2.000 I4.613 J-4.499 K0.000 F60.000
G2 X8.214 Y-7.062 Z-2.000 I5.020 J-4.040 K0.000 F60.000
G2 X8.848 Y-6.249 Z-2.000 I5.381 J-3.544 K0.000 F60.000
G2 X9.402 Y-5.380 Z-2.000 I5.694 J-3.017 K0.000 F60.000
G2 X9.871 Y-4.462 Z-2.000 I5.955 J-2.462 K0.000 F60.000
G2 X10.250 Y-3.504 Z-2.000 I6.162 J-1.885 K0.000 F60.000
G2 X10.537 Y-2.513 Z-2.000 I6.313 J-1.291 K0.000 F60.000
G2 X10.728 Y-1.500 Z-2.000 I6.407 J-0.685 K0.000 F60.000
G2 X10.822 Y-0.474 Z-2.000 I6.443 J-0.073 K0.000 F60.000
G2 X10.818 Y0.557 Z-2.000 I6.421 J0.540 K0.000 F60.000
G2 X10.716 Y1.583 Z-2.000 I6.340 J1.148 K0.000 F60.000
G2 X10.517 Y2.594 Z-2.000 I6.203 J1.746 K0.000 F60.000
G2 X10.223 Y3.582 Z-2.000 I6.009 J2.327 K0.000 F60.000
G2 X9.836 Y4.538 Z-2.000 I5.760 J2.888 K0.000 F60.000
G2 X9.360 Y5.452 Z-2.000 I5.460 J3.422 K0.000 F60.000
G2 X8.800 Y6.318 Z-2.000 I5.109 J3.926 K0.000 F60.000
G2 X8.159 Y7.125 Z-2.000 I4.713 J4.394 K0.000 F60.000
G2 X7.445 Y7.869 Z-2.000 I4.274 J4.822 K0.000 F60.000
G2 X6.663 Y8.541 Z-2.000 I3.796 J5.206 K0.000 F60.000
G2 X5.821 Y9.136 Z-2.000 I3.284 J5.544 K0.000 F60.000
G2 X4.927 Y9.648 Z-2.000 I2.743 J5.831 K0.000 F60.000
G2 X3.987 Y10.072 Z-2.000 I2.176 J6.065 K0.000 F60.000
G2 X3.012 Y10.406 Z-2.000 I1.590 J6.244 K0.000 F60.000
G2 X2.009 Y10.645 Z-2.000 I0.989 J6.367 K0.000 F60.000
G2 X0.988 Y10.788 Z-2.000 I0.379 J6.432 K0.000 F60.000
G2 X-0.042 Y10.833 Z-2.000 I-0.234 J6.439 K0.000 F60.000
G2 X-1.071 Y10.780 Z-2.000 I-0.845 J6.388 K0.000 F60.000
G2 X-2.091 Y10.629 Z-2.000 I-1.448 J6.279 K0.000 F60.000
G2 X-3.092 Y10.382 Z-2.000 I-2.039 J6.112 K0.000 F60.000
G2 X-4.065 Y10.041 Z-2.000 I-2.611 J5.891 K0.000 F60.000
G2 X-5.001 Y9.609 Z-2.000 I-3.159 J5.616 K0.000 F60.000
G2 X-5.892 Y9.090 Z-2.000 I-3.678 J5.291 K0.000 F60.000
G2 X-6.729 Y8.489 Z-2.000 I-4.165 J4.917 K0.000 F60.000
G2 X-7.506 Y7.811 Z-2.000 I-4.613 J4.499 K0.000 F60.000
G2 X-8.214 Y7.062 Z-2.000 I-5.020 J4.040 K0.000 F60.000
G2 X-8.848 Y6.249 Z-2.000 I-5.381 J3.544 K0.000 F60.000
G2 X-9.402 Y5.380 Z-2.000 I-5.694 J3.017 K0.000 F60.000
G2 X-9.871 Y4.462 Z-2.000 I-5.955 J2.462 K0.000 F60.000
G2 X-10.250 Y3.504 Z-2.000 I-6.162 J1.885 K0.000 F60.000
G2 X-10.537 Y2.513 Z-2.000 I-6.313 J1.291 K0.000 F60.000
G2 X-10.728 Y1.500 Z-2.000 I-6.407 J0.685 K0.000 F60.000
G2 X-10.822 Y0.474 Z-2.000 I-6.443 J0.073 K0.000 F60.000
G2 X-10.818 Y-0.557 Z-2.000 I-6.421 J-0.540 K0.000 F60.000
G2 X-10.716 Y-1.583 Z-2.000 I-6.340 J-1.148 K0.000 F60.000
G2 X-10.517 Y-2.594 Z-2.000 I-6.203 J-1.746 K0.000 F60.000
G2 X-10.223 Y-3.582 Z-2.000 I-6.009 J-2.327 K0.000 F60.000
G2 X-9.836 Y-4.538 Z-2.000 I-5.760 J-2.888 K0.000 F60.000
G2 X-9.360 Y-5.452 Z-2.000 I-5.460 J-3.422 K0.000 F60.000
G2 X-8.800 Y-6.318 Z-2.000 I-5.109 J-3.926 K0.000 F60.000
G2 X-8.159 Y-7.125 Z-2.000 I-4.713 J-4.394 K0.000 F60.000
G2 X-7.445 Y-7.869 Z-2.000 I-4.274 J-4.822 K0.000 F60.000
G2 X-6.663 Y-8.541 Z-2.000 I-3.796 J-5.206 K0.000 F60.000
G2 X-5.821 Y-9.136 Z-2.000 I-3.284 J-5.544 K0.000 F60.000
G2 X-4.927 Y-9.648 Z-2.000 I-2.743 J-5.831 K0.000 F60.000
G2 X-3.987 Y-10.072 Z-2.000 I-2.176 J-6.065 K0.000 F60.000
G2 X-3.012 Y-10.406 Z-2.000 I-1.590 J-6.244 K0.000 F60.000
G2 X-2.009 Y-10.645 Z-2.000 I-0.989 J-6.367 K0.000 F60.000
G2 X-0.988 Y-10.788 Z-2.000 I-0.379 J-6.432 K0.000 F60.000
G0 Z5.000
G0 X-1.333 Y-14.008 Z5.000
G0 X-1.333 Y-14.008 Z3.000
G1 X-1.333 Y-14.008 Z-2.000 F60.000
G2 X0.005 Y-14.072 Z-2.000 I0.480 J-4.017 K0.000 F60.000
G2 X1.343 Y-14.008 Z-2.000 I0.860 J-3.953 K0.000 F60.000
G2 X2.668 Y-13.816 Z-2.000 I1.232 J-3.854 K0.000 F60.000
G2 X3.969 Y-13.500 Z-2.000 I1.593 J-3.719 K0.000 F60.000
G2 X5.235 Y-13.062 Z-2.000 I1.939 J-3.551 K0.000 F60.000
G2 X6.452 Y-12.505 Z-2.000 I2.268 J-3.350 K0.000 F60.000
G2 X7.612 Y-11.835 Z-2.000 I2.576 J-3.120 K0.000 F60.000
G2 X8.702 Y-11.058 Z-2.000 I2.861 J-2.861 K0.000 F60.000
G2 X9.714 Y-10.181 Z-2.000 I3.120 J-2.576 K0.000 F60.000
G2 X10.638 Y-9.211 Z-2.000 I3.350 J-2.268 K0.000 F60.000
G2 X11.465 Y-8.158 Z-2.000 I3.551 J-1.939 K0.000 F60.000
G2 X12.189 Y-7.032 Z-2.000 I3.719 J-1.592 K0.000 F60.000
G2 X12.802 Y-5.841 Z-2.000 I3.854 J-1.232 K0.000 F60.000
G2 X13.299 Y-4.598 Z-2.000 I3.953 J-0.860 K0.000 F60.000
G2 X13.676 Y-3.313 Z-2.000 I4.017 J-0.480 K0.000 F60.000
G2 X13.929 Y-1.998 Z-2.000 I4.044 J-0.096 K0.000 F60.000
G2 X14.056 Y-0.665 Z-2.000 I4.035 J0.289 K0.000 F60.000
G2 X14.056 Y0.674 Z-2.000 I3.990 J0.671 K0.000 F60.000
G2 X13.928 Y2.007 Z-2.000 I3.908 J1.047 K0.000 F60.000
G2 X13.674 Y3.322 Z-2.000 I3.791 J1.414 K0.000 F60.000
G2 X13.296 Y4.607 Z-2.000 I3.639 J1.768 K0.000 F60.000
G2 X12.798 Y5.850 Z-2.000 I3.454 J2.106 K0.000 F60.000
G2 X12.184 Y7.040 Z-2.000 I3.239 J2.425 K0.000 F60.000
G2 X11.460 Y8.166 Z-2.000 I2.994 J2.721 K0.000 F60.000
G2 X10.631 Y9.219 Z-2.000 I2.721 J2.994 K0.000 F60.000
G2 X9.707 Y10.188 Z-2.000 I2.424 J3.239 K0.000 F60.000
G2 X8.695 Y11.064 Z-2.000 I2.106 J3.455 K0.000 F60.000
G2 X7.604 Y11.841 Z-2.000 I1.768 J3.639 K0.000 F60.000
G2 X6.444 Y12.510 Z-2.000 I1.414 J3.791 K0.000 F60.000
G2 X5.225 Y13.066 Z-2.000 I1.047 J3.908 K0.000 F60.000
G2 X3.960 Y13.503 Z-2.000 I0.671 J3.990 K0.000 F60.000
G2 X2.658 Y13.818 Z-2.000 I0.289 J4.035 K0.000 F60.000
G2 X1.333 Y14.008 Z-2.000 I-0.096 J4.044 K0.000 F60.000
G2 X-0.005 Y14.072 Z-2.000 I-0.480 J4.017 K0.000 F60.000
G2 X-1.343 Y14.008 Z-2.000 I-0.860 J3.953 K0.000 F60.000
G2 X-2.668 Y13.816 Z-2.000 I-1.232 J3.854 K0.000 F60.000
G2 X-3.969 Y13.500 Z-2.000 I-1.593 J3.719 K0.000 F60.000
G2 X-5.235 Y13.062 Z-2.000 I-1.939 J3.551 K0.000 F60.000
G2 X-6.452 Y12.505 Z-2.000 I-2.268 J3.350 K0.000 F60.000
G2 X-7.612 Y11.835 Z-2.000 I-2.576 J3.120 K0.000 F60.000
G2 X-8.702 Y11.058 Z-2.000 I-2.861 J2.861 K0.000 F60.000
G2 X-9.714 Y10.181 Z-2.000 I-3.120 J2.576 K0.000 F60.000
G2 X-10.638 Y9.211 Z-2.000 I-3.350 J2.268 K0.000 F60.000
G2 X-11.465 Y8.158 Z-2.000 I-3.551 J1.939 K0.000 F60.000
G2 X-12.189 Y7.032 Z-2.000 I-3.719 J1.592 K0.000 F60.000
G2 X-12.802 Y5.841 Z-2.000 I-3.854 J1.232 K0.000 F60.000
G2 X-13.299 Y4.598 Z-2.000 I-3.953 J0.860 K0.000 F60.000
G2 X-13.676 Y3.313 Z-2.000 I-4.017 J0.480 K0.000 F60.000
G2 X-13.929 Y1.998 Z-2.000 I-4.044 J0.096 K0.000 F60.000
G2 X-14.056 Y0.665 Z-2.000 I-4.035 J-0.289 K0.000 F60.000
G2 X-14.056 Y-0.674 Z-2.000 I-3.990 J-0.671 K0.000 F60.000
G2 X-13.928 Y-2.007 Z-2.000 I-3.908 J-1.047 K0.000 F60.000
G2 X-13.674 Y-3.322 Z-2.000 I-3.791 J-1.414 K0.000 F60.000
G2 X-13.296 Y-4.607 Z-2.000 I-3.639 J-1.768 K0.000 F60.000
G2 X-12.798 Y-5.850 Z-2.000 I-3.454 J-2.106 K0.000 F60.000
G2 X-12.184 Y-7.040 Z-2.000 I-3.239 J-2.425 K0.000 F60.000
G2 X-11.460 Y-8.166 Z-2.000 I-2.994 J-2.721 K0.000 F60.000
G2 X-10.631 Y-9.219 Z-2.000 I-2.721 J-2.994 K0.000 F60.000
G2 X-9.707 Y-10.188 Z-2.000 I-2.424 J-3.239 K0.000 F60.000
G2 X-8.695 Y-11.064 Z-2.000 I-2.106 J-3.455 K0.000 F60.000
G2 X-7.604 Y-11.841 Z-2.000 I-1.768 J-3.639 K0.000 F60.000
G2 X-6.444 Y-12.510 Z-2.000 I-1.414 J-3.791 K0.000 F60.000
G2 X-5.225 Y-13.066 Z-2.000 I-1.047 J-3.908 K0.000 F60.000
G2 X-3.960 Y-13.503 Z-2.000 I-0.671 J-3.990 K0.000 F60.000
G2 X-2.658 Y-13.818 Z-2.000 I-0.289 J-4.035 K0.000 F60.000
G2 X-1.333 Y-14.008 Z-2.000 I0.096 J-4.044 K0.000 F60.000
G0 Z5.000
G0 X-0.011 Y0.200 Z5.000
G0 X-0.011 Y0.200 Z3.000
G1 X-0.011 Y0.200 Z-3.000 F60.000
G3 X0.009 Y-0.200 Z-3.000 I0.011 J-0.200 K0.000 F60.000
G3 X0.200 Y0.010 Z-3.000 I-0.009 J0.200 K0.000 F60.000
G3 X-0.011 Y0.200 Z-3.000 I-0.200 J-0.010 K0.000 F60.000
G0 Z5.000
G0 X-0.066 Y1.198 Z5.000
G0 X-0.066 Y1.198 Z3.000
G1 X-0.066 Y1.198 Z-3.000 F60.000
G3 X0.057 Y-1.199 Z-3.000 I0.065 J-1.198 K0.000 F60.000
G3 X1.198 Y0.061 Z-3.000 I-0.057 J1.199 K0.000 F60.000
G3 X-0.066 Y1.198 Z-3.000 I-1.198 J-0.061 K0.000 F60.000
G0 Z5.000
G0 X-0.178 Y4.396 Z5.000
G0 X-0.178 Y4.396 Z3.000
G1 X-0.178 Y4.396 Z-3.000 F60.000
G3 X-4.397 Y-0.178 Z-3.000 I0.178 J-4.396 K0.000 F60.000
G3 X0.178 Y-4.396 Z-3.000 I4.396 J0.178 K0.000 F60.000
G3 X4.397 Y0.178 Z-3.000 I-0.178 J4.396 K0.000 F60.000
G3 X-0.178 Y4.396 Z-3.000 I-4.396 J-0.178 K0.000 F60.000
G0 Z5.000
G0 X-0.308 Y7.594 Z5.000
G0 X-0.308 Y7.594 Z3.000
G1 X-0.308 Y7.594 Z-3.000 F60.000
G3 X-7.594 Y-0.308 Z-3.000 I0.308 J-7.594 K0.000 F60.000
G3 X0.308 Y-7.594 Z-3.000 I7.594 J0.308 K0.000 F60.000
G3 X7.594 Y0.308 Z-3.000 I-0.308 J7.594 K0.000 F60.000
G3 X-0.308 Y7.594 Z-3.000 I-7.594 J-0.308 K0.000 F60.000
G0 Z5.000
G0 X-0.988 Y-10.788 Z5.000
G0 X-0.988 Y-10.788 Z3.000
G1 X-0.988 Y-10.788 Z-3.000 F60.000
G2 X0.042 Y-10.833 Z-3.000 I0.234 J-6.439 K0.000 F60.000
G2 X1.071 Y-10.780 Z-3.000 I0.845 J-6.388 K0.000 F60.000
G2 X2.091 Y-10.629 Z-3.000 I1.448 J-6.279 K0.000 F60.000
G2 X3.092 Y-10.382 Z-3.000 I2.039 J-6.112 K0.000 F60.000
G2 X4.065 Y-10.041 Z-3.000 I2.611 J-5.891 K0.000 F60.000
G2 X5.001 Y-9.609 Z-3.000 I3.159 J-5.616 K0.000 F60.000
G2 X5.892 Y-9.090 Z-3.000 I3.678 J-5.291 K0.000 F60.000
G2 X6.729 Y-8.489 Z-3.000 I4.165 J-4.917 K0.000 F60.000
G2 X7.506 Y-7.811 Z-3.000 I4.613 J-4.499 K0.000 F60.000
G2 X8.214 Y-7.062 Z-3.000 I5.020 J-4.040 K0.000 F60.000
G2 X8.848 Y-6.249 Z-3.000 I5.381 J-3.544 K0.000 F60.000
G2 X9.402 Y-5.380 Z-3.000 I5.694 J-3.017 K0.000 F60.000
G2 X9.871 Y-4.462 Z-3.000 I5.955 J-2.462 K0.000 F60.000
G2 X10.250 Y-3.504 Z-3.000 I6.162 J-1.885 K0.000 F60.000
G2 X10.537 Y-2.513 Z-3.000 I6.313 J-1.291 K0.000 F60.000
G2 X10.728 Y-1.500 Z-3.000 I6.407 J-0.685 K0.000 F60.000
G2 X10.822 Y-0.474 Z-3.000 I6.443 J-0.073 K0.000 F60.000
G2 X10.818 Y0.557 Z-3.000 I6.421 J0.540 K0.000 F60.000
G2 X10.716 Y1.583 Z-3.000 I6.340 J1.148 K0.000 F60.000
G2 X10.517 Y2.594 Z-3.000 I6.203 J1.746 K0.000 F60.000
G2 X10.223 Y3.582 Z-3.000 I6.009 J2.327 K0.000 F60.000
G2 X9.836 Y4.538 Z-3.000 I5.760 J2.888 K0.000 F60.000
G2 X9.360 Y5.452 Z-3.000 I5.460 J3.422 K0.000 F60.000
G2 X8.800 Y6.318 Z-3.000 I5.109 J3.926 K0.000 F60.000
G2 X8.159 Y7.125 Z-3.000 I4.713 J4.394 K0.000 F60.000
G2 X7.445 Y7.869 Z-3.000 I4.274 J4.822 K0.000 F60.000
G2 X6.663 Y8.541 Z-3.000 I3.796 J5.206 K0.000 F60.000
G2 X5.821 Y9.136 Z-3.000 I3.284 J5.544 K0.000 F60.000
G2 X4.927 Y9.648 Z-3.000 I2.743 J5.831 K0.000 F60.000
G2 X3.987 Y10.072 Z-3.000 I2.176 J6.065 K0.000 F60.000
G2 X3.012 Y10.406 Z-3.000 I1.590 J6.244 K0.000 F60.000
G2 X2.009 Y10.645 Z-3.000 I0.989 J6.367 K0.000 F60.000
G2 X0.988 Y10.788 Z-3.000 I0.379 J6.432 K0.000 F60.000
G2 X-0.042 Y10.833 Z-3.000 I-0.234 J6.439 K0.000 F60.000
G2 X-1.071 Y10.780 Z-3.000 I-0.845 J6.388 K0.000 F60.000
G2 X-2.091 Y10.629 Z-3.000 I-1.448 J6.279 K0.000 F60.000
G2 X-3.092 Y10.382 Z-3.000 I-2.039 J6.112 K0.000 F60.000
G2 X-4.065 Y10.041 Z-3.000 I-2.611 J5.891 K0.000 F60.000
G2 X-5.001 Y9.609 Z-3.000 I-3.159 J5.616 K0.000 F60.000
G2 X-5.892 Y9.090 Z-3.000 I-3.678 J5.291 K0.000 F60.000
G2 X-6.729 Y8.489 Z-3.000 I-4.165 J4.917 K0.000 F60.000
G2 X-7.506 Y7.811 Z-3.000 I-4.613 J4.499 K0.000 F60.000
G2 X-8.214 Y7.062 Z-3.000 I-5.020 J4.040 K0.000 F60.000
G2 X-8.848 Y6.249 Z-3.000 I-5.381 J3.544 K0.000 F60.000
G2 X-9.402 Y5.380 Z-3.000 I-5.694 J3.017 K0.000 F60.000
G2 X-9.871 Y4.462 Z-3.000 I-5.955 J2.462 K0.000 F60.000
G2 X-10.250 Y3.504 Z-3.000 I-6.162 J1.885 K0.000 F60.000
G2 X-10.537 Y2.513 Z-3.000 I-6.313 J1.291 K0.000 F60.000
G2 X-10.728 Y1.500 Z-3.000 I-6.407 J0.685 K0.000 F60.000
G2 X-10.822 Y0.474 Z-3.000 I-6.443 J0.073 K0.000 F60.000
G2 X-10.818 Y-0.557 Z-3.000 I-6.421 J-0.540 K0.000 F60.000
G2 X-10.716 Y-1.583 Z-3.000 I-6.340 J-1.148 K0.000 F60.000
G2 X-10.517 Y-2.594 Z-3.000 I-6.203 J-1.746 K0.000 F60.000
G2 X-10.223 Y-3.582 Z-3.000 I-6.009 J-2.327 K0.000 F60.000
G2 X-9.836 Y-4.538 Z-3.000 I-5.760 J-2.888 K0.000 F60.000
G2 X-9.360 Y-5.452 Z-3.000 I-5.460 J-3.422 K0.000 F60.000
G2 X-8.800 Y-6.318 Z-3.000 I-5.109 J-3.926 K0.000 F60.000
G2 X-8.159 Y-7.125 Z-3.000 I-4.713 J-4.394 K0.000 F60.000
G2 X-7.445 Y-7.869 Z-3.000 I-4.274 J-4.822 K0.000 F60.000
G2 X-6.663 Y-8.541 Z-3.000 I-3.796 J-5.206 K0.000 F60.000
G2 X-5.821 Y-9.136 Z-3.000 I-3.284 J-5.544 K0.000 F60.000
G2 X-4.927 Y-9.648 Z-3.000 I-2.743 J-5.831 K0.000 F60.000
G2 X-3.987 Y-10.072 Z-3.000 I-2.176 J-6.065 K0.000 F60.000
G2 X-3.012 Y-10.406 Z-3.000 I-1.590 J-6.244 K0.000 F60.000
G2 X-2.009 Y-10.645 Z-3.000 I-0.989 J-6.367 K0.000 F60.000
G2 X-0.988 Y-10.788 Z-3.000 I-0.379 J-6.432 K0.000 F60.000
G0 Z5.000
G0 X-1.333 Y-14.008 Z5.000
G0 X-1.333 Y-14.008 Z3.000
G1 X-1.333 Y-14.008 Z-3.000 F60.000
G2 X0.005 Y-14.072 Z-3.000 I0.480 J-4.017 K0.000 F60.000
G2 X1.343 Y-14.008 Z-3.000 I0.860 J-3.953 K0.000 F60.000
G2 X2.668 Y-13.816 Z-3.000 I1.232 J-3.854 K0.000 F60.000
G2 X3.969 Y-13.500 Z-3.000 I1.593 J-3.719 K0.000 F60.000
G2 X5.235 Y-13.062 Z-3.000 I1.939 J-3.551 K0.000 F60.000
G2 X6.452 Y-12.505 Z-3.000 I2.268 J-3.350 K0.000 F60.000
G2 X7.612 Y-11.835 Z-3.000 I2.576 J-3.120 K0.000 F60.000
G2 X8.702 Y-11.058 Z-3.000 I2.861 J-2.861 K0.000 F60.000
G2 X9.714 Y-10.181 Z-3.000 I3.120 J-2.576 K0.000 F60.000
G2 X10.638 Y-9.211 Z-3.000 I3.350 J-2.268 K0.000 F60.000
G2 X11.465 Y-8.158 Z-3.000 I3.551 J-1.939 K0.000 F60.000
G2 X12.189 Y-7.032 Z-3.000 I3.719 J-1.592 K0.000 F60.000
G2 X12.802 Y-5.841 Z-3.000 I3.854 J-1.232 K0.000 F60.000
G2 X13.299 Y-4.598 Z-3.000 I3.953 J-0.860 K0.000 F60.000
G2 X13.676 Y-3.313 Z-3.000 I4.017 J-0.480 K0.000 F60.000
G2 X13.929 Y-1.998 Z-3.000 I4.044 J-0.096 K0.000 F60.000
G2 X14.056 Y-0.665 Z-3.000 I4.035 J0.289 K0.000 F60.000
G2 X14.056 Y0.674 Z-3.000 I3.990 J0.671 K0.000 F60.000
G2 X13.928 Y2.007 Z-3.000 I3.908 J1.047 K0.000 F60.000
G2 X13.674 Y3.322 Z-3.000 I3.791 J1.414 K0.000 F60.000
G2 X13.296 Y4.607 Z-3.000 I3.639 J1.768 K0.000 F60.000
G2 X12.798 Y5.850 Z-3.000 I3.454 J2.106 K0.000 F60.000
G2 X12.184 Y7.040 Z-3.000 I3.239 J2.425 K0.000 F60.000
G2 X11.460 Y8.166 Z-3.000 I2.994 J2.721 K0.000 F60.000
G2 X10.631 Y9.219 Z-3.000 I2.721 J2.994 K0.000 F60.000
G2 X9.707 Y10.188 Z-3.000 I2.424 J3.239 K0.000 F60.000
G2 X8.695 Y11.064 Z-3.000 I2.106 J3.455 K0.000 F60.000
G2 X7.604 Y11.841 Z-3.000 I1.768 J3.639 K0.000 F60.000
G2 X6.444 Y12.510 Z-3.000 I1.414 J3.791 K0.000 F60.000
G2 X5.225 Y13.066 Z-3.000 I1.047 J3.908 K0.000 F60.000
G2 X3.960 Y13.503 Z-3.000 I0.671 J3.990 K0.000 F60.000
G2 X2.658 Y13.818 Z-3.000 I0.289 J4.035 K0.000 F60.000
G2 X1.333 Y14.008 Z-3.000 I-0.096 J4.044 K0.000 F60.000
G2 X-0.005 Y14.072 Z-3.000 I-0.480 J4.017 K0.000 F60.000
G2 X-1.343 Y14.008 Z-3.000 I-0.860 J3.953 K0.000 F60.000
G2 X-2.668 Y13.816 Z-3.000 I-1.232 J3.854 K0.000 F60.000
G2 X-3.969 Y13.500 Z-3.000 I-1.593 J3.719 K0.000 F60.000
G2 X-5.235 Y13.062 Z-3.000 I-1.939 J3.551 K0.000 F60.000
G2 X-6.452 Y12.505 Z-3.000 I-2.268 J3.350 K0.000 F60.000
G2 X-7.612 Y11.835 Z-3.000 I-2.576 J3.120 K0.000 F60.000
G2 X-8.702 Y11.058 Z-3.000 I-2.861 J2.861 K0.000 F60.000
G2 X-9.714 Y10.181 Z-3.000 I-3.120 J2.576 K0.000 F60.000
G2 X-10.638 Y9.211 Z-3.000 I-3.350 J2.268 K0.000 F60.000
G2 X-11.465 Y8.158 Z-3.000 I-3.551 J1.939 K0.000 F60.000
G2 X-12.189 Y7.032 Z-3.000 I-3.719 J1.592 K0.000 F60.000
G2 X-12.802 Y5.841 Z-3.000 I-3.854 J1.232 K0.000 F60.000
G2 X-13.299 Y4.598 Z-3.000 I-3.953 J0.860 K0.000 F60.000
G2 X-13.676 Y3.313 Z-3.000 I-4.017 J0.480 K0.000 F60.000
G2 X-13.929 Y1.998 Z-3.000 I-4.044 J0.096 K0.000 F60.000
G2 X-14.056 Y0.665 Z-3.000 I-4.035 J-0.289 K0.000 F60.000
G2 X-14.056 Y-0.674 Z-3.000 I-3.990 J-0.671 K0.000 F60.000
G2 X-13.928 Y-2.007 Z-3.000 I-3.908 J-1.047 K0.000 F60.000
G2 X-13.674 Y-3.322 Z-3.000 I-3.791 J-1.414 K0.000 F60.000
G2 X-13.296 Y-4.607 Z-3.000 I-3.639 J-1.768 K0.000 F60.000
G2 X-12.798 Y-5.850 Z-3.000 I-3.454 J-2.106 K0.000 F60.000
G2 X-12.184 Y-7.040 Z-3.000 I-3.239 J-2.425 K0.000 F60.000
G2 X-11.460 Y-8.166 Z-3.000 I-2.994 J-2.721 K0.000 F60.000
G2 X-10.631 Y-9.219 Z-3.000 I-2.721 J-2.994 K0.000 F60.000
G2 X-9.707 Y-10.188 Z-3.000 I-2.424 J-3.239 K0.000 F60.000
G2 X-8.695 Y-11.064 Z-3.000 I-2.106 J-3.455 K0.000 F60.000
G2 X-7.604 Y-11.841 Z-3.000 I-1.768 J-3.639 K0.000 F60.000
G2 X-6.444 Y-12.510 Z-3.000 I-1.414 J-3.791 K0.000 F60.000
G2 X-5.225 Y-13.066 Z-3.000 I-1.047 J-3.908 K0.000 F60.000
G2 X-3.960 Y-13.503 Z-3.000 I-0.671 J-3.990 K0.000 F60.000
G2 X-2.658 Y-13.818 Z-3.000 I-0.289 J-4.035 K0.000 F60.000
G2 X-1.333 Y-14.008 Z-3.000 I0.096 J-4.044 K0.000 F60.000
G0 Z5.000
G0 X-0.011 Y0.200 Z5.000
G0 X-0.011 Y0.200 Z3.000
G1 X-0.011 Y0.200 Z-4.000 F60.000
G3 X0.009 Y-0.200 Z-4.000 I0.011 J-0.200 K0.000 F60.000
G3 X0.200 Y0.010 Z-4.000 I-0.009 J0.200 K0.000 F60.000
G3 X-0.011 Y0.200 Z-4.000 I-0.200 J-0.010 K0.000 F60.000
G0 Z5.000
G0 X-0.066 Y1.198 Z5.000
G0 X-0.066 Y1.198 Z3.000
G1 X-0.066 Y1.198 Z-4.000 F60.000
G3 X0.057 Y-1.199 Z-4.000 I0.065 J-1.198 K0.000 F60.000
G3 X1.198 Y0.061 Z-4.000 I-0.057 J1.199 K0.000 F60.000
G3 X-0.066 Y1.198 Z-4.000 I-1.198 J-0.061 K0.000 F60.000
G0 Z5.000
G0 X-0.178 Y4.396 Z5.000
G0 X-0.178 Y4.396 Z3.000
G1 X-0.178 Y4.396 Z-4.000 F60.000
G3 X-4.397 Y-0.178 Z-4.000 I0.178 J-4.396 K0.000 F60.000
G3 X0.178 Y-4.396 Z-4.000 I4.396 J0.178 K0.000 F60.000
G3 X4.397 Y0.178 Z-4.000 I-0.178 J4.396 K0.000 F60.000
G3 X-0.178 Y4.396 Z-4.000 I-4.396 J-0.178 K0.000 F60.000
G0 Z5.000
G0 X-0.308 Y7.594 Z5.000
G0 X-0.308 Y7.594 Z3.000
G1 X-0.308 Y7.594 Z-4.000 F60.000
G3 X-7.594 Y-0.308 Z-4.000 I0.308 J-7.594 K0.000 F60.000
G3 X0.308 Y-7.594 Z-4.000 I7.594 J0.308 K0.000 F60.000
G3 X7.594 Y0.308 Z-4.000 I-0.308 J7.594 K0.000 F60.000
G3 X-0.308 Y7.594 Z-4.000 I-7.594 J-0.308 K0.000 F60.000
G0 Z5.000
G0 X-0.988 Y-10.788 Z5.000
G0 X-0.988 Y-10.788 Z3.000
G1 X-0.988 Y-10.788 Z-4.000 F60.000
G2 X0.042 Y-10.833 Z-4.000 I0.234 J-6.439 K0.000 F60.000
G2 X1.071 Y-10.780 Z-4.000 I0.845 J-6.388 K0.000 F60.000
G2 X2.091 Y-10.629 Z-4.000 I1.448 J-6.279 K0.000 F60.000
G2 X3.092 Y-10.382 Z-4.000 I2.039 J-6.112 K0.000 F60.000
G2 X4.065 Y-10.041 Z-4.000 I2.611 J-5.891 K0.000 F60.000
G2 X5.001 Y-9.609 Z-4.000 I3.159 J-5.616 K0.000 F60.000
G2 X5.892 Y-9.090 Z-4.000 I3.678 J-5.291 K0.000 F60.000
G2 X6.729 Y-8.489 Z-4.000 I4.165 J-4.917 K0.000 F60.000
G2 X7.506 Y-7.811 Z-4.000 I4.613 J-4.499 K0.000 F60.000
G2 X8.214 Y-7.062 Z-4.000 I5.020 J-4.040 K0.000 F60.000
G2 X8.848 Y-6.249 Z-4.000 I5.381 J-3.544 K0.000 F60.000
G2 X9.402 Y-5.380 Z-4.000 I5.694 J-3.017 K0.000 F60.000
G2 X9.871 Y-4.462 Z-4.000 I5.955 J-2.462 K0.000 F60.000
G2 X10.250 Y-3.504 Z-4.000 I6.162 J-1.885 K0.000 F60.000
G2 X10.537 Y-2.513 Z-4.000 I6.313 J-1.291 K0.000 F60.000
G2 X10.728 Y-1.500 Z-4.000 I6.407 J-0.685 K0.000 F60.000
G2 X10.822 Y-0.474 Z-4.000 I6.443 J-0.073 K0.000 F60.000
G2 X10.818 Y0.557 Z-4.000 I6.421 J0.540 K0.000 F60.000
G2 X10.716 Y1.583 Z-4.000 I6.340 J1.148 K0.000 F60.000
G2 X10.517 Y2.594 Z-4.000 I6.203 J1.746 K0.000 F60.000
G2 X10.223 Y3.582 Z-4.000 I6.009 J2.327 K0.000 F60.000
G2 X9.836 Y4.538 Z-4.000 I5.760 J2.888 K0.000 F60.000
G2 X9.360 Y5.452 Z-4.000 I5.460 J3.422 K0.000 F60.000
G2 X8.800 Y6.318 Z-4.000 I5.109 J3.926 K0.000 F60.000
G2 X8.159 Y7.125 Z-4.000 I4.713 J4.394 K0.000 F60.000
G2 X7.445 Y7.869 Z-4.000 I4.274 J4.822 K0.000 F60.000
G2 X6.663 Y8.541 Z-4.000 I3.796 J5.206 K0.000 F60.000
G2 X5.821 Y9.136 Z-4.000 I3.284 J5.544 K0.000 F60.000
G2 X4.927 Y9.648 Z-4.000 I2.743 J5.831 K0.000 F60.000
G2 X3.987 Y10.072 Z-4.000 I2.176 J6.065 K0.000 F60.000
G2 X3.012 Y10.406 Z-4.000 I1.590 J6.244 K0.000 F60.000
G2 X2.009 Y10.645 Z-4.000 I0.989 J6.367 K0.000 F60.000
G2 X0.988 Y10.788 Z-4.000 I0.379 J6.432 K0.000 F60.000
G2 X-0.042 Y10.833 Z-4.000 I-0.234 J6.439 K0.000 F60.000
G2 X-1.071 Y10.780 Z-4.000 I-0.845 J6.388 K0.000 F60.000
G2 X-2.091 Y10.629 Z-4.000 I-1.448 J6.279 K0.000 F60.000
G2 X-3.092 Y10.382 Z-4.000 I-2.039 J6.112 K0.000 F60.000
G2 X-4.065 Y10.041 Z-4.000 I-2.611 J5.891 K0.000 F60.000
G2 X-5.001 Y9.609 Z-4.000 I-3.159 J5.616 K0.000 F60.000
G2 X-5.892 Y9.090 Z-4.000 I-3.678 J5.291 K0.000 F60.000
G2 X-6.729 Y8.489 Z-4.000 I-4.165 J4.917 K0.000 F60.000
G2 X-7.506 Y7.811 Z-4.000 I-4.613 J4.499 K0.000 F60.000
G2 X-8.214 Y7.062 Z-4.000 I-5.020 J4.040 K0.000 F60.000
G2 X-8.848 Y6.249 Z-4.000 I-5.381 J3.544 K0.000 F60.000
G2 X-9.402 Y5.380 Z-4.000 I-5.694 J3.017 K0.000 F60.000
G2 X-9.871 Y4.462 Z-4.000 I-5.955 J2.462 K0.000 F60.000
G2 X-10.250 Y3.504 Z-4.000 I-6.162 J1.885 K0.000 F60.000
G2 X-10.537 Y2.513 Z-4.000 I-6.313 J1.291 K0.000 F60.000
G2 X-10.728 Y1.500 Z-4.000 I-6.407 J0.685 K0.000 F60.000
G2 X-10.822 Y0.474 Z-4.000 I-6.443 J0.073 K0.000 F60.000
G2 X-10.818 Y-0.557 Z-4.000 I-6.421 J-0.540 K0.000 F60.000
G2 X-10.716 Y-1.583 Z-4.000 I-6.340 J-1.148 K0.000 F60.000
G2 X-10.517 Y-2.594 Z-4.000 I-6.203 J-1.746 K0.000 F60.000
G2 X-10.223 Y-3.582 Z-4.000 I-6.009 J-2.327 K0.000 F60.000
G2 X-9.836 Y-4.538 Z-4.000 I-5.760 J-2.888 K0.000 F60.000
G2 X-9.360 Y-5.452 Z-4.000 I-5.460 J-3.422 K0.000 F60.000
G2 X-8.800 Y-6.318 Z-4.000 I-5.109 J-3.926 K0.000 F60.000
G2 X-8.159 Y-7.125 Z-4.000 I-4.713 J-4.394 K0.000 F60.000
G2 X-7.445 Y-7.869 Z-4.000 I-4.274 J-4.822 K0.000 F60.000
G2 X-6.663 Y-8.541 Z-4.000 I-3.796 J-5.206 K0.000 F60.000
G2 X-5.821 Y-9.136 Z-4.000 I-3.284 J-5.544 K0.000 F60.000
G2 X-4.927 Y-9.648 Z-4.000 I-2.743 J-5.831 K0.000 F60.000
G2 X-3.987 Y-10.072 Z-4.000 I-2.176 J-6.065 K0.000 F60.000
G2 X-3.012 Y-10.406 Z-4.000 I-1.590 J-6.244 K0.000 F60.000
G2 X-2.009 Y-10.645 Z-4.000 I-0.989 J-6.367 K0.000 F60.000
G2 X-0.988 Y-10.788 Z-4.000 I-0.379 J-6.432 K0.000 F60.000
G0 Z5.000
G0 X-1.333 Y-14.008 Z5.000
G0 X-1.333 Y-14.008 Z3.000
G1 X-1.333 Y-14.008 Z-4.000 F60.000
G2 X0.005 Y-14.072 Z-4.000 I0.480 J-4.017 K0.000 F60.000
G2 X1.343 Y-14.008 Z-4.000 I0.860 J-3.953 K0.000 F60.000
G2 X2.668 Y-13.816 Z-4.000 I1.232 J-3.854 K0.000 F60.000
G2 X3.969 Y-13.500 Z-4.000 I1.593 J-3.719 K0.000 F60.000
G2 X5.235 Y-13.062 Z-4.000 I1.939 J-3.551 K0.000 F60.000
G2 X6.452 Y-12.505 Z-4.000 I2.268 J-3.350 K0.000 F60.000
G2 X7.612 Y-11.835 Z-4.000 I2.576 J-3.120 K0.000 F60.000
G2 X8.702 Y-11.058 Z-4.000 I2.861 J-2.861 K0.000 F60.000
G2 X9.714 Y-10.181 Z-4.000 I3.120 J-2.576 K0.000 F60.000
G2 X10.638 Y-9.211 Z-4.000 I3.350 J-2.268 K0.000 F60.000
G2 X11.465 Y-8.158 Z-4.000 I3.551 J-1.939 K0.000 F60.000
G2 X12.189 Y-7.032 Z-4.000 I3.719 J-1.592 K0.000 F60.000
G2 X12.802 Y-5.841 Z-4.000 I3.854 J-1.232 K0.000 F60.000
G2 X13.299 Y-4.598 Z-4.000 I3.953 J-0.860 K0.000 F60.000
G2 X13.676 Y-3.313 Z-4.000 I4.017 J-0.480 K0.000 F60.000
G2 X13.929 Y-1.998 Z-4.000 I4.044 J-0.096 K0.000 F60.000
G2 X14.056 Y-0.665 Z-4.000 I4.035 J0.289 K0.000 F60.000
G2 X14.056 Y0.674 Z-4.000 I3.990 J0.671 K0.000 F60.000
G2 X13.928 Y2.007 Z-4.000 I3.908 J1.047 K0.000 F60.000
G2 X13.674 Y3.322 Z-4.000 I3.791 J1.414 K0.000 F60.000
G2 X13.296 Y4.607 Z-4.000 I3.639 J1.768 K0.000 F60.000
G2 X12.798 Y5.850 Z-4.000 I3.454 J2.106 K0.000 F60.000
G2 X12.184 Y7.040 Z-4.000 I3.239 J2.425 K0.000 F60.000
G2 X11.460 Y8.166 Z-4.000 I2.994 J2.721 K0.000 F60.000
G2 X10.631 Y9.219 Z-4.000 I2.721 J2.994 K0.000 F60.000
G2 X9.707 Y10.188 Z-4.000 I2.424 J3.239 K0.000 F60.000
G2 X8.695 Y11.064 Z-4.000 I2.106 J3.455 K0.000 F60.000
G2 X7.604 Y11.841 Z-4.000 I1.768 J3.639 K0.000 F60.000
G2 X6.444 Y12.510 Z-4.000 I1.414 J3.791 K0.000 F60.000
G2 X5.225 Y13.066 Z-4.000 I1.047 J3.908 K0.000 F60.000
G2 X3.960 Y13.503 Z-4.000 I0.671 J3.990 K0.000 F60.000
G2 X2.658 Y13.818 Z-4.000 I0.289 J4.035 K0.000 F60.000
G2 X1.333 Y14.008 Z-4.000 I-0.096 J4.044 K0.000 F60.000
G2 X-0.005 Y14.072 Z-4.000 I-0.480 J4.017 K0.000 F60.000
G2 X-1.343 Y14.008 Z-4.000 I-0.860 J3.953 K0.000 F60.000
G2 X-2.668 Y13.816 Z-4.000 I-1.232 J3.854 K0.000 F60.000
G2 X-3.969 Y13.500 Z-4.000 I-1.593 J3.719 K0.000 F60.000
G2 X-5.235 Y13.062 Z-4.000 I-1.939 J3.551 K0.000 F60.000
G2 X-6.452 Y12.505 Z-4.000 I-2.268 J3.350 K0.000 F60.000
G2 X-7.612 Y11.835 Z-4.000 I-2.576 J3.120 K0.000 F60.000
G2 X-8.702 Y11.058 Z-4.000 I-2.861 J2.861 K0.000 F60.000
G2 X-9.714 Y10.181 Z-4.000 I-3.120 J2.576 K0.000 F60.000
G2 X-10.638 Y9.211 Z-4.000 I-3.350 J2.268 K0.000 F60.000
G2 X-11.465 Y8.158 Z-4.000 I-3.551 J1.939 K0.000 F60.000
G2 X-12.189 Y7.032 Z-4.000 I-3.719 J1.592 K0.000 F60.000
G2 X-12.802 Y5.841 Z-4.000 I-3.854 J1.232 K0.000 F60.000
G2 X-13.299 Y4.598 Z-4.000 I-3.953 J0.860 K0.000 F60.000
G2 X-13.676 Y3.313 Z-4.000 I-4.017 J0.480 K0.000 F60.000
G2 X-13.929 Y1.998 Z-4.000 I-4.044 J0.096 K0.000 F60.000
G2 X-14.056 Y0.665 Z-4.000 I-4.035 J-0.289 K0.000 F60.000
G2 X-14.056 Y-0.674 Z-4.000 I-3.990 J-0.671 K0.000 F60.000
G2 X-13.928 Y-2.007 Z-4.000 I-3.908 J-1.047 K0.000 F60.000
G2 X-13.674 Y-3.322 Z-4.000 I-3.791 J-1.414 K0.000 F60.000
G2 X-13.296 Y-4.607 Z-4.000 I-3.639 J-1.768 K0.000 F60.000
G2 X-12.798 Y-5.850 Z-4.000 I-3.454 J-2.106 K0.000 F60.000
G2 X-12.184 Y-7.040 Z-4.000 I-3.239 J-2.425 K0.000 F60.000
G2 X-11.460 Y-8.166 Z-4.000 I-2.994 J-2.721 K0.000 F60.000
G2 X-10.631 Y-9.219 Z-4.000 I-2.721 J-2.994 K0.000 F60.000
G2 X-9.707 Y-10.188 Z-4.000 I-2.424 J-3.239 K0.000 F60.000
G2 X-8.695 Y-11.064 Z-4.000 I-2.106 J-3.455 K0.000 F60.000
G2 X-7.604 Y-11.841 Z-4.000 I-1.768 J-3.639 K0.000 F60.000
G2 X-6.444 Y-12.510 Z-4.000 I-1.414 J-3.791 K0.000 F60.000
G2 X-5.225 Y-13.066 Z-4.000 I-1.047 J-3.908 K0.000 F60.000
G2 X-3.960 Y-13.503 Z-4.000 I-0.671 J-3.990 K0.000 F60.000
G2 X-2.658 Y-13.818 Z-4.000 I-0.289 J-4.035 K0.000 F60.000
G2 X-1.333 Y-14.008 Z-4.000 I0.096 J-4.044 K0.000 F60.000
G0 Z5.000
G0 X-0.011 Y0.200 Z5.000
G0 X-0.011 Y0.200 Z3.000
G1 X-0.011 Y0.200 Z-5.000 F60.000
G3 X0.009 Y-0.200 Z-5.000 I0.011 J-0.200 K0.000 F60.000
G3 X0.200 Y0.010 Z-5.000 I-0.009 J0.200 K0.000 F60.000
G3 X-0.011 Y0.200 Z-5.000 I-0.200 J-0.010 K0.000 F60.000
G0 Z5.000
G0 X-0.066 Y1.198 Z5.000
G0 X-0.066 Y1.198 Z3.000
G1 X-0.066 Y1.198 Z-5.000 F60.000
G3 X0.057 Y-1.199 Z-5.000 I0.065 J-1.198 K0.000 F60.000
G3 X1.198 Y0.061 Z-5.000 I-0.057 J1.199 K0.000 F60.000
G3 X-0.066 Y1.198 Z-5.000 I-1.198 J-0.061 K0.000 F60.000
G0 Z5.000
G0 X-0.178 Y4.396 Z5.000
G0 X-0.178 Y4.396 Z3.000
G1 X-0.178 Y4.396 Z-5.000 F60.000
G3 X-4.397 Y-0.178 Z-5.000 I0.178 J-4.396 K0.000 F60.000
G3 X0.178 Y-4.396 Z-5.000 I4.396 J0.178 K0.000 F60.000
G3 X4.397 Y0.178 Z-5.000 I-0.178 J4.396 K0.000 F60.000
G3 X-0.178 Y4.396 Z-5.000 I-4.396 J-0.178 K0.000 F60.000
G0 Z5.000
G0 X-0.308 Y7.594 Z5.000
G0 X-0.308 Y7.594 Z3.000
G1 X-0.308 Y7.594 Z-5.000 F60.000
G3 X-7.594 Y-0.308 Z-5.000 I0.308 J-7.594 K0.000 F60.000
G3 X0.308 Y-7.594 Z-5.000 I7.594 J0.308 K0.000 F60.000
G3 X7.594 Y0.308 Z-5.000 I-0.308 J7.594 K0.000 F60.000
G3 X-0.308 Y7.594 Z-5.000 I-7.594 J-0.308 K0.000 F60.000
G0 Z5.000
G0 X-0.988 Y-10.788 Z5.000
G0 X-0.988 Y-10.788 Z3.000
G1 X-0.988 Y-10.788 Z-5.000 F60.000
G2 X0.042 Y-10.833 Z-5.000 I0.234 J-6.439 K0.000 F60.000
G2 X1.071 Y-10.780 Z-5.000 I0.845 J-6.388 K0.000 F60.000
G2 X2.091 Y-10.629 Z-5.000 I1.448 J-6.279 K0.000 F60.000
G2 X3.092 Y-10.382 Z-5.000 I2.039 J-6.112 K0.000 F60.000
G2 X4.065 Y-10.041 Z-5.000 I2.611 J-5.891 K0.000 F60.000
G2 X5.001 Y-9.609 Z-5.000 I3.159 J-5.616 K0.000 F60.000
G2 X5.892 Y-9.090 Z-5.000 I3.678 J-5.291 K0.000 F60.000
G2 X6.729 Y-8.489 Z-5.000 I4.165 J-4.917 K0.000 F60.000
G2 X7.506 Y-7.811 Z-5.000 I4.613 J-4.499 K0.000 F60.000
G2 X8.214 Y-7.062 Z-5.000 I5.020 J-4.040 K0.000 F60.000
G2 X8.848 Y-6.249 Z-5.000 I5.381 J-3.544 K0.000 F60.000
G2 X9.402 Y-5.380 Z-5.000 I5.694 J-3.017 K0.000 F60.000
G2 X9.871 Y-4.462 Z-5.000 I5.955 J-2.462 K0.000 F60.000
G2 X10.250 Y-3.504 Z-5.000 I6.162 J-1.885 K0.000 F60.000
G2 X10.537 Y-2.513 Z-5.000 I6.313 J-1.291 K0.000 F60.000
G2 X10.728 Y-1.500 Z-5.000 I6.407 J-0.685 K0.000 F60.000
G2 X10.822 Y-0.474 Z-5.000 I6.443 J-0.073 K0.000 F60.000
G2 X10.818 Y0.557 Z-5.000 I6.421 J0.540 K0.000 F60.000
G2 X10.716 Y1.583 Z-5.000 I6.340 J1.148 K0.000 F60.000
G2 X10.517 Y2.594 Z-5.000 I6.203 J1.746 K0.000 F60.000
G2 X10.223 Y3.582 Z-5.000 I6.009 J2.327 K0.000 F60.000
G2 X9.836 Y4.538 Z-5.000 I5.760 J2.888 K0.000 F60.000
G2 X9.360 Y5.452 Z-5.000 I5.460 J3.422 K0.000 F60.000
G2 X8.800 Y6.318 Z-5.000 I5.109 J3.926 K0.000 F60.000
G2 X8.159 Y7.125 Z-5.000 I4.713 J4.394 K0.000 F60.000
G2 X7.445 Y7.869 Z-5.000 I4.274 J4.822 K0.000 F60.000
G2 X6.663 Y8.541 Z-5.000 I3.796 J5.206 K0.000 F60.000
G2 X5.821 Y9.136 Z-5.000 I3.284 J5.544 K0.000 F60.000
G2 X4.927 Y9.648 Z-5.000 I2.743 J5.831 K0.000 F60.000
G2 X3.987 Y10.072 Z-5.000 I2.176 J6.065 K0.000 F60.000
G2 X3.012 Y10.406 Z-5.000 I1.590 J6.244 K0.000 F60.000
G2 X2.009 Y10.645 Z-5.000 I0.989 J6.367 K0.000 F60.000
G2 X0.988 Y10.788 Z-5.000 I0.379 J6.432 K0.000 F60.000
G2 X-0.042 Y10.833 Z-5.000 I-0.234 J6.439 K0.000 F60.000
G2 X-1.071 Y10.780 Z-5.000 I-0.845 J6.388 K0.000 F60.000
G2 X-2.091 Y10.629 Z-5.000 I-1.448 J6.279 K0.000 F60.000
G2 X-3.092 Y10.382 Z-5.000 I-2.039 J6.112 K0.000 F60.000
G2 X-4.065 Y10.041 Z-5.000 I-2.611 J5.891 K0.000 F60.000
G2 X-5.001 Y9.609 Z-5.000 I-3.159 J5.616 K0.000 F60.000
G2 X-5.892 Y9.090 Z-5.000 I-3.678 J5.291 K0.000 F60.000
G2 X-6.729 Y8.489 Z-5.000 I-4.165 J4.917 K0.000 F60.000
G2 X-7.506 Y7.811 Z-5.000 I-4.613 J4.499 K0.000 F60.000
G2 X-8.214 Y7.062 Z-5.000 I-5.020 J4.040 K0.000 F60.000
G2 X-8.848 Y6.249 Z-5.000 I-5.381 J3.544 K0.000 F60.000
G2 X-9.402 Y5.380 Z-5.000 I-5.694 J3.017 K0.000 F60.000
G2 X-9.871 Y4.462 Z-5.000 I-5.955 J2.462 K0.000 F60.000
G2 X-10.250 Y3.504 Z-5.000 I-6.162 J1.885 K0.000 F60.000
G2 X-10.537 Y2.513 Z-5.000 I-6.313 J1.291 K0.000 F60.000
G2 X-10.728 Y1.500 Z-5.000 I-6.407 J0.685 K0.000 F60.000
G2 X-10.822 Y0.474 Z-5.000 I-6.443 J0.073 K0.000 F60.000
G2 X-10.818 Y-0.557 Z-5.000 I-6.421 J-0.540 K0.000 F60.000
G2 X-10.716 Y-1.583 Z-5.000 I-6.340 J-1.148 K0.000 F60.000
G2 X-10.517 Y-2.594 Z-5.000 I-6.203 J-1.746 K0.000 F60.000
G2 X-10.223 Y-3.582 Z-5.000 I-6.009 J-2.327 K0.000 F60.000
G2 X-9.836 Y-4.538 Z-5.000 I-5.760 J-2.888 K0.000 F60.000
G2 X-9.360 Y-5.452 Z-5.000 I-5.460 J-3.422 K0.000 F60.000
G2 X-8.800 Y-6.318 Z-5.000 I-5.109 J-3.926 K0.000 F60.000
G2 X-8.159 Y-7.125 Z-5.000 I-4.713 J-4.394 K0.000 F60.000
G2 X-7.445 Y-7.869 Z-5.000 I-4.274 J-4.822 K0.000 F60.000
G2 X-6.663 Y-8.541 Z-5.000 I-3.796 J-5.206 K0.000 F60.000
G2 X-5.821 Y-9.136 Z-5.000 I-3.284 J-5.544 K0.000 F60.000
G2 X-4.927 Y-9.648 Z-5.000 I-2.743 J-5.831 K0.000 F60.000
G2 X-3.987 Y-10.072 Z-5.000 I-2.176 J-6.065 K0.000 F60.000
G2 X-3.012 Y-10.406 Z-5.000 I-1.590 J-6.244 K0.000 F60.000
G2 X-2.009 Y-10.645 Z-5.000 I-0.989 J-6.367 K0.000 F60.000
G2 X-0.988 Y-10.788 Z-5.000 I-0.379 J-6.432 K0.000 F60.000
G0 Z5.000
G0 X-1.333 Y-14.008 Z5.000
G0 X-1.333 Y-14.008 Z3.000
G1 X-1.333 Y-14.008 Z-5.000 F60.000
G2 X0.005 Y-14.072 Z-5.000 I0.480 J-4.017 K0.000 F60.000
G2 X1.343 Y-14.008 Z-5.000 I0.860 J-3.953 K0.000 F60.000
G2 X2.668 Y-13.816 Z-5.000 I1.232 J-3.854 K0.000 F60.000
G2 X3.969 Y-13.500 Z-5.000 I1.593 J-3.719 K0.000 F60.000
G2 X5.235 Y-13.062 Z-5.000 I1.939 J-3.551 K0.000 F60.000
G2 X6.452 Y-12.505 Z-5.000 I2.268 J-3.350 K0.000 F60.000
G2 X7.612 Y-11.835 Z-5.000 I2.576 J-3.120 K0.000 F60.000
G2 X8.702 Y-11.058 Z-5.000 I2.861 J-2.861 K0.000 F60.000
G2 X9.714 Y-10.181 Z-5.000 I3.120 J-2.576 K0.000 F60.000
G2 X10.638 Y-9.211 Z-5.000 I3.350 J-2.268 K0.000 F60.000
G2 X11.465 Y-8.158 Z-5.000 I3.551 J-1.939 K0.000 F60.000
G2 X12.189 Y-7.032 Z-5.000 I3.719 J-1.592 K0.000 F60.000
G2 X12.802 Y-5.841 Z-5.000 I3.854 J-1.232 K0.000 F60.000
G2 X13.299 Y-4.598 Z-5.000 I3.953 J-0.860 K0.000 F60.000
G2 X13.676 Y-3.313 Z-5.000 I4.017 J-0.480 K0.000 F60.000
G2 X13.929 Y-1.998 Z-5.000 I4.044 J-0.096 K0.000 F60.000
G2 X14.056 Y-0.665 Z-5.000 I4.035 J0.289 K0.000 F60.000
G2 X14.056 Y0.674 Z-5.000 I3.990 J0.671 K0.000 F60.000
G2 X13.928 Y2.007 Z-5.000 I3.908 J1.047 K0.000 F60.000
G2 X13.674 Y3.322 Z-5.000 I3.791 J1.414 K0.000 F60.000
G2 X13.296 Y4.607 Z-5.000 I3.639 J1.768 K0.000 F60.000
G2 X12.798 Y5.850 Z-5.000 I3.454 J2.106 K0.000 F60.000
G2 X12.184 Y7.040 Z-5.000 I3.239 J2.425 K0.000 F60.000
G2 X11.460 Y8.166 Z-5.000 I2.994 J2.721 K0.000 F60.000
G2 X10.631 Y9.219 Z-5.000 I2.721 J2.994 K0.000 F60.000
G2 X9.707 Y10.188 Z-5.000 I2.424 J3.239 K0.000 F60.000
G2 X8.695 Y11.064 Z-5.000 I2.106 J3.455 K0.000 F60.000
G2 X7.604 Y11.841 Z-5.000 I1.768 J3.639 K0.000 F60.000
G2 X6.444 Y12.510 Z-5.000 I1.414 J3.791 K0.000 F60.000
G2 X5.225 Y13.066 Z-5.000 I1.047 J3.908 K0.000 F60.000
G2 X3.960 Y13.503 Z-5.000 I0.671 J3.990 K0.000 F60.000
G2 X2.658 Y13.818 Z-5.000 I0.289 J4.035 K0.000 F60.000
G2 X1.333 Y14.008 Z-5.000 I-0.096 J4.044 K0.000 F60.000
G2 X-0.005 Y14.072 Z-5.000 I-0.480 J4.017 K0.000 F60.000
G2 X-1.343 Y14.008 Z-5.000 I-0.860 J3.953 K0.000 F60.000
G2 X-2.668 Y13.816 Z-5.000 I-1.232 J3.854 K0.000 F60.000
G2 X-3.969 Y13.500 Z-5.000 I-1.593 J3.719 K0.000 F60.000
G2 X-5.235 Y13.062 Z-5.000 I-1.939 J3.551 K0.000 F60.000
G2 X-6.452 Y12.505 Z-5.000 I-2.268 J3.350 K0.000 F60.000
G2 X-7.612 Y11.835 Z-5.000 I-2.576 J3.120 K0.000 F60.000
G2 X-8.702 Y11.058 Z-5.000 I-2.861 J2.861 K0.000 F60.000
G2 X-9.714 Y10.181 Z-5.000 I-3.120 J2.576 K0.000 F60.000
G2 X-10.638 Y9.211 Z-5.000 I-3.350 J2.268 K0.000 F60.000
G2 X-11.465 Y8.158 Z-5.000 I-3.551 J1.939 K0.000 F60.000
G2 X-12.189 Y7.032 Z-5.000 I-3.719 J1.592 K0.000 F60.000
G2 X-12.802 Y5.841 Z-5.000 I-3.854 J1.232 K0.000 F60.000
G2 X-13.299 Y4.598 Z-5.000 I-3.953 J0.860 K0.000 F60.000
G2 X-13.676 Y3.313 Z-5.000 I-4.017 J0.480 K0.000 F60.000
G2 X-13.929 Y1.998 Z-5.000 I-4.044 J0.096 K0.000 F60.000
G2 X-14.056 Y0.665 Z-5.000 I-4.035 J-0.289 K0.000 F60.000
G2 X-14.056 Y-0.674 Z-5.000 I-3.990 J-0.671 K0.000 F60.000
G2 X-13.928 Y-2.007 Z-5.000 I-3.908 J-1.047 K0.000 F60.000
G2 X-13.674 Y-3.322 Z-5.000 I-3.791 J-1.414 K0.000 F60.000
G2 X-13.296 Y-4.607 Z-5.000 I-3.639 J-1.768 K0.000 F60.000
G2 X-12.798 Y-5.850 Z-5.000 I-3.454 J-2.106 K0.000 F60.000
G2 X-12.184 Y-7.040 Z-5.000 I-3.239 J-2.425 K0.000 F60.000
G2 X-11.460 Y-8.166 Z-5.000 I-2.994 J-2.721 K0.000 F60.000
G2 X-10.631 Y-9.219 Z-5.000 I-2.721 J-2.994 K0.000 F60.000
G2 X-9.707 Y-10.188 Z-5.000 I-2.424 J-3.239 K0.000 F60.000
G2 X-8.695 Y-11.064 Z-5.000 I-2.106 J-3.455 K0.000 F60.000
G2 X-7.604 Y-11.841 Z-5.000 I-1.768 J-3.639 K0.000 F60.000
G2 X-6.444 Y-12.510 Z-5.000 I-1.414 J-3.791 K0.000 F60.000
G2 X-5.225 Y-13.066 Z-5.000 I-1.047 J-3.908 K0.000 F60.000
G2 X-3.960 Y-13.503 Z-5.000 I-0.671 J-3.990 K0.000 F60.000
G2 X-2.658 Y-13.818 Z-5.000 I-0.289 J-4.035 K0.000 F60.000
G2 X-1.333 Y-14.008 Z-5.000 I0.096 J-4.044 K0.000 F60.000
G0 Z5.000
G0 Z5.000
(Finish operation: 4mm-pocket)
(Begin postamble)
M5
G17 G90
M2
