(Exported by FreeCAD)
(Post Processor: grbl_post)
(Output Time:2025-08-26 05:40:20.584060)
(Begin preamble)
G17 G90
G21
(Begin operation: Fixture)
(Path: Fixture)
G54
(Finish operation: Fixture)
(Begin operation: 2mm-6-Endmill001)
(Path: 2mm-6-Endmill001)
(2mm-6-Endmill001)
(Begin toolchange)
( M6 T3 )
(Finish operation: 2mm-6-Endmill001)
(Begin operation: 2mm-gear)
(Path: 2mm-gear)
(2mm-gear)
(Compensated Tool Path. Diameter: 2.0)
G0 Z5.000
G0 X10.452 Y10.968
G0 Z3.000
G1 X10.452 Y10.968 Z-0.500 F30.000
G2 X9.742 Y11.406 Z-0.500 I0.443 J1.513 K0.000 F30.000
G2 X9.362 Y11.912 Z-0.500 I0.593 J0.841 K0.000 F30.000
G2 X8.614 Y12.280 Z-0.500 I0.298 J1.549 K0.000 F30.000
G2 X8.187 Y12.748 Z-0.500 I0.511 J0.894 K0.000 F30.000
G2 X7.408 Y13.043 Z-0.500 I0.149 J1.570 K0.000 F30.000
G2 X6.939 Y13.468 Z-0.500 I0.423 J0.938 K0.000 F30.000
G2 X6.134 Y13.688 Z-0.500 I-0.001 J1.577 K0.000 F30.000
G2 X5.627 Y14.067 Z-0.500 I0.332 J0.974 K0.000 F30.000
G2 X4.805 Y14.209 Z-0.500 I-0.151 J1.570 K0.000 F30.000
G2 X4.264 Y14.538 Z-0.500 I0.238 J1.002 K0.000 F30.000
G2 X3.433 Y14.602 Z-0.500 I-0.299 J1.548 K0.000 F30.000
G2 X2.863 Y14.878 Z-0.500 I0.142 J1.020 K0.000 F30.000
G2 X2.029 Y14.862 Z-0.500 I-0.445 J1.513 K0.000 F30.000
G2 X1.436 Y15.082 Z-0.500 I0.044 J1.029 K0.000 F30.000
G2 X0.607 Y14.988 Z-0.500 I-0.587 J1.464 K0.000 F30.000
G2 X-0.004 Y15.151 Z-0.500 I-0.054 J1.028 K0.000 F30.000
G2 X-0.820 Y14.978 Z-0.500 I-0.723 J1.401 K0.000 F30.000
G2 X-1.444 Y15.082 Z-0.500 I-0.151 J1.018 K0.000 F30.000
G2 X-2.240 Y14.832 Z-0.500 I-0.853 J1.326 K0.000 F30.000
G2 X-2.871 Y14.876 Z-0.500 I-0.247 J0.999 K0.000 F30.000
G2 X-3.640 Y14.552 Z-0.500 I-0.976 J1.239 K0.000 F30.000
G2 X-4.272 Y14.536 Z-0.500 I-0.341 J0.971 K0.000 F30.000
G2 X-5.007 Y14.140 Z-0.500 I-1.089 J1.141 K0.000 F30.000
G2 X-5.635 Y14.064 Z-0.500 I-0.432 J0.934 K0.000 F30.000
G2 X-6.328 Y13.600 Z-0.500 I-1.192 J1.032 K0.000 F30.000
G2 X-6.946 Y13.464 Z-0.500 I-0.519 J0.889 K0.000 F30.000
G2 X-7.592 Y12.937 Z-0.500 I-1.285 J0.914 K0.000 F30.000
G2 X-8.195 Y12.743 Z-0.500 I-0.601 J0.836 K0.000 F30.000
G2 X-8.787 Y12.157 Z-0.500 I-1.366 J0.788 K0.000 F30.000
G2 X-9.369 Y11.907 Z-0.500 I-0.678 J0.775 K0.000 F30.000
G2 X-9.903 Y11.266 Z-0.500 I-1.435 J0.654 K0.000 F30.000
G2 X-10.458 Y10.962 Z-0.500 I-0.748 J0.707 K0.000 F30.000
G2 X-10.929 Y10.274 Z-0.500 I-1.491 J0.515 K0.000 F30.000
G2 X-11.453 Y9.918 Z-0.500 I-0.812 J0.633 K0.000 F30.000
G2 X-11.856 Y9.188 Z-0.500 I-1.533 J0.371 K0.000 F30.000
G2 X-12.344 Y8.785 Z-0.500 I-0.869 J0.553 K0.000 F30.000
G2 X-12.676 Y8.020 Z-0.500 I-1.561 J0.224 K0.000 F30.000
G2 X-13.123 Y7.572 Z-0.500 I-0.917 J0.468 K0.000 F30.000
G2 X-13.381 Y6.779 Z-0.500 I-1.575 J0.074 K0.000 F30.000
G2 X-13.783 Y6.290 Z-0.500 I-0.957 J0.378 K0.000 F30.000
G2 X-13.965 Y5.476 Z-0.500 I-1.575 J-0.076 K0.000 F30.000
G2 X-14.319 Y4.951 Z-0.500 I-0.989 J0.286 K0.000 F30.000
G2 X-14.422 Y4.124 Z-0.500 I-1.561 J-0.225 K0.000 F30.000
G2 X-14.725 Y3.568 Z-0.500 I-1.012 J0.190 K0.000 F30.000
G2 X-14.749 Y2.734 Z-0.500 I-1.532 J-0.373 K0.000 F30.000
G2 X-14.997 Y2.152 Z-0.500 I-1.025 J0.093 K0.000 F30.000
G2 X-14.942 Y1.320 Z-0.500 I-1.490 J-0.517 K0.000 F30.000
G2 X-15.134 Y0.717 Z-0.500 I-1.029 J-0.005 K0.000 F30.000
G2 X-15.000 Y-0.106 Z-0.500 I-1.434 J-0.656 K0.000 F30.000
G2 X-15.133 Y-0.725 Z-0.500 I-1.024 J-0.103 K0.000 F30.000
G2 X-14.922 Y-1.532 Z-0.500 I-1.365 J-0.789 K0.000 F30.000
G2 X-14.996 Y-2.160 Z-0.500 I-1.010 J-0.199 K0.000 F30.000
G2 X-14.708 Y-2.943 Z-0.500 I-1.284 J-0.915 K0.000 F30.000
G2 X-14.723 Y-3.576 Z-0.500 I-0.986 J-0.295 K0.000 F30.000
G2 X-14.362 Y-4.328 Z-0.500 I-1.191 J-1.033 K0.000 F30.000
G2 X-14.316 Y-4.959 Z-0.500 I-0.954 J-0.387 K0.000 F30.000
G2 X-13.886 Y-5.674 Z-0.500 I-1.088 J-1.142 K0.000 F30.000
G2 X-13.780 Y-6.298 Z-0.500 I-0.913 J-0.476 K0.000 F30.000
G2 X-13.283 Y-6.968 Z-0.500 I-0.974 J-1.240 K0.000 F30.000
G2 X-13.119 Y-7.579 Z-0.500 I-0.864 J-0.561 K0.000 F30.000
G2 X-12.561 Y-8.199 Z-0.500 I-0.852 J-1.327 K0.000 F30.000
G2 X-12.339 Y-8.792 Z-0.500 I-0.806 J-0.640 K0.000 F30.000
G2 X-11.725 Y-9.356 Z-0.500 I-0.722 J-1.402 K0.000 F30.000
G2 X-11.447 Y-9.925 Z-0.500 I-0.742 J-0.714 K0.000 F30.000
G2 X-10.782 Y-10.428 Z-0.500 I-0.585 J-1.464 K0.000 F30.000
G2 X-10.452 Y-10.968 Z-0.500 I-0.671 J-0.781 K0.000 F30.000
G2 X-9.742 Y-11.406 Z-0.500 I-0.443 J-1.513 K0.000 F30.000
G2 X-9.362 Y-11.912 Z-0.500 I-0.593 J-0.841 K0.000 F30.000
G2 X-8.614 Y-12.280 Z-0.500 I-0.298 J-1.549 K0.000 F30.000
G2 X-8.187 Y-12.748 Z-0.500 I-0.511 J-0.894 K0.000 F30.000
G2 X-7.408 Y-13.043 Z-0.500 I-0.149 J-1.570 K0.000 F30.000
G2 X-6.939 Y-13.468 Z-0.500 I-0.423 J-0.938 K0.000 F30.000
G2 X-6.134 Y-13.688 Z-0.500 I0.001 J-1.577 K0.000 F30.000
G2 X-5.627 Y-14.067 Z-0.500 I-0.332 J-0.974 K0.000 F30.000
G2 X-4.805 Y-14.209 Z-0.500 I0.151 J-1.570 K0.000 F30.000
G2 X-4.264 Y-14.538 Z-0.500 I-0.238 J-1.002 K0.000 F30.000
G2 X-3.433 Y-14.602 Z-0.500 I0.299 J-1.548 K0.000 F30.000
G2 X-2.863 Y-14.878 Z-0.500 I-0.142 J-1.020 K0.000 F30.000
G2 X-2.029 Y-14.862 Z-0.500 I0.445 J-1.513 K0.000 F30.000
G2 X-1.436 Y-15.082 Z-0.500 I-0.044 J-1.029 K0.000 F30.000
G2 X-0.607 Y-14.988 Z-0.500 I0.587 J-1.464 K0.000 F30.000
G2 X0.004 Y-15.151 Z-0.500 I0.054 J-1.028 K0.000 F30.000
G2 X0.820 Y-14.978 Z-0.500 I0.723 J-1.401 K0.000 F30.000
G2 X1.444 Y-15.082 Z-0.500 I0.151 J-1.018 K0.000 F30.000
G2 X2.240 Y-14.832 Z-0.500 I0.853 J-1.326 K0.000 F30.000
G2 X2.871 Y-14.876 Z-0.500 I0.247 J-0.999 K0.000 F30.000
G2 X3.640 Y-14.552 Z-0.500 I0.976 J-1.239 K0.000 F30.000
G2 X4.272 Y-14.536 Z-0.500 I0.341 J-0.971 K0.000 F30.000
G2 X5.007 Y-14.140 Z-0.500 I1.089 J-1.141 K0.000 F30.000
G2 X5.635 Y-14.064 Z-0.500 I0.432 J-0.934 K0.000 F30.000
G2 X6.328 Y-13.600 Z-0.500 I1.192 J-1.032 K0.000 F30.000
G2 X6.946 Y-13.464 Z-0.500 I0.519 J-0.889 K0.000 F30.000
G2 X7.592 Y-12.937 Z-0.500 I1.285 J-0.914 K0.000 F30.000
G2 X8.195 Y-12.743 Z-0.500 I0.601 J-0.836 K0.000 F30.000
G2 X8.787 Y-12.157 Z-0.500 I1.366 J-0.788 K0.000 F30.000
G2 X9.369 Y-11.907 Z-0.500 I0.678 J-0.775 K0.000 F30.000
G2 X9.903 Y-11.266 Z-0.500 I1.435 J-0.654 K0.000 F30.000
G2 X10.458 Y-10.962 Z-0.500 I0.748 J-0.707 K0.000 F30.000
G2 X10.929 Y-10.274 Z-0.500 I1.491 J-0.515 K0.000 F30.000
G2 X11.453 Y-9.918 Z-0.500 I0.812 J-0.633 K0.000 F30.000
G2 X11.856 Y-9.188 Z-0.500 I1.533 J-0.371 K0.000 F30.000
G2 X12.344 Y-8.785 Z-0.500 I0.869 J-0.553 K0.000 F30.000
G2 X12.676 Y-8.020 Z-0.500 I1.561 J-0.224 K0.000 F30.000
G2 X13.123 Y-7.572 Z-0.500 I0.917 J-0.468 K0.000 F30.000
G2 X13.381 Y-6.779 Z-0.500 I1.575 J-0.074 K0.000 F30.000
G2 X13.783 Y-6.290 Z-0.500 I0.957 J-0.378 K0.000 F30.000
G2 X13.965 Y-5.476 Z-0.500 I1.575 J0.076 K0.000 F30.000
G2 X14.319 Y-4.951 Z-0.500 I0.989 J-0.286 K0.000 F30.000
G2 X14.422 Y-4.124 Z-0.500 I1.561 J0.225 K0.000 F30.000
G2 X14.725 Y-3.568 Z-0.500 I1.012 J-0.190 K0.000 F30.000
G2 X14.749 Y-2.734 Z-0.500 I1.532 J0.373 K0.000 F30.000
G2 X14.997 Y-2.152 Z-0.500 I1.025 J-0.093 K0.000 F30.000
G2 X14.942 Y-1.320 Z-0.500 I1.490 J0.517 K0.000 F30.000
G2 X15.134 Y-0.717 Z-0.500 I1.029 J0.005 K0.000 F30.000
G2 X15.000 Y0.106 Z-0.500 I1.434 J0.656 K0.000 F30.000
G2 X15.133 Y0.725 Z-0.500 I1.024 J0.103 K0.000 F30.000
G2 X14.922 Y1.532 Z-0.500 I1.365 J0.789 K0.000 F30.000
G2 X14.996 Y2.160 Z-0.500 I1.010 J0.199 K0.000 F30.000
G2 X14.708 Y2.943 Z-0.500 I1.284 J0.915 K0.000 F30.000
G2 X14.723 Y3.576 Z-0.500 I0.986 J0.295 K0.000 F30.000
G2 X14.362 Y4.328 Z-0.500 I1.191 J1.033 K0.000 F30.000
G2 X14.316 Y4.959 Z-0.500 I0.954 J0.387 K0.000 F30.000
G2 X13.886 Y5.674 Z-0.500 I1.088 J1.142 K0.000 F30.000
G2 X13.780 Y6.298 Z-0.500 I0.913 J0.476 K0.000 F30.000
G2 X13.283 Y6.968 Z-0.500 I0.974 J1.240 K0.000 F30.000
G2 X13.119 Y7.579 Z-0.500 I0.864 J0.561 K0.000 F30.000
G2 X12.561 Y8.199 Z-0.500 I0.852 J1.327 K0.000 F30.000
G2 X12.339 Y8.792 Z-0.500 I0.806 J0.640 K0.000 F30.000
G2 X11.725 Y9.356 Z-0.500 I0.722 J1.402 K0.000 F30.000
G2 X11.447 Y9.925 Z-0.500 I0.742 J0.714 K0.000 F30.000
G2 X10.782 Y10.428 Z-0.500 I0.585 J1.464 K0.000 F30.000
G2 X10.452 Y10.968 Z-0.500 I0.671 J0.781 K0.000 F30.000
G1 X10.452 Y10.968 Z-1.000 F30.000
G2 X9.742 Y11.406 Z-1.000 I0.443 J1.513 K0.000 F30.000
G2 X9.362 Y11.912 Z-1.000 I0.593 J0.841 K0.000 F30.000
G2 X8.614 Y12.280 Z-1.000 I0.298 J1.549 K0.000 F30.000
G2 X8.187 Y12.748 Z-1.000 I0.511 J0.894 K0.000 F30.000
G2 X7.408 Y13.043 Z-1.000 I0.149 J1.570 K0.000 F30.000
G2 X6.939 Y13.468 Z-1.000 I0.423 J0.938 K0.000 F30.000
G2 X6.134 Y13.688 Z-1.000 I-0.001 J1.577 K0.000 F30.000
G2 X5.627 Y14.067 Z-1.000 I0.332 J0.974 K0.000 F30.000
G2 X4.805 Y14.209 Z-1.000 I-0.151 J1.570 K0.000 F30.000
G2 X4.264 Y14.538 Z-1.000 I0.238 J1.002 K0.000 F30.000
G2 X3.433 Y14.602 Z-1.000 I-0.299 J1.548 K0.000 F30.000
G2 X2.863 Y14.878 Z-1.000 I0.142 J1.020 K0.000 F30.000
G2 X2.029 Y14.862 Z-1.000 I-0.445 J1.513 K0.000 F30.000
G2 X1.436 Y15.082 Z-1.000 I0.044 J1.029 K0.000 F30.000
G2 X0.607 Y14.988 Z-1.000 I-0.587 J1.464 K0.000 F30.000
G2 X-0.004 Y15.151 Z-1.000 I-0.054 J1.028 K0.000 F30.000
G2 X-0.820 Y14.978 Z-1.000 I-0.723 J1.401 K0.000 F30.000
G2 X-1.444 Y15.082 Z-1.000 I-0.151 J1.018 K0.000 F30.000
G2 X-2.240 Y14.832 Z-1.000 I-0.853 J1.326 K0.000 F30.000
G2 X-2.871 Y14.876 Z-1.000 I-0.247 J0.999 K0.000 F30.000
G2 X-3.640 Y14.552 Z-1.000 I-0.976 J1.239 K0.000 F30.000
G2 X-4.272 Y14.536 Z-1.000 I-0.341 J0.971 K0.000 F30.000
G2 X-5.007 Y14.140 Z-1.000 I-1.089 J1.141 K0.000 F30.000
G2 X-5.635 Y14.064 Z-1.000 I-0.432 J0.934 K0.000 F30.000
G2 X-6.328 Y13.600 Z-1.000 I-1.192 J1.032 K0.000 F30.000
G2 X-6.946 Y13.464 Z-1.000 I-0.519 J0.889 K0.000 F30.000
G2 X-7.592 Y12.937 Z-1.000 I-1.285 J0.914 K0.000 F30.000
G2 X-8.195 Y12.743 Z-1.000 I-0.601 J0.836 K0.000 F30.000
G2 X-8.787 Y12.157 Z-1.000 I-1.366 J0.788 K0.000 F30.000
G2 X-9.369 Y11.907 Z-1.000 I-0.678 J0.775 K0.000 F30.000
G2 X-9.903 Y11.266 Z-1.000 I-1.435 J0.654 K0.000 F30.000
G2 X-10.458 Y10.962 Z-1.000 I-0.748 J0.707 K0.000 F30.000
G2 X-10.929 Y10.274 Z-1.000 I-1.491 J0.515 K0.000 F30.000
G2 X-11.453 Y9.918 Z-1.000 I-0.812 J0.633 K0.000 F30.000
G2 X-11.856 Y9.188 Z-1.000 I-1.533 J0.371 K0.000 F30.000
G2 X-12.344 Y8.785 Z-1.000 I-0.869 J0.553 K0.000 F30.000
G2 X-12.676 Y8.020 Z-1.000 I-1.561 J0.224 K0.000 F30.000
G2 X-13.123 Y7.572 Z-1.000 I-0.917 J0.468 K0.000 F30.000
G2 X-13.381 Y6.779 Z-1.000 I-1.575 J0.074 K0.000 F30.000
G2 X-13.783 Y6.290 Z-1.000 I-0.957 J0.378 K0.000 F30.000
G2 X-13.965 Y5.476 Z-1.000 I-1.575 J-0.076 K0.000 F30.000
G2 X-14.319 Y4.951 Z-1.000 I-0.989 J0.286 K0.000 F30.000
G2 X-14.422 Y4.124 Z-1.000 I-1.561 J-0.225 K0.000 F30.000
G2 X-14.725 Y3.568 Z-1.000 I-1.012 J0.190 K0.000 F30.000
G2 X-14.749 Y2.734 Z-1.000 I-1.532 J-0.373 K0.000 F30.000
G2 X-14.997 Y2.152 Z-1.000 I-1.025 J0.093 K0.000 F30.000
G2 X-14.942 Y1.320 Z-1.000 I-1.490 J-0.517 K0.000 F30.000
G2 X-15.134 Y0.717 Z-1.000 I-1.029 J-0.005 K0.000 F30.000
G2 X-15.000 Y-0.106 Z-1.000 I-1.434 J-0.656 K0.000 F30.000
G2 X-15.133 Y-0.725 Z-1.000 I-1.024 J-0.103 K0.000 F30.000
G2 X-14.922 Y-1.532 Z-1.000 I-1.365 J-0.789 K0.000 F30.000
G2 X-14.996 Y-2.160 Z-1.000 I-1.010 J-0.199 K0.000 F30.000
G2 X-14.708 Y-2.943 Z-1.000 I-1.284 J-0.915 K0.000 F30.000
G2 X-14.723 Y-3.576 Z-1.000 I-0.986 J-0.295 K0.000 F30.000
G2 X-14.362 Y-4.328 Z-1.000 I-1.191 J-1.033 K0.000 F30.000
G2 X-14.316 Y-4.959 Z-1.000 I-0.954 J-0.387 K0.000 F30.000
G2 X-13.886 Y-5.674 Z-1.000 I-1.088 J-1.142 K0.000 F30.000
G2 X-13.780 Y-6.298 Z-1.000 I-0.913 J-0.476 K0.000 F30.000
G2 X-13.283 Y-6.968 Z-1.000 I-0.974 J-1.240 K0.000 F30.000
G2 X-13.119 Y-7.579 Z-1.000 I-0.864 J-0.561 K0.000 F30.000
G2 X-12.561 Y-8.199 Z-1.000 I-0.852 J-1.327 K0.000 F30.000
G2 X-12.339 Y-8.792 Z-1.000 I-0.806 J-0.640 K0.000 F30.000
G2 X-11.725 Y-9.356 Z-1.000 I-0.722 J-1.402 K0.000 F30.000
G2 X-11.447 Y-9.925 Z-1.000 I-0.742 J-0.714 K0.000 F30.000
G2 X-10.782 Y-10.428 Z-1.000 I-0.585 J-1.464 K0.000 F30.000
G2 X-10.452 Y-10.968 Z-1.000 I-0.671 J-0.781 K0.000 F30.000
G2 X-9.742 Y-11.406 Z-1.000 I-0.443 J-1.513 K0.000 F30.000
G2 X-9.362 Y-11.912 Z-1.000 I-0.593 J-0.841 K0.000 F30.000
G2 X-8.614 Y-12.280 Z-1.000 I-0.298 J-1.549 K0.000 F30.000
G2 X-8.187 Y-12.748 Z-1.000 I-0.511 J-0.894 K0.000 F30.000
G2 X-7.408 Y-13.043 Z-1.000 I-0.149 J-1.570 K0.000 F30.000
G2 X-6.939 Y-13.468 Z-1.000 I-0.423 J-0.938 K0.000 F30.000
G2 X-6.134 Y-13.688 Z-1.000 I0.001 J-1.577 K0.000 F30.000
G2 X-5.627 Y-14.067 Z-1.000 I-0.332 J-0.974 K0.000 F30.000
G2 X-4.805 Y-14.209 Z-1.000 I0.151 J-1.570 K0.000 F30.000
G2 X-4.264 Y-14.538 Z-1.000 I-0.238 J-1.002 K0.000 F30.000
G2 X-3.433 Y-14.602 Z-1.000 I0.299 J-1.548 K0.000 F30.000
G2 X-2.863 Y-14.878 Z-1.000 I-0.142 J-1.020 K0.000 F30.000
G2 X-2.029 Y-14.862 Z-1.000 I0.445 J-1.513 K0.000 F30.000
G2 X-1.436 Y-15.082 Z-1.000 I-0.044 J-1.029 K0.000 F30.000
G2 X-0.607 Y-14.988 Z-1.000 I0.587 J-1.464 K0.000 F30.000
G2 X0.004 Y-15.151 Z-1.000 I0.054 J-1.028 K0.000 F30.000
G2 X0.820 Y-14.978 Z-1.000 I0.723 J-1.401 K0.000 F30.000
G2 X1.444 Y-15.082 Z-1.000 I0.151 J-1.018 K0.000 F30.000
G2 X2.240 Y-14.832 Z-1.000 I0.853 J-1.326 K0.000 F30.000
G2 X2.871 Y-14.876 Z-1.000 I0.247 J-0.999 K0.000 F30.000
G2 X3.640 Y-14.552 Z-1.000 I0.976 J-1.239 K0.000 F30.000
G2 X4.272 Y-14.536 Z-1.000 I0.341 J-0.971 K0.000 F30.000
G2 X5.007 Y-14.140 Z-1.000 I1.089 J-1.141 K0.000 F30.000
G2 X5.635 Y-14.064 Z-1.000 I0.432 J-0.934 K0.000 F30.000
G2 X6.328 Y-13.600 Z-1.000 I1.192 J-1.032 K0.000 F30.000
G2 X6.946 Y-13.464 Z-1.000 I0.519 J-0.889 K0.000 F30.000
G2 X7.592 Y-12.937 Z-1.000 I1.285 J-0.914 K0.000 F30.000
G2 X8.195 Y-12.743 Z-1.000 I0.601 J-0.836 K0.000 F30.000
G2 X8.787 Y-12.157 Z-1.000 I1.366 J-0.788 K0.000 F30.000
G2 X9.369 Y-11.907 Z-1.000 I0.678 J-0.775 K0.000 F30.000
G2 X9.903 Y-11.266 Z-1.000 I1.435 J-0.654 K0.000 F30.000
G2 X10.458 Y-10.962 Z-1.000 I0.748 J-0.707 K0.000 F30.000
G2 X10.929 Y-10.274 Z-1.000 I1.491 J-0.515 K0.000 F30.000
G2 X11.453 Y-9.918 Z-1.000 I0.812 J-0.633 K0.000 F30.000
G2 X11.856 Y-9.188 Z-1.000 I1.533 J-0.371 K0.000 F30.000
G2 X12.344 Y-8.785 Z-1.000 I0.869 J-0.553 K0.000 F30.000
G2 X12.676 Y-8.020 Z-1.000 I1.561 J-0.224 K0.000 F30.000
G2 X13.123 Y-7.572 Z-1.000 I0.917 J-0.468 K0.000 F30.000
G2 X13.381 Y-6.779 Z-1.000 I1.575 J-0.074 K0.000 F30.000
G2 X13.783 Y-6.290 Z-1.000 I0.957 J-0.378 K0.000 F30.000
G2 X13.965 Y-5.476 Z-1.000 I1.575 J0.076 K0.000 F30.000
G2 X14.319 Y-4.951 Z-1.000 I0.989 J-0.286 K0.000 F30.000
G2 X14.422 Y-4.124 Z-1.000 I1.561 J0.225 K0.000 F30.000
G2 X14.725 Y-3.568 Z-1.000 I1.012 J-0.190 K0.000 F30.000
G2 X14.749 Y-2.734 Z-1.000 I1.532 J0.373 K0.000 F30.000
G2 X14.997 Y-2.152 Z-1.000 I1.025 J-0.093 K0.000 F30.000
G2 X14.942 Y-1.320 Z-1.000 I1.490 J0.517 K0.000 F30.000
G2 X15.134 Y-0.717 Z-1.000 I1.029 J0.005 K0.000 F30.000
G2 X15.000 Y0.106 Z-1.000 I1.434 J0.656 K0.000 F30.000
G2 X15.133 Y0.725 Z-1.000 I1.024 J0.103 K0.000 F30.000
G2 X14.922 Y1.532 Z-1.000 I1.365 J0.789 K0.000 F30.000
G2 X14.996 Y2.160 Z-1.000 I1.010 J0.199 K0.000 F30.000
G2 X14.708 Y2.943 Z-1.000 I1.284 J0.915 K0.000 F30.000
G2 X14.723 Y3.576 Z-1.000 I0.986 J0.295 K0.000 F30.000
G2 X14.362 Y4.328 Z-1.000 I1.191 J1.033 K0.000 F30.000
G2 X14.316 Y4.959 Z-1.000 I0.954 J0.387 K0.000 F30.000
G2 X13.886 Y5.674 Z-1.000 I1.088 J1.142 K0.000 F30.000
G2 X13.780 Y6.298 Z-1.000 I0.913 J0.476 K0.000 F30.000
G2 X13.283 Y6.968 Z-1.000 I0.974 J1.240 K0.000 F30.000
G2 X13.119 Y7.579 Z-1.000 I0.864 J0.561 K0.000 F30.000
G2 X12.561 Y8.199 Z-1.000 I0.852 J1.327 K0.000 F30.000
G2 X12.339 Y8.792 Z-1.000 I0.806 J0.640 K0.000 F30.000
G2 X11.725 Y9.356 Z-1.000 I0.722 J1.402 K0.000 F30.000
G2 X11.447 Y9.925 Z-1.000 I0.742 J0.714 K0.000 F30.000
G2 X10.782 Y10.428 Z-1.000 I0.585 J1.464 K0.000 F30.000
G2 X10.452 Y10.968 Z-1.000 I0.671 J0.781 K0.000 F30.000
G1 X10.452 Y10.968 Z-1.500 F30.000
G2 X9.742 Y11.406 Z-1.500 I0.443 J1.513 K0.000 F30.000
G2 X9.362 Y11.912 Z-1.500 I0.593 J0.841 K0.000 F30.000
G2 X8.614 Y12.280 Z-1.500 I0.298 J1.549 K0.000 F30.000
G2 X8.187 Y12.748 Z-1.500 I0.511 J0.894 K0.000 F30.000
G2 X7.408 Y13.043 Z-1.500 I0.149 J1.570 K0.000 F30.000
G2 X6.939 Y13.468 Z-1.500 I0.423 J0.938 K0.000 F30.000
G2 X6.134 Y13.688 Z-1.500 I-0.001 J1.577 K0.000 F30.000
G2 X5.627 Y14.067 Z-1.500 I0.332 J0.974 K0.000 F30.000
G2 X4.805 Y14.209 Z-1.500 I-0.151 J1.570 K0.000 F30.000
G2 X4.264 Y14.538 Z-1.500 I0.238 J1.002 K0.000 F30.000
G2 X3.433 Y14.602 Z-1.500 I-0.299 J1.548 K0.000 F30.000
G2 X2.863 Y14.878 Z-1.500 I0.142 J1.020 K0.000 F30.000
G2 X2.029 Y14.862 Z-1.500 I-0.445 J1.513 K0.000 F30.000
G2 X1.436 Y15.082 Z-1.500 I0.044 J1.029 K0.000 F30.000
G2 X0.607 Y14.988 Z-1.500 I-0.587 J1.464 K0.000 F30.000
G2 X-0.004 Y15.151 Z-1.500 I-0.054 J1.028 K0.000 F30.000
G2 X-0.820 Y14.978 Z-1.500 I-0.723 J1.401 K0.000 F30.000
G2 X-1.444 Y15.082 Z-1.500 I-0.151 J1.018 K0.000 F30.000
G2 X-2.240 Y14.832 Z-1.500 I-0.853 J1.326 K0.000 F30.000
G2 X-2.871 Y14.876 Z-1.500 I-0.247 J0.999 K0.000 F30.000
G2 X-3.640 Y14.552 Z-1.500 I-0.976 J1.239 K0.000 F30.000
G2 X-4.272 Y14.536 Z-1.500 I-0.341 J0.971 K0.000 F30.000
G2 X-5.007 Y14.140 Z-1.500 I-1.089 J1.141 K0.000 F30.000
G2 X-5.635 Y14.064 Z-1.500 I-0.432 J0.934 K0.000 F30.000
G2 X-6.328 Y13.600 Z-1.500 I-1.192 J1.032 K0.000 F30.000
G2 X-6.946 Y13.464 Z-1.500 I-0.519 J0.889 K0.000 F30.000
G2 X-7.592 Y12.937 Z-1.500 I-1.285 J0.914 K0.000 F30.000
G2 X-8.195 Y12.743 Z-1.500 I-0.601 J0.836 K0.000 F30.000
G2 X-8.787 Y12.157 Z-1.500 I-1.366 J0.788 K0.000 F30.000
G2 X-9.369 Y11.907 Z-1.500 I-0.678 J0.775 K0.000 F30.000
G2 X-9.903 Y11.266 Z-1.500 I-1.435 J0.654 K0.000 F30.000
G2 X-10.458 Y10.962 Z-1.500 I-0.748 J0.707 K0.000 F30.000
G2 X-10.929 Y10.274 Z-1.500 I-1.491 J0.515 K0.000 F30.000
G2 X-11.453 Y9.918 Z-1.500 I-0.812 J0.633 K0.000 F30.000
G2 X-11.856 Y9.188 Z-1.500 I-1.533 J0.371 K0.000 F30.000
G2 X-12.344 Y8.785 Z-1.500 I-0.869 J0.553 K0.000 F30.000
G2 X-12.676 Y8.020 Z-1.500 I-1.561 J0.224 K0.000 F30.000
G2 X-13.123 Y7.572 Z-1.500 I-0.917 J0.468 K0.000 F30.000
G2 X-13.381 Y6.779 Z-1.500 I-1.575 J0.074 K0.000 F30.000
G2 X-13.783 Y6.290 Z-1.500 I-0.957 J0.378 K0.000 F30.000
G2 X-13.965 Y5.476 Z-1.500 I-1.575 J-0.076 K0.000 F30.000
G2 X-14.319 Y4.951 Z-1.500 I-0.989 J0.286 K0.000 F30.000
G2 X-14.422 Y4.124 Z-1.500 I-1.561 J-0.225 K0.000 F30.000
G2 X-14.725 Y3.568 Z-1.500 I-1.012 J0.190 K0.000 F30.000
G2 X-14.749 Y2.734 Z-1.500 I-1.532 J-0.373 K0.000 F30.000
G2 X-14.997 Y2.152 Z-1.500 I-1.025 J0.093 K0.000 F30.000
G2 X-14.942 Y1.320 Z-1.500 I-1.490 J-0.517 K0.000 F30.000
G2 X-15.134 Y0.717 Z-1.500 I-1.029 J-0.005 K0.000 F30.000
G2 X-15.000 Y-0.106 Z-1.500 I-1.434 J-0.656 K0.000 F30.000
G2 X-15.133 Y-0.725 Z-1.500 I-1.024 J-0.103 K0.000 F30.000
G2 X-14.922 Y-1.532 Z-1.500 I-1.365 J-0.789 K0.000 F30.000
G2 X-14.996 Y-2.160 Z-1.500 I-1.010 J-0.199 K0.000 F30.000
G2 X-14.708 Y-2.943 Z-1.500 I-1.284 J-0.915 K0.000 F30.000
G2 X-14.723 Y-3.576 Z-1.500 I-0.986 J-0.295 K0.000 F30.000
G2 X-14.362 Y-4.328 Z-1.500 I-1.191 J-1.033 K0.000 F30.000
G2 X-14.316 Y-4.959 Z-1.500 I-0.954 J-0.387 K0.000 F30.000
G2 X-13.886 Y-5.674 Z-1.500 I-1.088 J-1.142 K0.000 F30.000
G2 X-13.780 Y-6.298 Z-1.500 I-0.913 J-0.476 K0.000 F30.000
G2 X-13.283 Y-6.968 Z-1.500 I-0.974 J-1.240 K0.000 F30.000
G2 X-13.119 Y-7.579 Z-1.500 I-0.864 J-0.561 K0.000 F30.000
G2 X-12.561 Y-8.199 Z-1.500 I-0.852 J-1.327 K0.000 F30.000
G2 X-12.339 Y-8.792 Z-1.500 I-0.806 J-0.640 K0.000 F30.000
G2 X-11.725 Y-9.356 Z-1.500 I-0.722 J-1.402 K0.000 F30.000
G2 X-11.447 Y-9.925 Z-1.500 I-0.742 J-0.714 K0.000 F30.000
G2 X-10.782 Y-10.428 Z-1.500 I-0.585 J-1.464 K0.000 F30.000
G2 X-10.452 Y-10.968 Z-1.500 I-0.671 J-0.781 K0.000 F30.000
G2 X-9.742 Y-11.406 Z-1.500 I-0.443 J-1.513 K0.000 F30.000
G2 X-9.362 Y-11.912 Z-1.500 I-0.593 J-0.841 K0.000 F30.000
G2 X-8.614 Y-12.280 Z-1.500 I-0.298 J-1.549 K0.000 F30.000
G2 X-8.187 Y-12.748 Z-1.500 I-0.511 J-0.894 K0.000 F30.000
G2 X-7.408 Y-13.043 Z-1.500 I-0.149 J-1.570 K0.000 F30.000
G2 X-6.939 Y-13.468 Z-1.500 I-0.423 J-0.938 K0.000 F30.000
G2 X-6.134 Y-13.688 Z-1.500 I0.001 J-1.577 K0.000 F30.000
G2 X-5.627 Y-14.067 Z-1.500 I-0.332 J-0.974 K0.000 F30.000
G2 X-4.805 Y-14.209 Z-1.500 I0.151 J-1.570 K0.000 F30.000
G2 X-4.264 Y-14.538 Z-1.500 I-0.238 J-1.002 K0.000 F30.000
G2 X-3.433 Y-14.602 Z-1.500 I0.299 J-1.548 K0.000 F30.000
G2 X-2.863 Y-14.878 Z-1.500 I-0.142 J-1.020 K0.000 F30.000
G2 X-2.029 Y-14.862 Z-1.500 I0.445 J-1.513 K0.000 F30.000
G2 X-1.436 Y-15.082 Z-1.500 I-0.044 J-1.029 K0.000 F30.000
G2 X-0.607 Y-14.988 Z-1.500 I0.587 J-1.464 K0.000 F30.000
G2 X0.004 Y-15.151 Z-1.500 I0.054 J-1.028 K0.000 F30.000
G2 X0.820 Y-14.978 Z-1.500 I0.723 J-1.401 K0.000 F30.000
G2 X1.444 Y-15.082 Z-1.500 I0.151 J-1.018 K0.000 F30.000
G2 X2.240 Y-14.832 Z-1.500 I0.853 J-1.326 K0.000 F30.000
G2 X2.871 Y-14.876 Z-1.500 I0.247 J-0.999 K0.000 F30.000
G2 X3.640 Y-14.552 Z-1.500 I0.976 J-1.239 K0.000 F30.000
G2 X4.272 Y-14.536 Z-1.500 I0.341 J-0.971 K0.000 F30.000
G2 X5.007 Y-14.140 Z-1.500 I1.089 J-1.141 K0.000 F30.000
G2 X5.635 Y-14.064 Z-1.500 I0.432 J-0.934 K0.000 F30.000
G2 X6.328 Y-13.600 Z-1.500 I1.192 J-1.032 K0.000 F30.000
G2 X6.946 Y-13.464 Z-1.500 I0.519 J-0.889 K0.000 F30.000
G2 X7.592 Y-12.937 Z-1.500 I1.285 J-0.914 K0.000 F30.000
G2 X8.195 Y-12.743 Z-1.500 I0.601 J-0.836 K0.000 F30.000
G2 X8.787 Y-12.157 Z-1.500 I1.366 J-0.788 K0.000 F30.000
G2 X9.369 Y-11.907 Z-1.500 I0.678 J-0.775 K0.000 F30.000
G2 X9.903 Y-11.266 Z-1.500 I1.435 J-0.654 K0.000 F30.000
G2 X10.458 Y-10.962 Z-1.500 I0.748 J-0.707 K0.000 F30.000
G2 X10.929 Y-10.274 Z-1.500 I1.491 J-0.515 K0.000 F30.000
G2 X11.453 Y-9.918 Z-1.500 I0.812 J-0.633 K0.000 F30.000
G2 X11.856 Y-9.188 Z-1.500 I1.533 J-0.371 K0.000 F30.000
G2 X12.344 Y-8.785 Z-1.500 I0.869 J-0.553 K0.000 F30.000
G2 X12.676 Y-8.020 Z-1.500 I1.561 J-0.224 K0.000 F30.000
G2 X13.123 Y-7.572 Z-1.500 I0.917 J-0.468 K0.000 F30.000
G2 X13.381 Y-6.779 Z-1.500 I1.575 J-0.074 K0.000 F30.000
G2 X13.783 Y-6.290 Z-1.500 I0.957 J-0.378 K0.000 F30.000
G2 X13.965 Y-5.476 Z-1.500 I1.575 J0.076 K0.000 F30.000
G2 X14.319 Y-4.951 Z-1.500 I0.989 J-0.286 K0.000 F30.000
G2 X14.422 Y-4.124 Z-1.500 I1.561 J0.225 K0.000 F30.000
G2 X14.725 Y-3.568 Z-1.500 I1.012 J-0.190 K0.000 F30.000
G2 X14.749 Y-2.734 Z-1.500 I1.532 J0.373 K0.000 F30.000
G2 X14.997 Y-2.152 Z-1.500 I1.025 J-0.093 K0.000 F30.000
G2 X14.942 Y-1.320 Z-1.500 I1.490 J0.517 K0.000 F30.000
G2 X15.134 Y-0.717 Z-1.500 I1.029 J0.005 K0.000 F30.000
G2 X15.000 Y0.106 Z-1.500 I1.434 J0.656 K0.000 F30.000
G2 X15.133 Y0.725 Z-1.500 I1.024 J0.103 K0.000 F30.000
G2 X14.922 Y1.532 Z-1.500 I1.365 J0.789 K0.000 F30.000
G2 X14.996 Y2.160 Z-1.500 I1.010 J0.199 K0.000 F30.000
G2 X14.708 Y2.943 Z-1.500 I1.284 J0.915 K0.000 F30.000
G2 X14.723 Y3.576 Z-1.500 I0.986 J0.295 K0.000 F30.000
G2 X14.362 Y4.328 Z-1.500 I1.191 J1.033 K0.000 F30.000
G2 X14.316 Y4.959 Z-1.500 I0.954 J0.387 K0.000 F30.000
G2 X13.886 Y5.674 Z-1.500 I1.088 J1.142 K0.000 F30.000
G2 X13.780 Y6.298 Z-1.500 I0.913 J0.476 K0.000 F30.000
G2 X13.283 Y6.968 Z-1.500 I0.974 J1.240 K0.000 F30.000
G2 X13.119 Y7.579 Z-1.500 I0.864 J0.561 K0.000 F30.000
G2 X12.561 Y8.199 Z-1.500 I0.852 J1.327 K0.000 F30.000
G2 X12.339 Y8.792 Z-1.500 I0.806 J0.640 K0.000 F30.000
G2 X11.725 Y9.356 Z-1.500 I0.722 J1.402 K0.000 F30.000
G2 X11.447 Y9.925 Z-1.500 I0.742 J0.714 K0.000 F30.000
G2 X10.782 Y10.428 Z-1.500 I0.585 J1.464 K0.000 F30.000
G2 X10.452 Y10.968 Z-1.500 I0.671 J0.781 K0.000 F30.000
G1 X10.452 Y10.968 Z-2.000 F30.000
G2 X9.742 Y11.406 Z-2.000 I0.443 J1.513 K0.000 F30.000
G2 X9.362 Y11.912 Z-2.000 I0.593 J0.841 K0.000 F30.000
G2 X8.614 Y12.280 Z-2.000 I0.298 J1.549 K0.000 F30.000
G2 X8.187 Y12.748 Z-2.000 I0.511 J0.894 K0.000 F30.000
G2 X7.408 Y13.043 Z-2.000 I0.149 J1.570 K0.000 F30.000
G2 X6.939 Y13.468 Z-2.000 I0.423 J0.938 K0.000 F30.000
G2 X6.134 Y13.688 Z-2.000 I-0.001 J1.577 K0.000 F30.000
G2 X5.627 Y14.067 Z-2.000 I0.332 J0.974 K0.000 F30.000
G2 X4.805 Y14.209 Z-2.000 I-0.151 J1.570 K0.000 F30.000
G2 X4.264 Y14.538 Z-2.000 I0.238 J1.002 K0.000 F30.000
G2 X3.433 Y14.602 Z-2.000 I-0.299 J1.548 K0.000 F30.000
G2 X2.863 Y14.878 Z-2.000 I0.142 J1.020 K0.000 F30.000
G2 X2.029 Y14.862 Z-2.000 I-0.445 J1.513 K0.000 F30.000
G2 X1.436 Y15.082 Z-2.000 I0.044 J1.029 K0.000 F30.000
G2 X0.607 Y14.988 Z-2.000 I-0.587 J1.464 K0.000 F30.000
G2 X-0.004 Y15.151 Z-2.000 I-0.054 J1.028 K0.000 F30.000
G2 X-0.820 Y14.978 Z-2.000 I-0.723 J1.401 K0.000 F30.000
G2 X-1.444 Y15.082 Z-2.000 I-0.151 J1.018 K0.000 F30.000
G2 X-2.240 Y14.832 Z-2.000 I-0.853 J1.326 K0.000 F30.000
G2 X-2.871 Y14.876 Z-2.000 I-0.247 J0.999 K0.000 F30.000
G2 X-3.640 Y14.552 Z-2.000 I-0.976 J1.239 K0.000 F30.000
G2 X-4.272 Y14.536 Z-2.000 I-0.341 J0.971 K0.000 F30.000
G2 X-5.007 Y14.140 Z-2.000 I-1.089 J1.141 K0.000 F30.000
G2 X-5.635 Y14.064 Z-2.000 I-0.432 J0.934 K0.000 F30.000
G2 X-6.328 Y13.600 Z-2.000 I-1.192 J1.032 K0.000 F30.000
G2 X-6.946 Y13.464 Z-2.000 I-0.519 J0.889 K0.000 F30.000
G2 X-7.592 Y12.937 Z-2.000 I-1.285 J0.914 K0.000 F30.000
G2 X-8.195 Y12.743 Z-2.000 I-0.601 J0.836 K0.000 F30.000
G2 X-8.787 Y12.157 Z-2.000 I-1.366 J0.788 K0.000 F30.000
G2 X-9.369 Y11.907 Z-2.000 I-0.678 J0.775 K0.000 F30.000
G2 X-9.903 Y11.266 Z-2.000 I-1.435 J0.654 K0.000 F30.000
G2 X-10.458 Y10.962 Z-2.000 I-0.748 J0.707 K0.000 F30.000
G2 X-10.929 Y10.274 Z-2.000 I-1.491 J0.515 K0.000 F30.000
G2 X-11.453 Y9.918 Z-2.000 I-0.812 J0.633 K0.000 F30.000
G2 X-11.856 Y9.188 Z-2.000 I-1.533 J0.371 K0.000 F30.000
G2 X-12.344 Y8.785 Z-2.000 I-0.869 J0.553 K0.000 F30.000
G2 X-12.676 Y8.020 Z-2.000 I-1.561 J0.224 K0.000 F30.000
G2 X-13.123 Y7.572 Z-2.000 I-0.917 J0.468 K0.000 F30.000
G2 X-13.381 Y6.779 Z-2.000 I-1.575 J0.074 K0.000 F30.000
G2 X-13.783 Y6.290 Z-2.000 I-0.957 J0.378 K0.000 F30.000
G2 X-13.965 Y5.476 Z-2.000 I-1.575 J-0.076 K0.000 F30.000
G2 X-14.319 Y4.951 Z-2.000 I-0.989 J0.286 K0.000 F30.000
G2 X-14.422 Y4.124 Z-2.000 I-1.561 J-0.225 K0.000 F30.000
G2 X-14.725 Y3.568 Z-2.000 I-1.012 J0.190 K0.000 F30.000
G2 X-14.749 Y2.734 Z-2.000 I-1.532 J-0.373 K0.000 F30.000
G2 X-14.997 Y2.152 Z-2.000 I-1.025 J0.093 K0.000 F30.000
G2 X-14.942 Y1.320 Z-2.000 I-1.490 J-0.517 K0.000 F30.000
G2 X-15.134 Y0.717 Z-2.000 I-1.029 J-0.005 K0.000 F30.000
G2 X-15.000 Y-0.106 Z-2.000 I-1.434 J-0.656 K0.000 F30.000
G2 X-15.133 Y-0.725 Z-2.000 I-1.024 J-0.103 K0.000 F30.000
G2 X-14.922 Y-1.532 Z-2.000 I-1.365 J-0.789 K0.000 F30.000
G2 X-14.996 Y-2.160 Z-2.000 I-1.010 J-0.199 K0.000 F30.000
G2 X-14.708 Y-2.943 Z-2.000 I-1.284 J-0.915 K0.000 F30.000
G2 X-14.723 Y-3.576 Z-2.000 I-0.986 J-0.295 K0.000 F30.000
G2 X-14.362 Y-4.328 Z-2.000 I-1.191 J-1.033 K0.000 F30.000
G2 X-14.316 Y-4.959 Z-2.000 I-0.954 J-0.387 K0.000 F30.000
G2 X-13.886 Y-5.674 Z-2.000 I-1.088 J-1.142 K0.000 F30.000
G2 X-13.780 Y-6.298 Z-2.000 I-0.913 J-0.476 K0.000 F30.000
G2 X-13.283 Y-6.968 Z-2.000 I-0.974 J-1.240 K0.000 F30.000
G2 X-13.119 Y-7.579 Z-2.000 I-0.864 J-0.561 K0.000 F30.000
G2 X-12.561 Y-8.199 Z-2.000 I-0.852 J-1.327 K0.000 F30.000
G2 X-12.339 Y-8.792 Z-2.000 I-0.806 J-0.640 K0.000 F30.000
G2 X-11.725 Y-9.356 Z-2.000 I-0.722 J-1.402 K0.000 F30.000
G2 X-11.447 Y-9.925 Z-2.000 I-0.742 J-0.714 K0.000 F30.000
G2 X-10.782 Y-10.428 Z-2.000 I-0.585 J-1.464 K0.000 F30.000
G2 X-10.452 Y-10.968 Z-2.000 I-0.671 J-0.781 K0.000 F30.000
G2 X-9.742 Y-11.406 Z-2.000 I-0.443 J-1.513 K0.000 F30.000
G2 X-9.362 Y-11.912 Z-2.000 I-0.593 J-0.841 K0.000 F30.000
G2 X-8.614 Y-12.280 Z-2.000 I-0.298 J-1.549 K0.000 F30.000
G2 X-8.187 Y-12.748 Z-2.000 I-0.511 J-0.894 K0.000 F30.000
G2 X-7.408 Y-13.043 Z-2.000 I-0.149 J-1.570 K0.000 F30.000
G2 X-6.939 Y-13.468 Z-2.000 I-0.423 J-0.938 K0.000 F30.000
G2 X-6.134 Y-13.688 Z-2.000 I0.001 J-1.577 K0.000 F30.000
G2 X-5.627 Y-14.067 Z-2.000 I-0.332 J-0.974 K0.000 F30.000
G2 X-4.805 Y-14.209 Z-2.000 I0.151 J-1.570 K0.000 F30.000
G2 X-4.264 Y-14.538 Z-2.000 I-0.238 J-1.002 K0.000 F30.000
G2 X-3.433 Y-14.602 Z-2.000 I0.299 J-1.548 K0.000 F30.000
G2 X-2.863 Y-14.878 Z-2.000 I-0.142 J-1.020 K0.000 F30.000
G2 X-2.029 Y-14.862 Z-2.000 I0.445 J-1.513 K0.000 F30.000
G2 X-1.436 Y-15.082 Z-2.000 I-0.044 J-1.029 K0.000 F30.000
G2 X-0.607 Y-14.988 Z-2.000 I0.587 J-1.464 K0.000 F30.000
G2 X0.004 Y-15.151 Z-2.000 I0.054 J-1.028 K0.000 F30.000
G2 X0.820 Y-14.978 Z-2.000 I0.723 J-1.401 K0.000 F30.000
G2 X1.444 Y-15.082 Z-2.000 I0.151 J-1.018 K0.000 F30.000
G2 X2.240 Y-14.832 Z-2.000 I0.853 J-1.326 K0.000 F30.000
G2 X2.871 Y-14.876 Z-2.000 I0.247 J-0.999 K0.000 F30.000
G2 X3.640 Y-14.552 Z-2.000 I0.976 J-1.239 K0.000 F30.000
G2 X4.272 Y-14.536 Z-2.000 I0.341 J-0.971 K0.000 F30.000
G2 X5.007 Y-14.140 Z-2.000 I1.089 J-1.141 K0.000 F30.000
G2 X5.635 Y-14.064 Z-2.000 I0.432 J-0.934 K0.000 F30.000
G2 X6.328 Y-13.600 Z-2.000 I1.192 J-1.032 K0.000 F30.000
G2 X6.946 Y-13.464 Z-2.000 I0.519 J-0.889 K0.000 F30.000
G2 X7.592 Y-12.937 Z-2.000 I1.285 J-0.914 K0.000 F30.000
G2 X8.195 Y-12.743 Z-2.000 I0.601 J-0.836 K0.000 F30.000
G2 X8.787 Y-12.157 Z-2.000 I1.366 J-0.788 K0.000 F30.000
G2 X9.369 Y-11.907 Z-2.000 I0.678 J-0.775 K0.000 F30.000
G2 X9.903 Y-11.266 Z-2.000 I1.435 J-0.654 K0.000 F30.000
G2 X10.458 Y-10.962 Z-2.000 I0.748 J-0.707 K0.000 F30.000
G2 X10.929 Y-10.274 Z-2.000 I1.491 J-0.515 K0.000 F30.000
G2 X11.453 Y-9.918 Z-2.000 I0.812 J-0.633 K0.000 F30.000
G2 X11.856 Y-9.188 Z-2.000 I1.533 J-0.371 K0.000 F30.000
G2 X12.344 Y-8.785 Z-2.000 I0.869 J-0.553 K0.000 F30.000
G2 X12.676 Y-8.020 Z-2.000 I1.561 J-0.224 K0.000 F30.000
G2 X13.123 Y-7.572 Z-2.000 I0.917 J-0.468 K0.000 F30.000
G2 X13.381 Y-6.779 Z-2.000 I1.575 J-0.074 K0.000 F30.000
G2 X13.783 Y-6.290 Z-2.000 I0.957 J-0.378 K0.000 F30.000
G2 X13.965 Y-5.476 Z-2.000 I1.575 J0.076 K0.000 F30.000
G2 X14.319 Y-4.951 Z-2.000 I0.989 J-0.286 K0.000 F30.000
G2 X14.422 Y-4.124 Z-2.000 I1.561 J0.225 K0.000 F30.000
G2 X14.725 Y-3.568 Z-2.000 I1.012 J-0.190 K0.000 F30.000
G2 X14.749 Y-2.734 Z-2.000 I1.532 J0.373 K0.000 F30.000
G2 X14.997 Y-2.152 Z-2.000 I1.025 J-0.093 K0.000 F30.000
G2 X14.942 Y-1.320 Z-2.000 I1.490 J0.517 K0.000 F30.000
G2 X15.134 Y-0.717 Z-2.000 I1.029 J0.005 K0.000 F30.000
G2 X15.000 Y0.106 Z-2.000 I1.434 J0.656 K0.000 F30.000
G2 X15.133 Y0.725 Z-2.000 I1.024 J0.103 K0.000 F30.000
G2 X14.922 Y1.532 Z-2.000 I1.365 J0.789 K0.000 F30.000
G2 X14.996 Y2.160 Z-2.000 I1.010 J0.199 K0.000 F30.000
G2 X14.708 Y2.943 Z-2.000 I1.284 J0.915 K0.000 F30.000
G2 X14.723 Y3.576 Z-2.000 I0.986 J0.295 K0.000 F30.000
G2 X14.362 Y4.328 Z-2.000 I1.191 J1.033 K0.000 F30.000
G2 X14.316 Y4.959 Z-2.000 I0.954 J0.387 K0.000 F30.000
G2 X13.886 Y5.674 Z-2.000 I1.088 J1.142 K0.000 F30.000
G2 X13.780 Y6.298 Z-2.000 I0.913 J0.476 K0.000 F30.000
G2 X13.283 Y6.968 Z-2.000 I0.974 J1.240 K0.000 F30.000
G2 X13.119 Y7.579 Z-2.000 I0.864 J0.561 K0.000 F30.000
G2 X12.561 Y8.199 Z-2.000 I0.852 J1.327 K0.000 F30.000
G2 X12.339 Y8.792 Z-2.000 I0.806 J0.640 K0.000 F30.000
G2 X11.725 Y9.356 Z-2.000 I0.722 J1.402 K0.000 F30.000
G2 X11.447 Y9.925 Z-2.000 I0.742 J0.714 K0.000 F30.000
G2 X10.782 Y10.428 Z-2.000 I0.585 J1.464 K0.000 F30.000
G2 X10.452 Y10.968 Z-2.000 I0.671 J0.781 K0.000 F30.000
G1 X10.452 Y10.968 Z-2.500 F30.000
G2 X9.742 Y11.406 Z-2.500 I0.443 J1.513 K0.000 F30.000
G2 X9.362 Y11.912 Z-2.500 I0.593 J0.841 K0.000 F30.000
G2 X8.614 Y12.280 Z-2.500 I0.298 J1.549 K0.000 F30.000
G2 X8.187 Y12.748 Z-2.500 I0.511 J0.894 K0.000 F30.000
G2 X7.408 Y13.043 Z-2.500 I0.149 J1.570 K0.000 F30.000
G2 X6.939 Y13.468 Z-2.500 I0.423 J0.938 K0.000 F30.000
G2 X6.134 Y13.688 Z-2.500 I-0.001 J1.577 K0.000 F30.000
G2 X5.627 Y14.067 Z-2.500 I0.332 J0.974 K0.000 F30.000
G2 X4.805 Y14.209 Z-2.500 I-0.151 J1.570 K0.000 F30.000
G2 X4.264 Y14.538 Z-2.500 I0.238 J1.002 K0.000 F30.000
G2 X3.433 Y14.602 Z-2.500 I-0.299 J1.548 K0.000 F30.000
G2 X2.863 Y14.878 Z-2.500 I0.142 J1.020 K0.000 F30.000
G2 X2.029 Y14.862 Z-2.500 I-0.445 J1.513 K0.000 F30.000
G2 X1.436 Y15.082 Z-2.500 I0.044 J1.029 K0.000 F30.000
G2 X0.607 Y14.988 Z-2.500 I-0.587 J1.464 K0.000 F30.000
G2 X-0.004 Y15.151 Z-2.500 I-0.054 J1.028 K0.000 F30.000
G2 X-0.820 Y14.978 Z-2.500 I-0.723 J1.401 K0.000 F30.000
G2 X-1.444 Y15.082 Z-2.500 I-0.151 J1.018 K0.000 F30.000
G2 X-2.240 Y14.832 Z-2.500 I-0.853 J1.326 K0.000 F30.000
G2 X-2.871 Y14.876 Z-2.500 I-0.247 J0.999 K0.000 F30.000
G2 X-3.640 Y14.552 Z-2.500 I-0.976 J1.239 K0.000 F30.000
G2 X-4.272 Y14.536 Z-2.500 I-0.341 J0.971 K0.000 F30.000
G2 X-5.007 Y14.140 Z-2.500 I-1.089 J1.141 K0.000 F30.000
G2 X-5.635 Y14.064 Z-2.500 I-0.432 J0.934 K0.000 F30.000
G2 X-6.328 Y13.600 Z-2.500 I-1.192 J1.032 K0.000 F30.000
G2 X-6.946 Y13.464 Z-2.500 I-0.519 J0.889 K0.000 F30.000
G2 X-7.592 Y12.937 Z-2.500 I-1.285 J0.914 K0.000 F30.000
G2 X-8.195 Y12.743 Z-2.500 I-0.601 J0.836 K0.000 F30.000
G2 X-8.787 Y12.157 Z-2.500 I-1.366 J0.788 K0.000 F30.000
G2 X-9.369 Y11.907 Z-2.500 I-0.678 J0.775 K0.000 F30.000
G2 X-9.903 Y11.266 Z-2.500 I-1.435 J0.654 K0.000 F30.000
G2 X-10.458 Y10.962 Z-2.500 I-0.748 J0.707 K0.000 F30.000
G2 X-10.929 Y10.274 Z-2.500 I-1.491 J0.515 K0.000 F30.000
G2 X-11.453 Y9.918 Z-2.500 I-0.812 J0.633 K0.000 F30.000
G2 X-11.856 Y9.188 Z-2.500 I-1.533 J0.371 K0.000 F30.000
G2 X-12.344 Y8.785 Z-2.500 I-0.869 J0.553 K0.000 F30.000
G2 X-12.676 Y8.020 Z-2.500 I-1.561 J0.224 K0.000 F30.000
G2 X-13.123 Y7.572 Z-2.500 I-0.917 J0.468 K0.000 F30.000
G2 X-13.381 Y6.779 Z-2.500 I-1.575 J0.074 K0.000 F30.000
G2 X-13.783 Y6.290 Z-2.500 I-0.957 J0.378 K0.000 F30.000
G2 X-13.965 Y5.476 Z-2.500 I-1.575 J-0.076 K0.000 F30.000
G2 X-14.319 Y4.951 Z-2.500 I-0.989 J0.286 K0.000 F30.000
G2 X-14.422 Y4.124 Z-2.500 I-1.561 J-0.225 K0.000 F30.000
G2 X-14.725 Y3.568 Z-2.500 I-1.012 J0.190 K0.000 F30.000
G2 X-14.749 Y2.734 Z-2.500 I-1.532 J-0.373 K0.000 F30.000
G2 X-14.997 Y2.152 Z-2.500 I-1.025 J0.093 K0.000 F30.000
G2 X-14.942 Y1.320 Z-2.500 I-1.490 J-0.517 K0.000 F30.000
G2 X-15.134 Y0.717 Z-2.500 I-1.029 J-0.005 K0.000 F30.000
G2 X-15.000 Y-0.106 Z-2.500 I-1.434 J-0.656 K0.000 F30.000
G2 X-15.133 Y-0.725 Z-2.500 I-1.024 J-0.103 K0.000 F30.000
G2 X-14.922 Y-1.532 Z-2.500 I-1.365 J-0.789 K0.000 F30.000
G2 X-14.996 Y-2.160 Z-2.500 I-1.010 J-0.199 K0.000 F30.000
G2 X-14.708 Y-2.943 Z-2.500 I-1.284 J-0.915 K0.000 F30.000
G2 X-14.723 Y-3.576 Z-2.500 I-0.986 J-0.295 K0.000 F30.000
G2 X-14.362 Y-4.328 Z-2.500 I-1.191 J-1.033 K0.000 F30.000
G2 X-14.316 Y-4.959 Z-2.500 I-0.954 J-0.387 K0.000 F30.000
G2 X-13.886 Y-5.674 Z-2.500 I-1.088 J-1.142 K0.000 F30.000
G2 X-13.780 Y-6.298 Z-2.500 I-0.913 J-0.476 K0.000 F30.000
G2 X-13.283 Y-6.968 Z-2.500 I-0.974 J-1.240 K0.000 F30.000
G2 X-13.119 Y-7.579 Z-2.500 I-0.864 J-0.561 K0.000 F30.000
G2 X-12.561 Y-8.199 Z-2.500 I-0.852 J-1.327 K0.000 F30.000
G2 X-12.339 Y-8.792 Z-2.500 I-0.806 J-0.640 K0.000 F30.000
G2 X-11.725 Y-9.356 Z-2.500 I-0.722 J-1.402 K0.000 F30.000
G2 X-11.447 Y-9.925 Z-2.500 I-0.742 J-0.714 K0.000 F30.000
G2 X-10.782 Y-10.428 Z-2.500 I-0.585 J-1.464 K0.000 F30.000
G2 X-10.452 Y-10.968 Z-2.500 I-0.671 J-0.781 K0.000 F30.000
G2 X-9.742 Y-11.406 Z-2.500 I-0.443 J-1.513 K0.000 F30.000
G2 X-9.362 Y-11.912 Z-2.500 I-0.593 J-0.841 K0.000 F30.000
G2 X-8.614 Y-12.280 Z-2.500 I-0.298 J-1.549 K0.000 F30.000
G2 X-8.187 Y-12.748 Z-2.500 I-0.511 J-0.894 K0.000 F30.000
G2 X-7.408 Y-13.043 Z-2.500 I-0.149 J-1.570 K0.000 F30.000
G2 X-6.939 Y-13.468 Z-2.500 I-0.423 J-0.938 K0.000 F30.000
G2 X-6.134 Y-13.688 Z-2.500 I0.001 J-1.577 K0.000 F30.000
G2 X-5.627 Y-14.067 Z-2.500 I-0.332 J-0.974 K0.000 F30.000
G2 X-4.805 Y-14.209 Z-2.500 I0.151 J-1.570 K0.000 F30.000
G2 X-4.264 Y-14.538 Z-2.500 I-0.238 J-1.002 K0.000 F30.000
G2 X-3.433 Y-14.602 Z-2.500 I0.299 J-1.548 K0.000 F30.000
G2 X-2.863 Y-14.878 Z-2.500 I-0.142 J-1.020 K0.000 F30.000
G2 X-2.029 Y-14.862 Z-2.500 I0.445 J-1.513 K0.000 F30.000
G2 X-1.436 Y-15.082 Z-2.500 I-0.044 J-1.029 K0.000 F30.000
G2 X-0.607 Y-14.988 Z-2.500 I0.587 J-1.464 K0.000 F30.000
G2 X0.004 Y-15.151 Z-2.500 I0.054 J-1.028 K0.000 F30.000
G2 X0.820 Y-14.978 Z-2.500 I0.723 J-1.401 K0.000 F30.000
G2 X1.444 Y-15.082 Z-2.500 I0.151 J-1.018 K0.000 F30.000
G2 X2.240 Y-14.832 Z-2.500 I0.853 J-1.326 K0.000 F30.000
G2 X2.871 Y-14.876 Z-2.500 I0.247 J-0.999 K0.000 F30.000
G2 X3.640 Y-14.552 Z-2.500 I0.976 J-1.239 K0.000 F30.000
G2 X4.272 Y-14.536 Z-2.500 I0.341 J-0.971 K0.000 F30.000
G2 X5.007 Y-14.140 Z-2.500 I1.089 J-1.141 K0.000 F30.000
G2 X5.635 Y-14.064 Z-2.500 I0.432 J-0.934 K0.000 F30.000
G2 X6.328 Y-13.600 Z-2.500 I1.192 J-1.032 K0.000 F30.000
G2 X6.946 Y-13.464 Z-2.500 I0.519 J-0.889 K0.000 F30.000
G2 X7.592 Y-12.937 Z-2.500 I1.285 J-0.914 K0.000 F30.000
G2 X8.195 Y-12.743 Z-2.500 I0.601 J-0.836 K0.000 F30.000
G2 X8.787 Y-12.157 Z-2.500 I1.366 J-0.788 K0.000 F30.000
G2 X9.369 Y-11.907 Z-2.500 I0.678 J-0.775 K0.000 F30.000
G2 X9.903 Y-11.266 Z-2.500 I1.435 J-0.654 K0.000 F30.000
G2 X10.458 Y-10.962 Z-2.500 I0.748 J-0.707 K0.000 F30.000
G2 X10.929 Y-10.274 Z-2.500 I1.491 J-0.515 K0.000 F30.000
G2 X11.453 Y-9.918 Z-2.500 I0.812 J-0.633 K0.000 F30.000
G2 X11.856 Y-9.188 Z-2.500 I1.533 J-0.371 K0.000 F30.000
G2 X12.344 Y-8.785 Z-2.500 I0.869 J-0.553 K0.000 F30.000
G2 X12.676 Y-8.020 Z-2.500 I1.561 J-0.224 K0.000 F30.000
G2 X13.123 Y-7.572 Z-2.500 I0.917 J-0.468 K0.000 F30.000
G2 X13.381 Y-6.779 Z-2.500 I1.575 J-0.074 K0.000 F30.000
G2 X13.783 Y-6.290 Z-2.500 I0.957 J-0.378 K0.000 F30.000
G2 X13.965 Y-5.476 Z-2.500 I1.575 J0.076 K0.000 F30.000
G2 X14.319 Y-4.951 Z-2.500 I0.989 J-0.286 K0.000 F30.000
G2 X14.422 Y-4.124 Z-2.500 I1.561 J0.225 K0.000 F30.000
G2 X14.725 Y-3.568 Z-2.500 I1.012 J-0.190 K0.000 F30.000
G2 X14.749 Y-2.734 Z-2.500 I1.532 J0.373 K0.000 F30.000
G2 X14.997 Y-2.152 Z-2.500 I1.025 J-0.093 K0.000 F30.000
G2 X14.942 Y-1.320 Z-2.500 I1.490 J0.517 K0.000 F30.000
G2 X15.134 Y-0.717 Z-2.500 I1.029 J0.005 K0.000 F30.000
G2 X15.000 Y0.106 Z-2.500 I1.434 J0.656 K0.000 F30.000
G2 X15.133 Y0.725 Z-2.500 I1.024 J0.103 K0.000 F30.000
G2 X14.922 Y1.532 Z-2.500 I1.365 J0.789 K0.000 F30.000
G2 X14.996 Y2.160 Z-2.500 I1.010 J0.199 K0.000 F30.000
G2 X14.708 Y2.943 Z-2.500 I1.284 J0.915 K0.000 F30.000
G2 X14.723 Y3.576 Z-2.500 I0.986 J0.295 K0.000 F30.000
G2 X14.362 Y4.328 Z-2.500 I1.191 J1.033 K0.000 F30.000
G2 X14.316 Y4.959 Z-2.500 I0.954 J0.387 K0.000 F30.000
G2 X13.886 Y5.674 Z-2.500 I1.088 J1.142 K0.000 F30.000
G2 X13.780 Y6.298 Z-2.500 I0.913 J0.476 K0.000 F30.000
G2 X13.283 Y6.968 Z-2.500 I0.974 J1.240 K0.000 F30.000
G2 X13.119 Y7.579 Z-2.500 I0.864 J0.561 K0.000 F30.000
G2 X12.561 Y8.199 Z-2.500 I0.852 J1.327 K0.000 F30.000
G2 X12.339 Y8.792 Z-2.500 I0.806 J0.640 K0.000 F30.000
G2 X11.725 Y9.356 Z-2.500 I0.722 J1.402 K0.000 F30.000
G2 X11.447 Y9.925 Z-2.500 I0.742 J0.714 K0.000 F30.000
G2 X10.782 Y10.428 Z-2.500 I0.585 J1.464 K0.000 F30.000
G2 X10.452 Y10.968 Z-2.500 I0.671 J0.781 K0.000 F30.000
G1 X10.452 Y10.968 Z-3.000 F30.000
G2 X9.742 Y11.406 Z-3.000 I0.443 J1.513 K0.000 F30.000
G2 X9.362 Y11.912 Z-3.000 I0.593 J0.841 K0.000 F30.000
G2 X8.614 Y12.280 Z-3.000 I0.298 J1.549 K0.000 F30.000
G2 X8.187 Y12.748 Z-3.000 I0.511 J0.894 K0.000 F30.000
G2 X7.408 Y13.043 Z-3.000 I0.149 J1.570 K0.000 F30.000
G2 X6.939 Y13.468 Z-3.000 I0.423 J0.938 K0.000 F30.000
G2 X6.134 Y13.688 Z-3.000 I-0.001 J1.577 K0.000 F30.000
G2 X5.627 Y14.067 Z-3.000 I0.332 J0.974 K0.000 F30.000
G2 X4.805 Y14.209 Z-3.000 I-0.151 J1.570 K0.000 F30.000
G2 X4.264 Y14.538 Z-3.000 I0.238 J1.002 K0.000 F30.000
G2 X3.433 Y14.602 Z-3.000 I-0.299 J1.548 K0.000 F30.000
G2 X2.863 Y14.878 Z-3.000 I0.142 J1.020 K0.000 F30.000
G2 X2.029 Y14.862 Z-3.000 I-0.445 J1.513 K0.000 F30.000
G2 X1.436 Y15.082 Z-3.000 I0.044 J1.029 K0.000 F30.000
G2 X0.607 Y14.988 Z-3.000 I-0.587 J1.464 K0.000 F30.000
G2 X-0.004 Y15.151 Z-3.000 I-0.054 J1.028 K0.000 F30.000
G2 X-0.820 Y14.978 Z-3.000 I-0.723 J1.401 K0.000 F30.000
G2 X-1.444 Y15.082 Z-3.000 I-0.151 J1.018 K0.000 F30.000
G2 X-2.240 Y14.832 Z-3.000 I-0.853 J1.326 K0.000 F30.000
G2 X-2.871 Y14.876 Z-3.000 I-0.247 J0.999 K0.000 F30.000
G2 X-3.640 Y14.552 Z-3.000 I-0.976 J1.239 K0.000 F30.000
G2 X-4.272 Y14.536 Z-3.000 I-0.341 J0.971 K0.000 F30.000
G2 X-5.007 Y14.140 Z-3.000 I-1.089 J1.141 K0.000 F30.000
G2 X-5.635 Y14.064 Z-3.000 I-0.432 J0.934 K0.000 F30.000
G2 X-6.328 Y13.600 Z-3.000 I-1.192 J1.032 K0.000 F30.000
G2 X-6.946 Y13.464 Z-3.000 I-0.519 J0.889 K0.000 F30.000
G2 X-7.592 Y12.937 Z-3.000 I-1.285 J0.914 K0.000 F30.000
G2 X-8.195 Y12.743 Z-3.000 I-0.601 J0.836 K0.000 F30.000
G2 X-8.787 Y12.157 Z-3.000 I-1.366 J0.788 K0.000 F30.000
G2 X-9.369 Y11.907 Z-3.000 I-0.678 J0.775 K0.000 F30.000
G2 X-9.903 Y11.266 Z-3.000 I-1.435 J0.654 K0.000 F30.000
G2 X-10.458 Y10.962 Z-3.000 I-0.748 J0.707 K0.000 F30.000
G2 X-10.929 Y10.274 Z-3.000 I-1.491 J0.515 K0.000 F30.000
G2 X-11.453 Y9.918 Z-3.000 I-0.812 J0.633 K0.000 F30.000
G2 X-11.856 Y9.188 Z-3.000 I-1.533 J0.371 K0.000 F30.000
G2 X-12.344 Y8.785 Z-3.000 I-0.869 J0.553 K0.000 F30.000
G2 X-12.676 Y8.020 Z-3.000 I-1.561 J0.224 K0.000 F30.000
G2 X-13.123 Y7.572 Z-3.000 I-0.917 J0.468 K0.000 F30.000
G2 X-13.381 Y6.779 Z-3.000 I-1.575 J0.074 K0.000 F30.000
G2 X-13.783 Y6.290 Z-3.000 I-0.957 J0.378 K0.000 F30.000
G2 X-13.965 Y5.476 Z-3.000 I-1.575 J-0.076 K0.000 F30.000
G2 X-14.319 Y4.951 Z-3.000 I-0.989 J0.286 K0.000 F30.000
G2 X-14.422 Y4.124 Z-3.000 I-1.561 J-0.225 K0.000 F30.000
G2 X-14.725 Y3.568 Z-3.000 I-1.012 J0.190 K0.000 F30.000
G2 X-14.749 Y2.734 Z-3.000 I-1.532 J-0.373 K0.000 F30.000
G2 X-14.997 Y2.152 Z-3.000 I-1.025 J0.093 K0.000 F30.000
G2 X-14.942 Y1.320 Z-3.000 I-1.490 J-0.517 K0.000 F30.000
G2 X-15.134 Y0.717 Z-3.000 I-1.029 J-0.005 K0.000 F30.000
G2 X-15.000 Y-0.106 Z-3.000 I-1.434 J-0.656 K0.000 F30.000
G2 X-15.133 Y-0.725 Z-3.000 I-1.024 J-0.103 K0.000 F30.000
G2 X-14.922 Y-1.532 Z-3.000 I-1.365 J-0.789 K0.000 F30.000
G2 X-14.996 Y-2.160 Z-3.000 I-1.010 J-0.199 K0.000 F30.000
G2 X-14.708 Y-2.943 Z-3.000 I-1.284 J-0.915 K0.000 F30.000
G2 X-14.723 Y-3.576 Z-3.000 I-0.986 J-0.295 K0.000 F30.000
G2 X-14.362 Y-4.328 Z-3.000 I-1.191 J-1.033 K0.000 F30.000
G2 X-14.316 Y-4.959 Z-3.000 I-0.954 J-0.387 K0.000 F30.000
G2 X-13.886 Y-5.674 Z-3.000 I-1.088 J-1.142 K0.000 F30.000
G2 X-13.780 Y-6.298 Z-3.000 I-0.913 J-0.476 K0.000 F30.000
G2 X-13.283 Y-6.968 Z-3.000 I-0.974 J-1.240 K0.000 F30.000
G2 X-13.119 Y-7.579 Z-3.000 I-0.864 J-0.561 K0.000 F30.000
G2 X-12.561 Y-8.199 Z-3.000 I-0.852 J-1.327 K0.000 F30.000
G2 X-12.339 Y-8.792 Z-3.000 I-0.806 J-0.640 K0.000 F30.000
G2 X-11.725 Y-9.356 Z-3.000 I-0.722 J-1.402 K0.000 F30.000
G2 X-11.447 Y-9.925 Z-3.000 I-0.742 J-0.714 K0.000 F30.000
G2 X-10.782 Y-10.428 Z-3.000 I-0.585 J-1.464 K0.000 F30.000
G2 X-10.452 Y-10.968 Z-3.000 I-0.671 J-0.781 K0.000 F30.000
G2 X-9.742 Y-11.406 Z-3.000 I-0.443 J-1.513 K0.000 F30.000
G2 X-9.362 Y-11.912 Z-3.000 I-0.593 J-0.841 K0.000 F30.000
G2 X-8.614 Y-12.280 Z-3.000 I-0.298 J-1.549 K0.000 F30.000
G2 X-8.187 Y-12.748 Z-3.000 I-0.511 J-0.894 K0.000 F30.000
G2 X-7.408 Y-13.043 Z-3.000 I-0.149 J-1.570 K0.000 F30.000
G2 X-6.939 Y-13.468 Z-3.000 I-0.423 J-0.938 K0.000 F30.000
G2 X-6.134 Y-13.688 Z-3.000 I0.001 J-1.577 K0.000 F30.000
G2 X-5.627 Y-14.067 Z-3.000 I-0.332 J-0.974 K0.000 F30.000
G2 X-4.805 Y-14.209 Z-3.000 I0.151 J-1.570 K0.000 F30.000
G2 X-4.264 Y-14.538 Z-3.000 I-0.238 J-1.002 K0.000 F30.000
G2 X-3.433 Y-14.602 Z-3.000 I0.299 J-1.548 K0.000 F30.000
G2 X-2.863 Y-14.878 Z-3.000 I-0.142 J-1.020 K0.000 F30.000
G2 X-2.029 Y-14.862 Z-3.000 I0.445 J-1.513 K0.000 F30.000
G2 X-1.436 Y-15.082 Z-3.000 I-0.044 J-1.029 K0.000 F30.000
G2 X-0.607 Y-14.988 Z-3.000 I0.587 J-1.464 K0.000 F30.000
G2 X0.004 Y-15.151 Z-3.000 I0.054 J-1.028 K0.000 F30.000
G2 X0.820 Y-14.978 Z-3.000 I0.723 J-1.401 K0.000 F30.000
G2 X1.444 Y-15.082 Z-3.000 I0.151 J-1.018 K0.000 F30.000
G2 X2.240 Y-14.832 Z-3.000 I0.853 J-1.326 K0.000 F30.000
G2 X2.871 Y-14.876 Z-3.000 I0.247 J-0.999 K0.000 F30.000
G2 X3.640 Y-14.552 Z-3.000 I0.976 J-1.239 K0.000 F30.000
G2 X4.272 Y-14.536 Z-3.000 I0.341 J-0.971 K0.000 F30.000
G2 X5.007 Y-14.140 Z-3.000 I1.089 J-1.141 K0.000 F30.000
G2 X5.635 Y-14.064 Z-3.000 I0.432 J-0.934 K0.000 F30.000
G2 X6.328 Y-13.600 Z-3.000 I1.192 J-1.032 K0.000 F30.000
G2 X6.946 Y-13.464 Z-3.000 I0.519 J-0.889 K0.000 F30.000
G2 X7.592 Y-12.937 Z-3.000 I1.285 J-0.914 K0.000 F30.000
G2 X8.195 Y-12.743 Z-3.000 I0.601 J-0.836 K0.000 F30.000
G2 X8.787 Y-12.157 Z-3.000 I1.366 J-0.788 K0.000 F30.000
G2 X9.369 Y-11.907 Z-3.000 I0.678 J-0.775 K0.000 F30.000
G2 X9.903 Y-11.266 Z-3.000 I1.435 J-0.654 K0.000 F30.000
G2 X10.458 Y-10.962 Z-3.000 I0.748 J-0.707 K0.000 F30.000
G2 X10.929 Y-10.274 Z-3.000 I1.491 J-0.515 K0.000 F30.000
G2 X11.453 Y-9.918 Z-3.000 I0.812 J-0.633 K0.000 F30.000
G2 X11.856 Y-9.188 Z-3.000 I1.533 J-0.371 K0.000 F30.000
G2 X12.344 Y-8.785 Z-3.000 I0.869 J-0.553 K0.000 F30.000
G2 X12.676 Y-8.020 Z-3.000 I1.561 J-0.224 K0.000 F30.000
G2 X13.123 Y-7.572 Z-3.000 I0.917 J-0.468 K0.000 F30.000
G2 X13.381 Y-6.779 Z-3.000 I1.575 J-0.074 K0.000 F30.000
G2 X13.783 Y-6.290 Z-3.000 I0.957 J-0.378 K0.000 F30.000
G2 X13.965 Y-5.476 Z-3.000 I1.575 J0.076 K0.000 F30.000
G2 X14.319 Y-4.951 Z-3.000 I0.989 J-0.286 K0.000 F30.000
G2 X14.422 Y-4.124 Z-3.000 I1.561 J0.225 K0.000 F30.000
G2 X14.725 Y-3.568 Z-3.000 I1.012 J-0.190 K0.000 F30.000
G2 X14.749 Y-2.734 Z-3.000 I1.532 J0.373 K0.000 F30.000
G2 X14.997 Y-2.152 Z-3.000 I1.025 J-0.093 K0.000 F30.000
G2 X14.942 Y-1.320 Z-3.000 I1.490 J0.517 K0.000 F30.000
G2 X15.134 Y-0.717 Z-3.000 I1.029 J0.005 K0.000 F30.000
G2 X15.000 Y0.106 Z-3.000 I1.434 J0.656 K0.000 F30.000
G2 X15.133 Y0.725 Z-3.000 I1.024 J0.103 K0.000 F30.000
G2 X14.922 Y1.532 Z-3.000 I1.365 J0.789 K0.000 F30.000
G2 X14.996 Y2.160 Z-3.000 I1.010 J0.199 K0.000 F30.000
G2 X14.708 Y2.943 Z-3.000 I1.284 J0.915 K0.000 F30.000
G2 X14.723 Y3.576 Z-3.000 I0.986 J0.295 K0.000 F30.000
G2 X14.362 Y4.328 Z-3.000 I1.191 J1.033 K0.000 F30.000
G2 X14.316 Y4.959 Z-3.000 I0.954 J0.387 K0.000 F30.000
G2 X13.886 Y5.674 Z-3.000 I1.088 J1.142 K0.000 F30.000
G2 X13.780 Y6.298 Z-3.000 I0.913 J0.476 K0.000 F30.000
G2 X13.283 Y6.968 Z-3.000 I0.974 J1.240 K0.000 F30.000
G2 X13.119 Y7.579 Z-3.000 I0.864 J0.561 K0.000 F30.000
G2 X12.561 Y8.199 Z-3.000 I0.852 J1.327 K0.000 F30.000
G2 X12.339 Y8.792 Z-3.000 I0.806 J0.640 K0.000 F30.000
G2 X11.725 Y9.356 Z-3.000 I0.722 J1.402 K0.000 F30.000
G2 X11.447 Y9.925 Z-3.000 I0.742 J0.714 K0.000 F30.000
G2 X10.782 Y10.428 Z-3.000 I0.585 J1.464 K0.000 F30.000
G2 X10.452 Y10.968 Z-3.000 I0.671 J0.781 K0.000 F30.000
G1 X10.452 Y10.968 Z-3.500 F30.000
G2 X9.742 Y11.406 Z-3.500 I0.443 J1.513 K0.000 F30.000
G2 X9.362 Y11.912 Z-3.500 I0.593 J0.841 K0.000 F30.000
G2 X8.614 Y12.280 Z-3.500 I0.298 J1.549 K0.000 F30.000
G2 X8.187 Y12.748 Z-3.500 I0.511 J0.894 K0.000 F30.000
G2 X7.408 Y13.043 Z-3.500 I0.149 J1.570 K0.000 F30.000
G2 X6.939 Y13.468 Z-3.500 I0.423 J0.938 K0.000 F30.000
G2 X6.134 Y13.688 Z-3.500 I-0.001 J1.577 K0.000 F30.000
G2 X5.627 Y14.067 Z-3.500 I0.332 J0.974 K0.000 F30.000
G2 X4.805 Y14.209 Z-3.500 I-0.151 J1.570 K0.000 F30.000
G2 X4.264 Y14.538 Z-3.500 I0.238 J1.002 K0.000 F30.000
G2 X3.433 Y14.602 Z-3.500 I-0.299 J1.548 K0.000 F30.000
G2 X2.863 Y14.878 Z-3.500 I0.142 J1.020 K0.000 F30.000
G2 X2.029 Y14.862 Z-3.500 I-0.445 J1.513 K0.000 F30.000
G2 X1.436 Y15.082 Z-3.500 I0.044 J1.029 K0.000 F30.000
G2 X0.607 Y14.988 Z-3.500 I-0.587 J1.464 K0.000 F30.000
G2 X-0.004 Y15.151 Z-3.500 I-0.054 J1.028 K0.000 F30.000
G2 X-0.820 Y14.978 Z-3.500 I-0.723 J1.401 K0.000 F30.000
G2 X-1.444 Y15.082 Z-3.500 I-0.151 J1.018 K0.000 F30.000
G2 X-2.240 Y14.832 Z-3.500 I-0.853 J1.326 K0.000 F30.000
G2 X-2.871 Y14.876 Z-3.500 I-0.247 J0.999 K0.000 F30.000
G2 X-3.640 Y14.552 Z-3.500 I-0.976 J1.239 K0.000 F30.000
G2 X-4.272 Y14.536 Z-3.500 I-0.341 J0.971 K0.000 F30.000
G2 X-5.007 Y14.140 Z-3.500 I-1.089 J1.141 K0.000 F30.000
G2 X-5.635 Y14.064 Z-3.500 I-0.432 J0.934 K0.000 F30.000
G2 X-6.328 Y13.600 Z-3.500 I-1.192 J1.032 K0.000 F30.000
G2 X-6.946 Y13.464 Z-3.500 I-0.519 J0.889 K0.000 F30.000
G2 X-7.592 Y12.937 Z-3.500 I-1.285 J0.914 K0.000 F30.000
G2 X-8.195 Y12.743 Z-3.500 I-0.601 J0.836 K0.000 F30.000
G2 X-8.787 Y12.157 Z-3.500 I-1.366 J0.788 K0.000 F30.000
G2 X-9.369 Y11.907 Z-3.500 I-0.678 J0.775 K0.000 F30.000
G2 X-9.903 Y11.266 Z-3.500 I-1.435 J0.654 K0.000 F30.000
G2 X-10.458 Y10.962 Z-3.500 I-0.748 J0.707 K0.000 F30.000
G2 X-10.929 Y10.274 Z-3.500 I-1.491 J0.515 K0.000 F30.000
G2 X-11.453 Y9.918 Z-3.500 I-0.812 J0.633 K0.000 F30.000
G2 X-11.856 Y9.188 Z-3.500 I-1.533 J0.371 K0.000 F30.000
G2 X-12.344 Y8.785 Z-3.500 I-0.869 J0.553 K0.000 F30.000
G2 X-12.676 Y8.020 Z-3.500 I-1.561 J0.224 K0.000 F30.000
G2 X-13.123 Y7.572 Z-3.500 I-0.917 J0.468 K0.000 F30.000
G2 X-13.381 Y6.779 Z-3.500 I-1.575 J0.074 K0.000 F30.000
G2 X-13.783 Y6.290 Z-3.500 I-0.957 J0.378 K0.000 F30.000
G2 X-13.965 Y5.476 Z-3.500 I-1.575 J-0.076 K0.000 F30.000
G2 X-14.319 Y4.951 Z-3.500 I-0.989 J0.286 K0.000 F30.000
G2 X-14.422 Y4.124 Z-3.500 I-1.561 J-0.225 K0.000 F30.000
G2 X-14.725 Y3.568 Z-3.500 I-1.012 J0.190 K0.000 F30.000
G2 X-14.749 Y2.734 Z-3.500 I-1.532 J-0.373 K0.000 F30.000
G2 X-14.997 Y2.152 Z-3.500 I-1.025 J0.093 K0.000 F30.000
G2 X-14.942 Y1.320 Z-3.500 I-1.490 J-0.517 K0.000 F30.000
G2 X-15.134 Y0.717 Z-3.500 I-1.029 J-0.005 K0.000 F30.000
G2 X-15.000 Y-0.106 Z-3.500 I-1.434 J-0.656 K0.000 F30.000
G2 X-15.133 Y-0.725 Z-3.500 I-1.024 J-0.103 K0.000 F30.000
G2 X-14.922 Y-1.532 Z-3.500 I-1.365 J-0.789 K0.000 F30.000
G2 X-14.996 Y-2.160 Z-3.500 I-1.010 J-0.199 K0.000 F30.000
G2 X-14.708 Y-2.943 Z-3.500 I-1.284 J-0.915 K0.000 F30.000
G2 X-14.723 Y-3.576 Z-3.500 I-0.986 J-0.295 K0.000 F30.000
G2 X-14.362 Y-4.328 Z-3.500 I-1.191 J-1.033 K0.000 F30.000
G2 X-14.316 Y-4.959 Z-3.500 I-0.954 J-0.387 K0.000 F30.000
G2 X-13.886 Y-5.674 Z-3.500 I-1.088 J-1.142 K0.000 F30.000
G2 X-13.780 Y-6.298 Z-3.500 I-0.913 J-0.476 K0.000 F30.000
G2 X-13.283 Y-6.968 Z-3.500 I-0.974 J-1.240 K0.000 F30.000
G2 X-13.119 Y-7.579 Z-3.500 I-0.864 J-0.561 K0.000 F30.000
G2 X-12.561 Y-8.199 Z-3.500 I-0.852 J-1.327 K0.000 F30.000
G2 X-12.339 Y-8.792 Z-3.500 I-0.806 J-0.640 K0.000 F30.000
G2 X-11.725 Y-9.356 Z-3.500 I-0.722 J-1.402 K0.000 F30.000
G2 X-11.447 Y-9.925 Z-3.500 I-0.742 J-0.714 K0.000 F30.000
G2 X-10.782 Y-10.428 Z-3.500 I-0.585 J-1.464 K0.000 F30.000
G2 X-10.452 Y-10.968 Z-3.500 I-0.671 J-0.781 K0.000 F30.000
G2 X-9.742 Y-11.406 Z-3.500 I-0.443 J-1.513 K0.000 F30.000
G2 X-9.362 Y-11.912 Z-3.500 I-0.593 J-0.841 K0.000 F30.000
G2 X-8.614 Y-12.280 Z-3.500 I-0.298 J-1.549 K0.000 F30.000
G2 X-8.187 Y-12.748 Z-3.500 I-0.511 J-0.894 K0.000 F30.000
G2 X-7.408 Y-13.043 Z-3.500 I-0.149 J-1.570 K0.000 F30.000
G2 X-6.939 Y-13.468 Z-3.500 I-0.423 J-0.938 K0.000 F30.000
G2 X-6.134 Y-13.688 Z-3.500 I0.001 J-1.577 K0.000 F30.000
G2 X-5.627 Y-14.067 Z-3.500 I-0.332 J-0.974 K0.000 F30.000
G2 X-4.805 Y-14.209 Z-3.500 I0.151 J-1.570 K0.000 F30.000
G2 X-4.264 Y-14.538 Z-3.500 I-0.238 J-1.002 K0.000 F30.000
G2 X-3.433 Y-14.602 Z-3.500 I0.299 J-1.548 K0.000 F30.000
G2 X-2.863 Y-14.878 Z-3.500 I-0.142 J-1.020 K0.000 F30.000
G2 X-2.029 Y-14.862 Z-3.500 I0.445 J-1.513 K0.000 F30.000
G2 X-1.436 Y-15.082 Z-3.500 I-0.044 J-1.029 K0.000 F30.000
G2 X-0.607 Y-14.988 Z-3.500 I0.587 J-1.464 K0.000 F30.000
G2 X0.004 Y-15.151 Z-3.500 I0.054 J-1.028 K0.000 F30.000
G2 X0.820 Y-14.978 Z-3.500 I0.723 J-1.401 K0.000 F30.000
G2 X1.444 Y-15.082 Z-3.500 I0.151 J-1.018 K0.000 F30.000
G2 X2.240 Y-14.832 Z-3.500 I0.853 J-1.326 K0.000 F30.000
G2 X2.871 Y-14.876 Z-3.500 I0.247 J-0.999 K0.000 F30.000
G2 X3.640 Y-14.552 Z-3.500 I0.976 J-1.239 K0.000 F30.000
G2 X4.272 Y-14.536 Z-3.500 I0.341 J-0.971 K0.000 F30.000
G2 X5.007 Y-14.140 Z-3.500 I1.089 J-1.141 K0.000 F30.000
G2 X5.635 Y-14.064 Z-3.500 I0.432 J-0.934 K0.000 F30.000
G2 X6.328 Y-13.600 Z-3.500 I1.192 J-1.032 K0.000 F30.000
G2 X6.946 Y-13.464 Z-3.500 I0.519 J-0.889 K0.000 F30.000
G2 X7.592 Y-12.937 Z-3.500 I1.285 J-0.914 K0.000 F30.000
G2 X8.195 Y-12.743 Z-3.500 I0.601 J-0.836 K0.000 F30.000
G2 X8.787 Y-12.157 Z-3.500 I1.366 J-0.788 K0.000 F30.000
G2 X9.369 Y-11.907 Z-3.500 I0.678 J-0.775 K0.000 F30.000
G2 X9.903 Y-11.266 Z-3.500 I1.435 J-0.654 K0.000 F30.000
G2 X10.458 Y-10.962 Z-3.500 I0.748 J-0.707 K0.000 F30.000
G2 X10.929 Y-10.274 Z-3.500 I1.491 J-0.515 K0.000 F30.000
G2 X11.453 Y-9.918 Z-3.500 I0.812 J-0.633 K0.000 F30.000
G2 X11.856 Y-9.188 Z-3.500 I1.533 J-0.371 K0.000 F30.000
G2 X12.344 Y-8.785 Z-3.500 I0.869 J-0.553 K0.000 F30.000
G2 X12.676 Y-8.020 Z-3.500 I1.561 J-0.224 K0.000 F30.000
G2 X13.123 Y-7.572 Z-3.500 I0.917 J-0.468 K0.000 F30.000
G2 X13.381 Y-6.779 Z-3.500 I1.575 J-0.074 K0.000 F30.000
G2 X13.783 Y-6.290 Z-3.500 I0.957 J-0.378 K0.000 F30.000
G2 X13.965 Y-5.476 Z-3.500 I1.575 J0.076 K0.000 F30.000
G2 X14.319 Y-4.951 Z-3.500 I0.989 J-0.286 K0.000 F30.000
G2 X14.422 Y-4.124 Z-3.500 I1.561 J0.225 K0.000 F30.000
G2 X14.725 Y-3.568 Z-3.500 I1.012 J-0.190 K0.000 F30.000
G2 X14.749 Y-2.734 Z-3.500 I1.532 J0.373 K0.000 F30.000
G2 X14.997 Y-2.152 Z-3.500 I1.025 J-0.093 K0.000 F30.000
G2 X14.942 Y-1.320 Z-3.500 I1.490 J0.517 K0.000 F30.000
G2 X15.134 Y-0.717 Z-3.500 I1.029 J0.005 K0.000 F30.000
G2 X15.000 Y0.106 Z-3.500 I1.434 J0.656 K0.000 F30.000
G2 X15.133 Y0.725 Z-3.500 I1.024 J0.103 K0.000 F30.000
G2 X14.922 Y1.532 Z-3.500 I1.365 J0.789 K0.000 F30.000
G2 X14.996 Y2.160 Z-3.500 I1.010 J0.199 K0.000 F30.000
G2 X14.708 Y2.943 Z-3.500 I1.284 J0.915 K0.000 F30.000
G2 X14.723 Y3.576 Z-3.500 I0.986 J0.295 K0.000 F30.000
G2 X14.362 Y4.328 Z-3.500 I1.191 J1.033 K0.000 F30.000
G2 X14.316 Y4.959 Z-3.500 I0.954 J0.387 K0.000 F30.000
G2 X13.886 Y5.674 Z-3.500 I1.088 J1.142 K0.000 F30.000
G2 X13.780 Y6.298 Z-3.500 I0.913 J0.476 K0.000 F30.000
G2 X13.283 Y6.968 Z-3.500 I0.974 J1.240 K0.000 F30.000
G2 X13.119 Y7.579 Z-3.500 I0.864 J0.561 K0.000 F30.000
G2 X12.561 Y8.199 Z-3.500 I0.852 J1.327 K0.000 F30.000
G2 X12.339 Y8.792 Z-3.500 I0.806 J0.640 K0.000 F30.000
G2 X11.725 Y9.356 Z-3.500 I0.722 J1.402 K0.000 F30.000
G2 X11.447 Y9.925 Z-3.500 I0.742 J0.714 K0.000 F30.000
G2 X10.782 Y10.428 Z-3.500 I0.585 J1.464 K0.000 F30.000
G2 X10.452 Y10.968 Z-3.500 I0.671 J0.781 K0.000 F30.000
G1 X10.452 Y10.968 Z-4.000 F30.000
G2 X9.742 Y11.406 Z-4.000 I0.443 J1.513 K0.000 F30.000
G2 X9.362 Y11.912 Z-4.000 I0.593 J0.841 K0.000 F30.000
G2 X8.614 Y12.280 Z-4.000 I0.298 J1.549 K0.000 F30.000
G2 X8.187 Y12.748 Z-4.000 I0.511 J0.894 K0.000 F30.000
G2 X7.408 Y13.043 Z-4.000 I0.149 J1.570 K0.000 F30.000
G2 X6.939 Y13.468 Z-4.000 I0.423 J0.938 K0.000 F30.000
G2 X6.134 Y13.688 Z-4.000 I-0.001 J1.577 K0.000 F30.000
G2 X5.627 Y14.067 Z-4.000 I0.332 J0.974 K0.000 F30.000
G2 X4.805 Y14.209 Z-4.000 I-0.151 J1.570 K0.000 F30.000
G2 X4.264 Y14.538 Z-4.000 I0.238 J1.002 K0.000 F30.000
G2 X3.433 Y14.602 Z-4.000 I-0.299 J1.548 K0.000 F30.000
G2 X2.863 Y14.878 Z-4.000 I0.142 J1.020 K0.000 F30.000
G2 X2.029 Y14.862 Z-4.000 I-0.445 J1.513 K0.000 F30.000
G2 X1.436 Y15.082 Z-4.000 I0.044 J1.029 K0.000 F30.000
G2 X0.607 Y14.988 Z-4.000 I-0.587 J1.464 K0.000 F30.000
G2 X-0.004 Y15.151 Z-4.000 I-0.054 J1.028 K0.000 F30.000
G2 X-0.820 Y14.978 Z-4.000 I-0.723 J1.401 K0.000 F30.000
G2 X-1.444 Y15.082 Z-4.000 I-0.151 J1.018 K0.000 F30.000
G2 X-2.240 Y14.832 Z-4.000 I-0.853 J1.326 K0.000 F30.000
G2 X-2.871 Y14.876 Z-4.000 I-0.247 J0.999 K0.000 F30.000
G2 X-3.640 Y14.552 Z-4.000 I-0.976 J1.239 K0.000 F30.000
G2 X-4.272 Y14.536 Z-4.000 I-0.341 J0.971 K0.000 F30.000
G2 X-5.007 Y14.140 Z-4.000 I-1.089 J1.141 K0.000 F30.000
G2 X-5.635 Y14.064 Z-4.000 I-0.432 J0.934 K0.000 F30.000
G2 X-6.328 Y13.600 Z-4.000 I-1.192 J1.032 K0.000 F30.000
G2 X-6.946 Y13.464 Z-4.000 I-0.519 J0.889 K0.000 F30.000
G2 X-7.592 Y12.937 Z-4.000 I-1.285 J0.914 K0.000 F30.000
G2 X-8.195 Y12.743 Z-4.000 I-0.601 J0.836 K0.000 F30.000
G2 X-8.787 Y12.157 Z-4.000 I-1.366 J0.788 K0.000 F30.000
G2 X-9.369 Y11.907 Z-4.000 I-0.678 J0.775 K0.000 F30.000
G2 X-9.903 Y11.266 Z-4.000 I-1.435 J0.654 K0.000 F30.000
G2 X-10.458 Y10.962 Z-4.000 I-0.748 J0.707 K0.000 F30.000
G2 X-10.929 Y10.274 Z-4.000 I-1.491 J0.515 K0.000 F30.000
G2 X-11.453 Y9.918 Z-4.000 I-0.812 J0.633 K0.000 F30.000
G2 X-11.856 Y9.188 Z-4.000 I-1.533 J0.371 K0.000 F30.000
G2 X-12.344 Y8.785 Z-4.000 I-0.869 J0.553 K0.000 F30.000
G2 X-12.676 Y8.020 Z-4.000 I-1.561 J0.224 K0.000 F30.000
G2 X-13.123 Y7.572 Z-4.000 I-0.917 J0.468 K0.000 F30.000
G2 X-13.381 Y6.779 Z-4.000 I-1.575 J0.074 K0.000 F30.000
G2 X-13.783 Y6.290 Z-4.000 I-0.957 J0.378 K0.000 F30.000
G2 X-13.965 Y5.476 Z-4.000 I-1.575 J-0.076 K0.000 F30.000
G2 X-14.319 Y4.951 Z-4.000 I-0.989 J0.286 K0.000 F30.000
G2 X-14.422 Y4.124 Z-4.000 I-1.561 J-0.225 K0.000 F30.000
G2 X-14.725 Y3.568 Z-4.000 I-1.012 J0.190 K0.000 F30.000
G2 X-14.749 Y2.734 Z-4.000 I-1.532 J-0.373 K0.000 F30.000
G2 X-14.997 Y2.152 Z-4.000 I-1.025 J0.093 K0.000 F30.000
G2 X-14.942 Y1.320 Z-4.000 I-1.490 J-0.517 K0.000 F30.000
G2 X-15.134 Y0.717 Z-4.000 I-1.029 J-0.005 K0.000 F30.000
G2 X-15.000 Y-0.106 Z-4.000 I-1.434 J-0.656 K0.000 F30.000
G2 X-15.133 Y-0.725 Z-4.000 I-1.024 J-0.103 K0.000 F30.000
G2 X-14.922 Y-1.532 Z-4.000 I-1.365 J-0.789 K0.000 F30.000
G2 X-14.996 Y-2.160 Z-4.000 I-1.010 J-0.199 K0.000 F30.000
G2 X-14.708 Y-2.943 Z-4.000 I-1.284 J-0.915 K0.000 F30.000
G2 X-14.723 Y-3.576 Z-4.000 I-0.986 J-0.295 K0.000 F30.000
G2 X-14.362 Y-4.328 Z-4.000 I-1.191 J-1.033 K0.000 F30.000
G2 X-14.316 Y-4.959 Z-4.000 I-0.954 J-0.387 K0.000 F30.000
G2 X-13.886 Y-5.674 Z-4.000 I-1.088 J-1.142 K0.000 F30.000
G2 X-13.780 Y-6.298 Z-4.000 I-0.913 J-0.476 K0.000 F30.000
G2 X-13.283 Y-6.968 Z-4.000 I-0.974 J-1.240 K0.000 F30.000
G2 X-13.119 Y-7.579 Z-4.000 I-0.864 J-0.561 K0.000 F30.000
G2 X-12.561 Y-8.199 Z-4.000 I-0.852 J-1.327 K0.000 F30.000
G2 X-12.339 Y-8.792 Z-4.000 I-0.806 J-0.640 K0.000 F30.000
G2 X-11.725 Y-9.356 Z-4.000 I-0.722 J-1.402 K0.000 F30.000
G2 X-11.447 Y-9.925 Z-4.000 I-0.742 J-0.714 K0.000 F30.000
G2 X-10.782 Y-10.428 Z-4.000 I-0.585 J-1.464 K0.000 F30.000
G2 X-10.452 Y-10.968 Z-4.000 I-0.671 J-0.781 K0.000 F30.000
G2 X-9.742 Y-11.406 Z-4.000 I-0.443 J-1.513 K0.000 F30.000
G2 X-9.362 Y-11.912 Z-4.000 I-0.593 J-0.841 K0.000 F30.000
G2 X-8.614 Y-12.280 Z-4.000 I-0.298 J-1.549 K0.000 F30.000
G2 X-8.187 Y-12.748 Z-4.000 I-0.511 J-0.894 K0.000 F30.000
G2 X-7.408 Y-13.043 Z-4.000 I-0.149 J-1.570 K0.000 F30.000
G2 X-6.939 Y-13.468 Z-4.000 I-0.423 J-0.938 K0.000 F30.000
G2 X-6.134 Y-13.688 Z-4.000 I0.001 J-1.577 K0.000 F30.000
G2 X-5.627 Y-14.067 Z-4.000 I-0.332 J-0.974 K0.000 F30.000
G2 X-4.805 Y-14.209 Z-4.000 I0.151 J-1.570 K0.000 F30.000
G2 X-4.264 Y-14.538 Z-4.000 I-0.238 J-1.002 K0.000 F30.000
G2 X-3.433 Y-14.602 Z-4.000 I0.299 J-1.548 K0.000 F30.000
G2 X-2.863 Y-14.878 Z-4.000 I-0.142 J-1.020 K0.000 F30.000
G2 X-2.029 Y-14.862 Z-4.000 I0.445 J-1.513 K0.000 F30.000
G2 X-1.436 Y-15.082 Z-4.000 I-0.044 J-1.029 K0.000 F30.000
G2 X-0.607 Y-14.988 Z-4.000 I0.587 J-1.464 K0.000 F30.000
G2 X0.004 Y-15.151 Z-4.000 I0.054 J-1.028 K0.000 F30.000
G2 X0.820 Y-14.978 Z-4.000 I0.723 J-1.401 K0.000 F30.000
G2 X1.444 Y-15.082 Z-4.000 I0.151 J-1.018 K0.000 F30.000
G2 X2.240 Y-14.832 Z-4.000 I0.853 J-1.326 K0.000 F30.000
G2 X2.871 Y-14.876 Z-4.000 I0.247 J-0.999 K0.000 F30.000
G2 X3.640 Y-14.552 Z-4.000 I0.976 J-1.239 K0.000 F30.000
G2 X4.272 Y-14.536 Z-4.000 I0.341 J-0.971 K0.000 F30.000
G2 X5.007 Y-14.140 Z-4.000 I1.089 J-1.141 K0.000 F30.000
G2 X5.635 Y-14.064 Z-4.000 I0.432 J-0.934 K0.000 F30.000
G2 X6.328 Y-13.600 Z-4.000 I1.192 J-1.032 K0.000 F30.000
G2 X6.946 Y-13.464 Z-4.000 I0.519 J-0.889 K0.000 F30.000
G2 X7.592 Y-12.937 Z-4.000 I1.285 J-0.914 K0.000 F30.000
G2 X8.195 Y-12.743 Z-4.000 I0.601 J-0.836 K0.000 F30.000
G2 X8.787 Y-12.157 Z-4.000 I1.366 J-0.788 K0.000 F30.000
G2 X9.369 Y-11.907 Z-4.000 I0.678 J-0.775 K0.000 F30.000
G2 X9.903 Y-11.266 Z-4.000 I1.435 J-0.654 K0.000 F30.000
G2 X10.458 Y-10.962 Z-4.000 I0.748 J-0.707 K0.000 F30.000
G2 X10.929 Y-10.274 Z-4.000 I1.491 J-0.515 K0.000 F30.000
G2 X11.453 Y-9.918 Z-4.000 I0.812 J-0.633 K0.000 F30.000
G2 X11.856 Y-9.188 Z-4.000 I1.533 J-0.371 K0.000 F30.000
G2 X12.344 Y-8.785 Z-4.000 I0.869 J-0.553 K0.000 F30.000
G2 X12.676 Y-8.020 Z-4.000 I1.561 J-0.224 K0.000 F30.000
G2 X13.123 Y-7.572 Z-4.000 I0.917 J-0.468 K0.000 F30.000
G2 X13.381 Y-6.779 Z-4.000 I1.575 J-0.074 K0.000 F30.000
G2 X13.783 Y-6.290 Z-4.000 I0.957 J-0.378 K0.000 F30.000
G2 X13.965 Y-5.476 Z-4.000 I1.575 J0.076 K0.000 F30.000
G2 X14.319 Y-4.951 Z-4.000 I0.989 J-0.286 K0.000 F30.000
G2 X14.422 Y-4.124 Z-4.000 I1.561 J0.225 K0.000 F30.000
G2 X14.725 Y-3.568 Z-4.000 I1.012 J-0.190 K0.000 F30.000
G2 X14.749 Y-2.734 Z-4.000 I1.532 J0.373 K0.000 F30.000
G2 X14.997 Y-2.152 Z-4.000 I1.025 J-0.093 K0.000 F30.000
G2 X14.942 Y-1.320 Z-4.000 I1.490 J0.517 K0.000 F30.000
G2 X15.134 Y-0.717 Z-4.000 I1.029 J0.005 K0.000 F30.000
G2 X15.000 Y0.106 Z-4.000 I1.434 J0.656 K0.000 F30.000
G2 X15.133 Y0.725 Z-4.000 I1.024 J0.103 K0.000 F30.000
G2 X14.922 Y1.532 Z-4.000 I1.365 J0.789 K0.000 F30.000
G2 X14.996 Y2.160 Z-4.000 I1.010 J0.199 K0.000 F30.000
G2 X14.708 Y2.943 Z-4.000 I1.284 J0.915 K0.000 F30.000
G2 X14.723 Y3.576 Z-4.000 I0.986 J0.295 K0.000 F30.000
G2 X14.362 Y4.328 Z-4.000 I1.191 J1.033 K0.000 F30.000
G2 X14.316 Y4.959 Z-4.000 I0.954 J0.387 K0.000 F30.000
G2 X13.886 Y5.674 Z-4.000 I1.088 J1.142 K0.000 F30.000
G2 X13.780 Y6.298 Z-4.000 I0.913 J0.476 K0.000 F30.000
G2 X13.283 Y6.968 Z-4.000 I0.974 J1.240 K0.000 F30.000
G2 X13.119 Y7.579 Z-4.000 I0.864 J0.561 K0.000 F30.000
G2 X12.561 Y8.199 Z-4.000 I0.852 J1.327 K0.000 F30.000
G2 X12.339 Y8.792 Z-4.000 I0.806 J0.640 K0.000 F30.000
G2 X11.725 Y9.356 Z-4.000 I0.722 J1.402 K0.000 F30.000
G2 X11.447 Y9.925 Z-4.000 I0.742 J0.714 K0.000 F30.000
G2 X10.782 Y10.428 Z-4.000 I0.585 J1.464 K0.000 F30.000
G2 X10.452 Y10.968 Z-4.000 I0.671 J0.781 K0.000 F30.000
G1 X10.452 Y10.968 Z-4.500 F30.000
G2 X9.742 Y11.406 Z-4.500 I0.443 J1.513 K0.000 F30.000
G2 X9.362 Y11.912 Z-4.500 I0.593 J0.841 K0.000 F30.000
G2 X8.614 Y12.280 Z-4.500 I0.298 J1.549 K0.000 F30.000
G2 X8.187 Y12.748 Z-4.500 I0.511 J0.894 K0.000 F30.000
G2 X7.408 Y13.043 Z-4.500 I0.149 J1.570 K0.000 F30.000
G2 X6.939 Y13.468 Z-4.500 I0.423 J0.938 K0.000 F30.000
G2 X6.134 Y13.688 Z-4.500 I-0.001 J1.577 K0.000 F30.000
G2 X5.627 Y14.067 Z-4.500 I0.332 J0.974 K0.000 F30.000
G2 X4.805 Y14.209 Z-4.500 I-0.151 J1.570 K0.000 F30.000
G2 X4.264 Y14.538 Z-4.500 I0.238 J1.002 K0.000 F30.000
G2 X3.433 Y14.602 Z-4.500 I-0.299 J1.548 K0.000 F30.000
G2 X2.863 Y14.878 Z-4.500 I0.142 J1.020 K0.000 F30.000
G2 X2.029 Y14.862 Z-4.500 I-0.445 J1.513 K0.000 F30.000
G2 X1.436 Y15.082 Z-4.500 I0.044 J1.029 K0.000 F30.000
G2 X0.607 Y14.988 Z-4.500 I-0.587 J1.464 K0.000 F30.000
G2 X-0.004 Y15.151 Z-4.500 I-0.054 J1.028 K0.000 F30.000
G2 X-0.820 Y14.978 Z-4.500 I-0.723 J1.401 K0.000 F30.000
G2 X-1.444 Y15.082 Z-4.500 I-0.151 J1.018 K0.000 F30.000
G2 X-2.240 Y14.832 Z-4.500 I-0.853 J1.326 K0.000 F30.000
G2 X-2.871 Y14.876 Z-4.500 I-0.247 J0.999 K0.000 F30.000
G2 X-3.640 Y14.552 Z-4.500 I-0.976 J1.239 K0.000 F30.000
G2 X-4.272 Y14.536 Z-4.500 I-0.341 J0.971 K0.000 F30.000
G2 X-5.007 Y14.140 Z-4.500 I-1.089 J1.141 K0.000 F30.000
G2 X-5.635 Y14.064 Z-4.500 I-0.432 J0.934 K0.000 F30.000
G2 X-6.328 Y13.600 Z-4.500 I-1.192 J1.032 K0.000 F30.000
G2 X-6.946 Y13.464 Z-4.500 I-0.519 J0.889 K0.000 F30.000
G2 X-7.592 Y12.937 Z-4.500 I-1.285 J0.914 K0.000 F30.000
G2 X-8.195 Y12.743 Z-4.500 I-0.601 J0.836 K0.000 F30.000
G2 X-8.787 Y12.157 Z-4.500 I-1.366 J0.788 K0.000 F30.000
G2 X-9.369 Y11.907 Z-4.500 I-0.678 J0.775 K0.000 F30.000
G2 X-9.903 Y11.266 Z-4.500 I-1.435 J0.654 K0.000 F30.000
G2 X-10.458 Y10.962 Z-4.500 I-0.748 J0.707 K0.000 F30.000
G2 X-10.929 Y10.274 Z-4.500 I-1.491 J0.515 K0.000 F30.000
G2 X-11.453 Y9.918 Z-4.500 I-0.812 J0.633 K0.000 F30.000
G2 X-11.856 Y9.188 Z-4.500 I-1.533 J0.371 K0.000 F30.000
G2 X-12.344 Y8.785 Z-4.500 I-0.869 J0.553 K0.000 F30.000
G2 X-12.676 Y8.020 Z-4.500 I-1.561 J0.224 K0.000 F30.000
G2 X-13.123 Y7.572 Z-4.500 I-0.917 J0.468 K0.000 F30.000
G2 X-13.381 Y6.779 Z-4.500 I-1.575 J0.074 K0.000 F30.000
G2 X-13.783 Y6.290 Z-4.500 I-0.957 J0.378 K0.000 F30.000
G2 X-13.965 Y5.476 Z-4.500 I-1.575 J-0.076 K0.000 F30.000
G2 X-14.319 Y4.951 Z-4.500 I-0.989 J0.286 K0.000 F30.000
G2 X-14.422 Y4.124 Z-4.500 I-1.561 J-0.225 K0.000 F30.000
G2 X-14.725 Y3.568 Z-4.500 I-1.012 J0.190 K0.000 F30.000
G2 X-14.749 Y2.734 Z-4.500 I-1.532 J-0.373 K0.000 F30.000
G2 X-14.997 Y2.152 Z-4.500 I-1.025 J0.093 K0.000 F30.000
G2 X-14.942 Y1.320 Z-4.500 I-1.490 J-0.517 K0.000 F30.000
G2 X-15.134 Y0.717 Z-4.500 I-1.029 J-0.005 K0.000 F30.000
G2 X-15.000 Y-0.106 Z-4.500 I-1.434 J-0.656 K0.000 F30.000
G2 X-15.133 Y-0.725 Z-4.500 I-1.024 J-0.103 K0.000 F30.000
G2 X-14.922 Y-1.532 Z-4.500 I-1.365 J-0.789 K0.000 F30.000
G2 X-14.996 Y-2.160 Z-4.500 I-1.010 J-0.199 K0.000 F30.000
G2 X-14.708 Y-2.943 Z-4.500 I-1.284 J-0.915 K0.000 F30.000
G2 X-14.723 Y-3.576 Z-4.500 I-0.986 J-0.295 K0.000 F30.000
G2 X-14.362 Y-4.328 Z-4.500 I-1.191 J-1.033 K0.000 F30.000
G2 X-14.316 Y-4.959 Z-4.500 I-0.954 J-0.387 K0.000 F30.000
G2 X-13.886 Y-5.674 Z-4.500 I-1.088 J-1.142 K0.000 F30.000
G2 X-13.780 Y-6.298 Z-4.500 I-0.913 J-0.476 K0.000 F30.000
G2 X-13.283 Y-6.968 Z-4.500 I-0.974 J-1.240 K0.000 F30.000
G2 X-13.119 Y-7.579 Z-4.500 I-0.864 J-0.561 K0.000 F30.000
G2 X-12.561 Y-8.199 Z-4.500 I-0.852 J-1.327 K0.000 F30.000
G2 X-12.339 Y-8.792 Z-4.500 I-0.806 J-0.640 K0.000 F30.000
G2 X-11.725 Y-9.356 Z-4.500 I-0.722 J-1.402 K0.000 F30.000
G2 X-11.447 Y-9.925 Z-4.500 I-0.742 J-0.714 K0.000 F30.000
G2 X-10.782 Y-10.428 Z-4.500 I-0.585 J-1.464 K0.000 F30.000
G2 X-10.452 Y-10.968 Z-4.500 I-0.671 J-0.781 K0.000 F30.000
G2 X-9.742 Y-11.406 Z-4.500 I-0.443 J-1.513 K0.000 F30.000
G2 X-9.362 Y-11.912 Z-4.500 I-0.593 J-0.841 K0.000 F30.000
G2 X-8.614 Y-12.280 Z-4.500 I-0.298 J-1.549 K0.000 F30.000
G2 X-8.187 Y-12.748 Z-4.500 I-0.511 J-0.894 K0.000 F30.000
G2 X-7.408 Y-13.043 Z-4.500 I-0.149 J-1.570 K0.000 F30.000
G2 X-6.939 Y-13.468 Z-4.500 I-0.423 J-0.938 K0.000 F30.000
G2 X-6.134 Y-13.688 Z-4.500 I0.001 J-1.577 K0.000 F30.000
G2 X-5.627 Y-14.067 Z-4.500 I-0.332 J-0.974 K0.000 F30.000
G2 X-4.805 Y-14.209 Z-4.500 I0.151 J-1.570 K0.000 F30.000
G2 X-4.264 Y-14.538 Z-4.500 I-0.238 J-1.002 K0.000 F30.000
G2 X-3.433 Y-14.602 Z-4.500 I0.299 J-1.548 K0.000 F30.000
G2 X-2.863 Y-14.878 Z-4.500 I-0.142 J-1.020 K0.000 F30.000
G2 X-2.029 Y-14.862 Z-4.500 I0.445 J-1.513 K0.000 F30.000
G2 X-1.436 Y-15.082 Z-4.500 I-0.044 J-1.029 K0.000 F30.000
G2 X-0.607 Y-14.988 Z-4.500 I0.587 J-1.464 K0.000 F30.000
G2 X0.004 Y-15.151 Z-4.500 I0.054 J-1.028 K0.000 F30.000
G2 X0.820 Y-14.978 Z-4.500 I0.723 J-1.401 K0.000 F30.000
G2 X1.444 Y-15.082 Z-4.500 I0.151 J-1.018 K0.000 F30.000
G2 X2.240 Y-14.832 Z-4.500 I0.853 J-1.326 K0.000 F30.000
G2 X2.871 Y-14.876 Z-4.500 I0.247 J-0.999 K0.000 F30.000
G2 X3.640 Y-14.552 Z-4.500 I0.976 J-1.239 K0.000 F30.000
G2 X4.272 Y-14.536 Z-4.500 I0.341 J-0.971 K0.000 F30.000
G2 X5.007 Y-14.140 Z-4.500 I1.089 J-1.141 K0.000 F30.000
G2 X5.635 Y-14.064 Z-4.500 I0.432 J-0.934 K0.000 F30.000
G2 X6.328 Y-13.600 Z-4.500 I1.192 J-1.032 K0.000 F30.000
G2 X6.946 Y-13.464 Z-4.500 I0.519 J-0.889 K0.000 F30.000
G2 X7.592 Y-12.937 Z-4.500 I1.285 J-0.914 K0.000 F30.000
G2 X8.195 Y-12.743 Z-4.500 I0.601 J-0.836 K0.000 F30.000
G2 X8.787 Y-12.157 Z-4.500 I1.366 J-0.788 K0.000 F30.000
G2 X9.369 Y-11.907 Z-4.500 I0.678 J-0.775 K0.000 F30.000
G2 X9.903 Y-11.266 Z-4.500 I1.435 J-0.654 K0.000 F30.000
G2 X10.458 Y-10.962 Z-4.500 I0.748 J-0.707 K0.000 F30.000
G2 X10.929 Y-10.274 Z-4.500 I1.491 J-0.515 K0.000 F30.000
G2 X11.453 Y-9.918 Z-4.500 I0.812 J-0.633 K0.000 F30.000
G2 X11.856 Y-9.188 Z-4.500 I1.533 J-0.371 K0.000 F30.000
G2 X12.344 Y-8.785 Z-4.500 I0.869 J-0.553 K0.000 F30.000
G2 X12.676 Y-8.020 Z-4.500 I1.561 J-0.224 K0.000 F30.000
G2 X13.123 Y-7.572 Z-4.500 I0.917 J-0.468 K0.000 F30.000
G2 X13.381 Y-6.779 Z-4.500 I1.575 J-0.074 K0.000 F30.000
G2 X13.783 Y-6.290 Z-4.500 I0.957 J-0.378 K0.000 F30.000
G2 X13.965 Y-5.476 Z-4.500 I1.575 J0.076 K0.000 F30.000
G2 X14.319 Y-4.951 Z-4.500 I0.989 J-0.286 K0.000 F30.000
G2 X14.422 Y-4.124 Z-4.500 I1.561 J0.225 K0.000 F30.000
G2 X14.725 Y-3.568 Z-4.500 I1.012 J-0.190 K0.000 F30.000
G2 X14.749 Y-2.734 Z-4.500 I1.532 J0.373 K0.000 F30.000
G2 X14.997 Y-2.152 Z-4.500 I1.025 J-0.093 K0.000 F30.000
G2 X14.942 Y-1.320 Z-4.500 I1.490 J0.517 K0.000 F30.000
G2 X15.134 Y-0.717 Z-4.500 I1.029 J0.005 K0.000 F30.000
G2 X15.000 Y0.106 Z-4.500 I1.434 J0.656 K0.000 F30.000
G2 X15.133 Y0.725 Z-4.500 I1.024 J0.103 K0.000 F30.000
G2 X14.922 Y1.532 Z-4.500 I1.365 J0.789 K0.000 F30.000
G2 X14.996 Y2.160 Z-4.500 I1.010 J0.199 K0.000 F30.000
G2 X14.708 Y2.943 Z-4.500 I1.284 J0.915 K0.000 F30.000
G2 X14.723 Y3.576 Z-4.500 I0.986 J0.295 K0.000 F30.000
G2 X14.362 Y4.328 Z-4.500 I1.191 J1.033 K0.000 F30.000
G2 X14.316 Y4.959 Z-4.500 I0.954 J0.387 K0.000 F30.000
G2 X13.886 Y5.674 Z-4.500 I1.088 J1.142 K0.000 F30.000
G2 X13.780 Y6.298 Z-4.500 I0.913 J0.476 K0.000 F30.000
G2 X13.283 Y6.968 Z-4.500 I0.974 J1.240 K0.000 F30.000
G2 X13.119 Y7.579 Z-4.500 I0.864 J0.561 K0.000 F30.000
G2 X12.561 Y8.199 Z-4.500 I0.852 J1.327 K0.000 F30.000
G2 X12.339 Y8.792 Z-4.500 I0.806 J0.640 K0.000 F30.000
G2 X11.725 Y9.356 Z-4.500 I0.722 J1.402 K0.000 F30.000
G2 X11.447 Y9.925 Z-4.500 I0.742 J0.714 K0.000 F30.000
G2 X10.782 Y10.428 Z-4.500 I0.585 J1.464 K0.000 F30.000
G2 X10.452 Y10.968 Z-4.500 I0.671 J0.781 K0.000 F30.000
G1 X10.452 Y10.968 Z-5.000 F30.000
G2 X9.742 Y11.406 Z-5.000 I0.443 J1.513 K0.000 F30.000
G2 X9.362 Y11.912 Z-5.000 I0.593 J0.841 K0.000 F30.000
G2 X8.614 Y12.280 Z-5.000 I0.298 J1.549 K0.000 F30.000
G2 X8.187 Y12.748 Z-5.000 I0.511 J0.894 K0.000 F30.000
G2 X7.408 Y13.043 Z-5.000 I0.149 J1.570 K0.000 F30.000
G2 X6.939 Y13.468 Z-5.000 I0.423 J0.938 K0.000 F30.000
G2 X6.134 Y13.688 Z-5.000 I-0.001 J1.577 K0.000 F30.000
G2 X5.627 Y14.067 Z-5.000 I0.332 J0.974 K0.000 F30.000
G2 X4.805 Y14.209 Z-5.000 I-0.151 J1.570 K0.000 F30.000
G2 X4.264 Y14.538 Z-5.000 I0.238 J1.002 K0.000 F30.000
G2 X3.433 Y14.602 Z-5.000 I-0.299 J1.548 K0.000 F30.000
G2 X2.863 Y14.878 Z-5.000 I0.142 J1.020 K0.000 F30.000
G2 X2.029 Y14.862 Z-5.000 I-0.445 J1.513 K0.000 F30.000
G2 X1.436 Y15.082 Z-5.000 I0.044 J1.029 K0.000 F30.000
G2 X0.607 Y14.988 Z-5.000 I-0.587 J1.464 K0.000 F30.000
G2 X-0.004 Y15.151 Z-5.000 I-0.054 J1.028 K0.000 F30.000
G2 X-0.820 Y14.978 Z-5.000 I-0.723 J1.401 K0.000 F30.000
G2 X-1.444 Y15.082 Z-5.000 I-0.151 J1.018 K0.000 F30.000
G2 X-2.240 Y14.832 Z-5.000 I-0.853 J1.326 K0.000 F30.000
G2 X-2.871 Y14.876 Z-5.000 I-0.247 J0.999 K0.000 F30.000
G2 X-3.640 Y14.552 Z-5.000 I-0.976 J1.239 K0.000 F30.000
G2 X-4.272 Y14.536 Z-5.000 I-0.341 J0.971 K0.000 F30.000
G2 X-5.007 Y14.140 Z-5.000 I-1.089 J1.141 K0.000 F30.000
G2 X-5.635 Y14.064 Z-5.000 I-0.432 J0.934 K0.000 F30.000
G2 X-6.328 Y13.600 Z-5.000 I-1.192 J1.032 K0.000 F30.000
G2 X-6.946 Y13.464 Z-5.000 I-0.519 J0.889 K0.000 F30.000
G2 X-7.592 Y12.937 Z-5.000 I-1.285 J0.914 K0.000 F30.000
G2 X-8.195 Y12.743 Z-5.000 I-0.601 J0.836 K0.000 F30.000
G2 X-8.787 Y12.157 Z-5.000 I-1.366 J0.788 K0.000 F30.000
G2 X-9.369 Y11.907 Z-5.000 I-0.678 J0.775 K0.000 F30.000
G2 X-9.903 Y11.266 Z-5.000 I-1.435 J0.654 K0.000 F30.000
G2 X-10.458 Y10.962 Z-5.000 I-0.748 J0.707 K0.000 F30.000
G2 X-10.929 Y10.274 Z-5.000 I-1.491 J0.515 K0.000 F30.000
G2 X-11.453 Y9.918 Z-5.000 I-0.812 J0.633 K0.000 F30.000
G2 X-11.856 Y9.188 Z-5.000 I-1.533 J0.371 K0.000 F30.000
G2 X-12.344 Y8.785 Z-5.000 I-0.869 J0.553 K0.000 F30.000
G2 X-12.676 Y8.020 Z-5.000 I-1.561 J0.224 K0.000 F30.000
G2 X-13.123 Y7.572 Z-5.000 I-0.917 J0.468 K0.000 F30.000
G2 X-13.381 Y6.779 Z-5.000 I-1.575 J0.074 K0.000 F30.000
G2 X-13.783 Y6.290 Z-5.000 I-0.957 J0.378 K0.000 F30.000
G2 X-13.965 Y5.476 Z-5.000 I-1.575 J-0.076 K0.000 F30.000
G2 X-14.319 Y4.951 Z-5.000 I-0.989 J0.286 K0.000 F30.000
G2 X-14.422 Y4.124 Z-5.000 I-1.561 J-0.225 K0.000 F30.000
G2 X-14.725 Y3.568 Z-5.000 I-1.012 J0.190 K0.000 F30.000
G2 X-14.749 Y2.734 Z-5.000 I-1.532 J-0.373 K0.000 F30.000
G2 X-14.997 Y2.152 Z-5.000 I-1.025 J0.093 K0.000 F30.000
G2 X-14.942 Y1.320 Z-5.000 I-1.490 J-0.517 K0.000 F30.000
G2 X-15.134 Y0.717 Z-5.000 I-1.029 J-0.005 K0.000 F30.000
G2 X-15.000 Y-0.106 Z-5.000 I-1.434 J-0.656 K0.000 F30.000
G2 X-15.133 Y-0.725 Z-5.000 I-1.024 J-0.103 K0.000 F30.000
G2 X-14.922 Y-1.532 Z-5.000 I-1.365 J-0.789 K0.000 F30.000
G2 X-14.996 Y-2.160 Z-5.000 I-1.010 J-0.199 K0.000 F30.000
G2 X-14.708 Y-2.943 Z-5.000 I-1.284 J-0.915 K0.000 F30.000
G2 X-14.723 Y-3.576 Z-5.000 I-0.986 J-0.295 K0.000 F30.000
G2 X-14.362 Y-4.328 Z-5.000 I-1.191 J-1.033 K0.000 F30.000
G2 X-14.316 Y-4.959 Z-5.000 I-0.954 J-0.387 K0.000 F30.000
G2 X-13.886 Y-5.674 Z-5.000 I-1.088 J-1.142 K0.000 F30.000
G2 X-13.780 Y-6.298 Z-5.000 I-0.913 J-0.476 K0.000 F30.000
G2 X-13.283 Y-6.968 Z-5.000 I-0.974 J-1.240 K0.000 F30.000
G2 X-13.119 Y-7.579 Z-5.000 I-0.864 J-0.561 K0.000 F30.000
G2 X-12.561 Y-8.199 Z-5.000 I-0.852 J-1.327 K0.000 F30.000
G2 X-12.339 Y-8.792 Z-5.000 I-0.806 J-0.640 K0.000 F30.000
G2 X-11.725 Y-9.356 Z-5.000 I-0.722 J-1.402 K0.000 F30.000
G2 X-11.447 Y-9.925 Z-5.000 I-0.742 J-0.714 K0.000 F30.000
G2 X-10.782 Y-10.428 Z-5.000 I-0.585 J-1.464 K0.000 F30.000
G2 X-10.452 Y-10.968 Z-5.000 I-0.671 J-0.781 K0.000 F30.000
G2 X-9.742 Y-11.406 Z-5.000 I-0.443 J-1.513 K0.000 F30.000
G2 X-9.362 Y-11.912 Z-5.000 I-0.593 J-0.841 K0.000 F30.000
G2 X-8.614 Y-12.280 Z-5.000 I-0.298 J-1.549 K0.000 F30.000
G2 X-8.187 Y-12.748 Z-5.000 I-0.511 J-0.894 K0.000 F30.000
G2 X-7.408 Y-13.043 Z-5.000 I-0.149 J-1.570 K0.000 F30.000
G2 X-6.939 Y-13.468 Z-5.000 I-0.423 J-0.938 K0.000 F30.000
G2 X-6.134 Y-13.688 Z-5.000 I0.001 J-1.577 K0.000 F30.000
G2 X-5.627 Y-14.067 Z-5.000 I-0.332 J-0.974 K0.000 F30.000
G2 X-4.805 Y-14.209 Z-5.000 I0.151 J-1.570 K0.000 F30.000
G2 X-4.264 Y-14.538 Z-5.000 I-0.238 J-1.002 K0.000 F30.000
G2 X-3.433 Y-14.602 Z-5.000 I0.299 J-1.548 K0.000 F30.000
G2 X-2.863 Y-14.878 Z-5.000 I-0.142 J-1.020 K0.000 F30.000
G2 X-2.029 Y-14.862 Z-5.000 I0.445 J-1.513 K0.000 F30.000
G2 X-1.436 Y-15.082 Z-5.000 I-0.044 J-1.029 K0.000 F30.000
G2 X-0.607 Y-14.988 Z-5.000 I0.587 J-1.464 K0.000 F30.000
G2 X0.004 Y-15.151 Z-5.000 I0.054 J-1.028 K0.000 F30.000
G2 X0.820 Y-14.978 Z-5.000 I0.723 J-1.401 K0.000 F30.000
G2 X1.444 Y-15.082 Z-5.000 I0.151 J-1.018 K0.000 F30.000
G2 X2.240 Y-14.832 Z-5.000 I0.853 J-1.326 K0.000 F30.000
G2 X2.871 Y-14.876 Z-5.000 I0.247 J-0.999 K0.000 F30.000
G2 X3.640 Y-14.552 Z-5.000 I0.976 J-1.239 K0.000 F30.000
G2 X4.272 Y-14.536 Z-5.000 I0.341 J-0.971 K0.000 F30.000
G2 X5.007 Y-14.140 Z-5.000 I1.089 J-1.141 K0.000 F30.000
G2 X5.635 Y-14.064 Z-5.000 I0.432 J-0.934 K0.000 F30.000
G2 X6.328 Y-13.600 Z-5.000 I1.192 J-1.032 K0.000 F30.000
G2 X6.946 Y-13.464 Z-5.000 I0.519 J-0.889 K0.000 F30.000
G2 X7.592 Y-12.937 Z-5.000 I1.285 J-0.914 K0.000 F30.000
G2 X8.195 Y-12.743 Z-5.000 I0.601 J-0.836 K0.000 F30.000
G2 X8.787 Y-12.157 Z-5.000 I1.366 J-0.788 K0.000 F30.000
G2 X9.369 Y-11.907 Z-5.000 I0.678 J-0.775 K0.000 F30.000
G2 X9.903 Y-11.266 Z-5.000 I1.435 J-0.654 K0.000 F30.000
G2 X10.458 Y-10.962 Z-5.000 I0.748 J-0.707 K0.000 F30.000
G2 X10.929 Y-10.274 Z-5.000 I1.491 J-0.515 K0.000 F30.000
G2 X11.453 Y-9.918 Z-5.000 I0.812 J-0.633 K0.000 F30.000
G2 X11.856 Y-9.188 Z-5.000 I1.533 J-0.371 K0.000 F30.000
G2 X12.344 Y-8.785 Z-5.000 I0.869 J-0.553 K0.000 F30.000
G2 X12.676 Y-8.020 Z-5.000 I1.561 J-0.224 K0.000 F30.000
G2 X13.123 Y-7.572 Z-5.000 I0.917 J-0.468 K0.000 F30.000
G2 X13.381 Y-6.779 Z-5.000 I1.575 J-0.074 K0.000 F30.000
G2 X13.783 Y-6.290 Z-5.000 I0.957 J-0.378 K0.000 F30.000
G2 X13.965 Y-5.476 Z-5.000 I1.575 J0.076 K0.000 F30.000
G2 X14.319 Y-4.951 Z-5.000 I0.989 J-0.286 K0.000 F30.000
G2 X14.422 Y-4.124 Z-5.000 I1.561 J0.225 K0.000 F30.000
G2 X14.725 Y-3.568 Z-5.000 I1.012 J-0.190 K0.000 F30.000
G2 X14.749 Y-2.734 Z-5.000 I1.532 J0.373 K0.000 F30.000
G2 X14.997 Y-2.152 Z-5.000 I1.025 J-0.093 K0.000 F30.000
G2 X14.942 Y-1.320 Z-5.000 I1.490 J0.517 K0.000 F30.000
G2 X15.134 Y-0.717 Z-5.000 I1.029 J0.005 K0.000 F30.000
G2 X15.000 Y0.106 Z-5.000 I1.434 J0.656 K0.000 F30.000
G2 X15.133 Y0.725 Z-5.000 I1.024 J0.103 K0.000 F30.000
G2 X14.922 Y1.532 Z-5.000 I1.365 J0.789 K0.000 F30.000
G2 X14.996 Y2.160 Z-5.000 I1.010 J0.199 K0.000 F30.000
G2 X14.708 Y2.943 Z-5.000 I1.284 J0.915 K0.000 F30.000
G2 X14.723 Y3.576 Z-5.000 I0.986 J0.295 K0.000 F30.000
G2 X14.362 Y4.328 Z-5.000 I1.191 J1.033 K0.000 F30.000
G2 X14.316 Y4.959 Z-5.000 I0.954 J0.387 K0.000 F30.000
G2 X13.886 Y5.674 Z-5.000 I1.088 J1.142 K0.000 F30.000
G2 X13.780 Y6.298 Z-5.000 I0.913 J0.476 K0.000 F30.000
G2 X13.283 Y6.968 Z-5.000 I0.974 J1.240 K0.000 F30.000
G2 X13.119 Y7.579 Z-5.000 I0.864 J0.561 K0.000 F30.000
G2 X12.561 Y8.199 Z-5.000 I0.852 J1.327 K0.000 F30.000
G2 X12.339 Y8.792 Z-5.000 I0.806 J0.640 K0.000 F30.000
G2 X11.725 Y9.356 Z-5.000 I0.722 J1.402 K0.000 F30.000
G2 X11.447 Y9.925 Z-5.000 I0.742 J0.714 K0.000 F30.000
G2 X10.782 Y10.428 Z-5.000 I0.585 J1.464 K0.000 F30.000
G2 X10.452 Y10.968 Z-5.000 I0.671 J0.781 K0.000 F30.000
G0 Z5.000
G0 Z5.000
(Finish operation: 2mm-gear)
(Begin postamble)
M5
G17 G90
M2
