(Exported by FreeCAD)
(Post Processor: grbl_post)
(Output Time:2025-08-28 20:14:43.051766)
(Begin preamble)
G17 G90
G21
(Begin operation: Fixture)
(Path: Fixture)
G54
(Finish operation: Fixture)
(Begin operation: 2mm-6-Endmill003)
(Path: 2mm-6-Endmill003)
(2mm-6-Endmill003)
(Begin toolchange)
( M6 T2 )
(Finish operation: 2mm-6-Endmill003)
(Begin operation: Pocket_Shape)
(Path: Pocket_Shape)
(Pocket_Shape)
G0 Z5.000
G0
G0 X0.100 Y-22.240
G0 X0.100 Y-22.240 Z1.000
G1 X0.100 Y-22.240 Z-1.000 F30.000
G1 X0.100 Y-16.000 Z-1.000 F30.000
G1 X-0.100 Y-16.000 Z-1.000 F30.000
G1 X-0.100 Y-22.240 Z-1.000 F30.000
G1 X0.100 Y-22.240 Z-1.000 F30.000
G0 Z5.000
G0 X0.600 Y-22.740 Z5.000
G0 X0.600 Y-22.740 Z1.000
G1 X0.600 Y-22.740 Z-1.000 F30.000
G1 X0.600 Y-15.500 Z-1.000 F30.000
G1 X-0.600 Y-15.500 Z-1.000 F30.000
G1 X-0.600 Y-22.740 Z-1.000 F30.000
G1 X0.600 Y-22.740 Z-1.000 F30.000
G0 Z5.000
G0 X1.100 Y-23.240 Z5.000
G0 X1.100 Y-23.240 Z1.000
G1 X1.100 Y-23.240 Z-1.000 F30.000
G1 X1.100 Y-15.000 Z-1.000 F30.000
G1 X-1.100 Y-15.000 Z-1.000 F30.000
G1 X-1.100 Y-23.240 Z-1.000 F30.000
G1 X1.100 Y-23.240 Z-1.000 F30.000
G0 Z5.000
G0 X0.100 Y-22.240 Z5.000
G0 X0.100 Y-22.240 Z1.000
G1 X0.100 Y-22.240 Z-2.000 F30.000
G1 X0.100 Y-16.000 Z-2.000 F30.000
G1 X-0.100 Y-16.000 Z-2.000 F30.000
G1 X-0.100 Y-22.240 Z-2.000 F30.000
G1 X0.100 Y-22.240 Z-2.000 F30.000
G0 Z5.000
G0 X0.600 Y-22.740 Z5.000
G0 X0.600 Y-22.740 Z1.000
G1 X0.600 Y-22.740 Z-2.000 F30.000
G1 X0.600 Y-15.500 Z-2.000 F30.000
G1 X-0.600 Y-15.500 Z-2.000 F30.000
G1 X-0.600 Y-22.740 Z-2.000 F30.000
G1 X0.600 Y-22.740 Z-2.000 F30.000
G0 Z5.000
G0 X1.100 Y-23.240 Z5.000
G0 X1.100 Y-23.240 Z1.000
G1 X1.100 Y-23.240 Z-2.000 F30.000
G1 X1.100 Y-15.000 Z-2.000 F30.000
G1 X-1.100 Y-15.000 Z-2.000 F30.000
G1 X-1.100 Y-23.240 Z-2.000 F30.000
G1 X1.100 Y-23.240 Z-2.000 F30.000
G0 Z5.000
G0 X0.100 Y-22.240 Z5.000
G0 X0.100 Y-22.240 Z1.000
G1 X0.100 Y-22.240 Z-2.740 F30.000
G1 X0.100 Y-16.000 Z-2.740 F30.000
G1 X-0.100 Y-16.000 Z-2.740 F30.000
G1 X-0.100 Y-22.240 Z-2.740 F30.000
G1 X0.100 Y-22.240 Z-2.740 F30.000
G0 Z5.000
G0 X0.600 Y-22.740 Z5.000
G0 X0.600 Y-22.740 Z1.000
G1 X0.600 Y-22.740 Z-2.740 F30.000
G1 X0.600 Y-15.500 Z-2.740 F30.000
G1 X-0.600 Y-15.500 Z-2.740 F30.000
G1 X-0.600 Y-22.740 Z-2.740 F30.000
G1 X0.600 Y-22.740 Z-2.740 F30.000
G0 Z5.000
G0 X1.100 Y-23.240 Z5.000
G0 X1.100 Y-23.240 Z1.000
G1 X1.100 Y-23.240 Z-2.740 F30.000
G1 X1.100 Y-15.000 Z-2.740 F30.000
G1 X-1.100 Y-15.000 Z-2.740 F30.000
G1 X-1.100 Y-23.240 Z-2.740 F30.000
G1 X1.100 Y-23.240 Z-2.740 F30.000
G0 Z5.000
G0 Z5.000
(Finish operation: Pocket_Shape)
(Begin operation: Pocket_Shape006)
(Path: Pocket_Shape006)
(Pocket_Shape006)
G0 Z5.000
G0
G0 X0.100 Y-22.240
G0 X0.100 Y-22.240 Z-2.000
G1 X0.100 Y-22.240 Z-3.500 F30.000
G1 X0.100 Y-17.755 Z-3.500 F30.000
G1 X-0.100 Y-17.755 Z-3.500 F30.000
G1 X-0.100 Y-22.240 Z-3.500 F30.000
G1 X0.100 Y-22.240 Z-3.500 F30.000
G0 Z5.000
G0 X0.600 Y-22.740 Z5.000
G0 X0.600 Y-22.740 Z-2.000
G1 X0.600 Y-22.740 Z-3.500 F30.000
G1 X0.600 Y-17.255 Z-3.500 F30.000
G1 X-0.600 Y-17.255 Z-3.500 F30.000
G1 X-0.600 Y-22.740 Z-3.500 F30.000
G1 X0.600 Y-22.740 Z-3.500 F30.000
G0 Z5.000
G0 X1.100 Y-23.240 Z5.000
G0 X1.100 Y-23.240 Z-2.000
G1 X1.100 Y-23.240 Z-3.500 F30.000
G1 X1.100 Y-16.755 Z-3.500 F30.000
G1 X-1.100 Y-16.755 Z-3.500 F30.000
G1 X-1.100 Y-23.240 Z-3.500 F30.000
G1 X1.100 Y-23.240 Z-3.500 F30.000
G0 Z5.000
G0 X0.100 Y-22.240 Z5.000
G0 X0.100 Y-22.240 Z-2.000
G1 X0.100 Y-22.240 Z-4.500 F30.000
G1 X0.100 Y-17.755 Z-4.500 F30.000
G1 X-0.100 Y-17.755 Z-4.500 F30.000
G1 X-0.100 Y-22.240 Z-4.500 F30.000
G1 X0.100 Y-22.240 Z-4.500 F30.000
G0 Z5.000
G0 X0.600 Y-22.740 Z5.000
G0 X0.600 Y-22.740 Z-2.000
G1 X0.600 Y-22.740 Z-4.500 F30.000
G1 X0.600 Y-17.255 Z-4.500 F30.000
G1 X-0.600 Y-17.255 Z-4.500 F30.000
G1 X-0.600 Y-22.740 Z-4.500 F30.000
G1 X0.600 Y-22.740 Z-4.500 F30.000
G0 Z5.000
G0 X1.100 Y-23.240 Z5.000
G0 X1.100 Y-23.240 Z-2.000
G1 X1.100 Y-23.240 Z-4.500 F30.000
G1 X1.100 Y-16.755 Z-4.500 F30.000
G1 X-1.100 Y-16.755 Z-4.500 F30.000
G1 X-1.100 Y-23.240 Z-4.500 F30.000
G1 X1.100 Y-23.240 Z-4.500 F30.000
G0 Z5.000
G0 Z5.000
(Finish operation: Pocket_Shape006)
(Begin operation: Pocket_Shape007)
(Path: Pocket_Shape007)
(Pocket_Shape007)
G0 Z5.000
G0
G0 X8.418 Y-20.585
G0 X8.418 Y-20.585 Z1.000
G1 X8.418 Y-20.585 Z-1.000 F30.000
G1 X8.603 Y-20.509 Z-1.000 F30.000
G1 X6.215 Y-14.744 Z-1.000 F30.000
G1 X6.031 Y-14.820 Z-1.000 F30.000
G1 X8.418 Y-20.585 Z-1.000 F30.000
G0 Z5.000
G0 X8.148 Y-21.239 Z5.000
G0 X8.148 Y-21.239 Z1.000
G1 X8.148 Y-21.239 Z-1.000 F30.000
G1 X9.257 Y-20.779 Z-1.000 F30.000
G1 X6.486 Y-14.091 Z-1.000 F30.000
G1 X5.377 Y-14.550 Z-1.000 F30.000
G1 X8.148 Y-21.239 Z-1.000 F30.000
G0 Z5.000
G0 X7.877 Y-21.892 Z5.000
G0 X7.877 Y-21.892 Z1.000
G1 X7.877 Y-21.892 Z-1.000 F30.000
G1 X9.910 Y-21.050 Z-1.000 F30.000
G1 X6.757 Y-13.437 Z-1.000 F30.000
G1 X4.724 Y-14.279 Z-1.000 F30.000
G1 X7.877 Y-21.892 Z-1.000 F30.000
G0 Z5.000
G0 X8.418 Y-20.585 Z5.000
G0 X8.418 Y-20.585 Z1.000
G1 X8.418 Y-20.585 Z-2.000 F30.000
G1 X8.603 Y-20.509 Z-2.000 F30.000
G1 X6.215 Y-14.744 Z-2.000 F30.000
G1 X6.031 Y-14.820 Z-2.000 F30.000
G1 X8.418 Y-20.585 Z-2.000 F30.000
G0 Z5.000
G0 X8.148 Y-21.239 Z5.000
G0 X8.148 Y-21.239 Z1.000
G1 X8.148 Y-21.239 Z-2.000 F30.000
G1 X9.257 Y-20.779 Z-2.000 F30.000
G1 X6.486 Y-14.091 Z-2.000 F30.000
G1 X5.377 Y-14.550 Z-2.000 F30.000
G1 X8.148 Y-21.239 Z-2.000 F30.000
G0 Z5.000
G0 X7.877 Y-21.892 Z5.000
G0 X7.877 Y-21.892 Z1.000
G1 X7.877 Y-21.892 Z-2.000 F30.000
G1 X9.910 Y-21.050 Z-2.000 F30.000
G1 X6.757 Y-13.437 Z-2.000 F30.000
G1 X4.724 Y-14.279 Z-2.000 F30.000
G1 X7.877 Y-21.892 Z-2.000 F30.000
G0 Z5.000
G0 X8.418 Y-20.585 Z5.000
G0 X8.418 Y-20.585 Z1.000
G1 X8.418 Y-20.585 Z-2.740 F30.000
G1 X8.603 Y-20.509 Z-2.740 F30.000
G1 X6.215 Y-14.744 Z-2.740 F30.000
G1 X6.031 Y-14.820 Z-2.740 F30.000
G1 X8.418 Y-20.585 Z-2.740 F30.000
G0 Z5.000
G0 X8.148 Y-21.239 Z5.000
G0 X8.148 Y-21.239 Z1.000
G1 X8.148 Y-21.239 Z-2.740 F30.000
G1 X9.257 Y-20.779 Z-2.740 F30.000
G1 X6.486 Y-14.091 Z-2.740 F30.000
G1 X5.377 Y-14.550 Z-2.740 F30.000
G1 X8.148 Y-21.239 Z-2.740 F30.000
G0 Z5.000
G0 X7.877 Y-21.892 Z5.000
G0 X7.877 Y-21.892 Z1.000
G1 X7.877 Y-21.892 Z-2.740 F30.000
G1 X9.910 Y-21.050 Z-2.740 F30.000
G1 X6.757 Y-13.437 Z-2.740 F30.000
G1 X4.724 Y-14.279 Z-2.740 F30.000
G1 X7.877 Y-21.892 Z-2.740 F30.000
G0 Z5.000
G0 Z5.000
(Finish operation: Pocket_Shape007)
(Begin operation: Pocket_Shape008)
(Path: Pocket_Shape008)
(Pocket_Shape008)
G0 Z5.000
G0
G0 X8.418 Y-20.585
G0 X8.418 Y-20.585 Z-2.000
G1 X8.418 Y-20.585 Z-3.500 F30.000
G1 X8.603 Y-20.509 Z-3.500 F30.000
G1 X6.887 Y-16.365 Z-3.500 F30.000
G1 X6.702 Y-16.442 Z-3.500 F30.000
G1 X8.418 Y-20.585 Z-3.500 F30.000
G0 Z5.000
G0 X8.148 Y-21.239 Z5.000
G0 X8.148 Y-21.239 Z-2.000
G1 X8.148 Y-21.239 Z-3.500 F30.000
G1 X9.257 Y-20.779 Z-3.500 F30.000
G1 X7.158 Y-15.712 Z-3.500 F30.000
G1 X6.049 Y-16.171 Z-3.500 F30.000
G1 X8.148 Y-21.239 Z-3.500 F30.000
G0 Z5.000
G0 X7.877 Y-21.892 Z5.000
G0 X7.877 Y-21.892 Z-2.000
G1 X7.877 Y-21.892 Z-3.500 F30.000
G1 X9.910 Y-21.050 Z-3.500 F30.000
G1 X7.428 Y-15.059 Z-3.500 F30.000
G1 X5.396 Y-15.901 Z-3.500 F30.000
G1 X7.877 Y-21.892 Z-3.500 F30.000
G0 Z5.000
G0 X8.418 Y-20.585 Z5.000
G0 X8.418 Y-20.585 Z-2.000
G1 X8.418 Y-20.585 Z-4.500 F30.000
G1 X8.603 Y-20.509 Z-4.500 F30.000
G1 X6.887 Y-16.365 Z-4.500 F30.000
G1 X6.702 Y-16.442 Z-4.500 F30.000
G1 X8.418 Y-20.585 Z-4.500 F30.000
G0 Z5.000
G0 X8.148 Y-21.239 Z5.000
G0 X8.148 Y-21.239 Z-2.000
G1 X8.148 Y-21.239 Z-4.500 F30.000
G1 X9.257 Y-20.779 Z-4.500 F30.000
G1 X7.158 Y-15.712 Z-4.500 F30.000
G1 X6.049 Y-16.171 Z-4.500 F30.000
G1 X8.148 Y-21.239 Z-4.500 F30.000
G0 Z5.000
G0 X7.877 Y-21.892 Z5.000
G0 X7.877 Y-21.892 Z-2.000
G1 X7.877 Y-21.892 Z-4.500 F30.000
G1 X9.910 Y-21.050 Z-4.500 F30.000
G1 X7.428 Y-15.059 Z-4.500 F30.000
G1 X5.396 Y-15.901 Z-4.500 F30.000
G1 X7.877 Y-21.892 Z-4.500 F30.000
G0 Z5.000
G0 Z5.000
(Finish operation: Pocket_Shape008)
(Begin operation: Pocket_Shape011)
(Path: Pocket_Shape011)
(Pocket_Shape011)
G0 Z5.000
G0
G0 X15.655 Y-15.797
G0 X15.655 Y-15.797 Z1.000
G1 X15.655 Y-15.797 Z-1.000 F30.000
G1 X15.797 Y-15.655 Z-1.000 F30.000
G1 X11.384 Y-11.243 Z-1.000 F30.000
G1 X11.243 Y-11.384 Z-1.000 F30.000
G1 X15.655 Y-15.797 Z-1.000 F30.000
G0 Z5.000
G0 Y-16.504 Z5.000
G0 Y-16.504 Z1.000
G1 X15.655 Y-16.504 Z-1.000 F30.000
G1 X16.504 Y-15.655 Z-1.000 F30.000
G1 X11.384 Y-10.536 Z-1.000 F30.000
G1 X10.536 Y-11.384 Z-1.000 F30.000
G1 X15.655 Y-16.504 Z-1.000 F30.000
G0 Z5.000
G0 Y-17.211 Z5.000
G0 Y-17.211 Z1.000
G1 X15.655 Y-17.211 Z-1.000 F30.000
G1 X17.211 Y-15.655 Z-1.000 F30.000
G1 X11.384 Y-9.829 Z-1.000 F30.000
G1 X9.829 Y-11.384 Z-1.000 F30.000
G1 X15.655 Y-17.211 Z-1.000 F30.000
G0 Z5.000
G0 Y-15.797 Z5.000
G0 Y-15.797 Z1.000
G1 X15.655 Y-15.797 Z-2.000 F30.000
G1 X15.797 Y-15.655 Z-2.000 F30.000
G1 X11.384 Y-11.243 Z-2.000 F30.000
G1 X11.243 Y-11.384 Z-2.000 F30.000
G1 X15.655 Y-15.797 Z-2.000 F30.000
G0 Z5.000
G0 Y-16.504 Z5.000
G0 Y-16.504 Z1.000
G1 X15.655 Y-16.504 Z-2.000 F30.000
G1 X16.504 Y-15.655 Z-2.000 F30.000
G1 X11.384 Y-10.536 Z-2.000 F30.000
G1 X10.536 Y-11.384 Z-2.000 F30.000
G1 X15.655 Y-16.504 Z-2.000 F30.000
G0 Z5.000
G0 Y-17.211 Z5.000
G0 Y-17.211 Z1.000
G1 X15.655 Y-17.211 Z-2.000 F30.000
G1 X17.211 Y-15.655 Z-2.000 F30.000
G1 X11.384 Y-9.829 Z-2.000 F30.000
G1 X9.829 Y-11.384 Z-2.000 F30.000
G1 X15.655 Y-17.211 Z-2.000 F30.000
G0 Z5.000
G0 Y-15.797 Z5.000
G0 Y-15.797 Z1.000
G1 X15.655 Y-15.797 Z-2.740 F30.000
G1 X15.797 Y-15.655 Z-2.740 F30.000
G1 X11.384 Y-11.243 Z-2.740 F30.000
G1 X11.243 Y-11.384 Z-2.740 F30.000
G1 X15.655 Y-15.797 Z-2.740 F30.000
G0 Z5.000
G0 Y-16.504 Z5.000
G0 Y-16.504 Z1.000
G1 X15.655 Y-16.504 Z-2.740 F30.000
G1 X16.504 Y-15.655 Z-2.740 F30.000
G1 X11.384 Y-10.536 Z-2.740 F30.000
G1 X10.536 Y-11.384 Z-2.740 F30.000
G1 X15.655 Y-16.504 Z-2.740 F30.000
G0 Z5.000
G0 Y-17.211 Z5.000
G0 Y-17.211 Z1.000
G1 X15.655 Y-17.211 Z-2.740 F30.000
G1 X17.211 Y-15.655 Z-2.740 F30.000
G1 X11.384 Y-9.829 Z-2.740 F30.000
G1 X9.829 Y-11.384 Z-2.740 F30.000
G1 X15.655 Y-17.211 Z-2.740 F30.000
G0 Z5.000
G0 Z5.000
(Finish operation: Pocket_Shape011)
(Begin operation: Pocket_Shape012)
(Path: Pocket_Shape012)
(Pocket_Shape012)
G0 Z5.000
G0
G0 X15.655 Y-15.797
G0 X15.655 Y-15.797 Z-2.000
G1 X15.655 Y-15.797 Z-3.500 F30.000
G1 X15.797 Y-15.655 Z-3.500 F30.000
G1 X12.625 Y-12.484 Z-3.500 F30.000
G1 X12.484 Y-12.625 Z-3.500 F30.000
G1 X15.655 Y-15.797 Z-3.500 F30.000
G0 Z5.000
G0 Y-16.504 Z5.000
G0 Y-16.504 Z-2.000
G1 X15.655 Y-16.504 Z-3.500 F30.000
G1 X16.504 Y-15.655 Z-3.500 F30.000
G1 X12.625 Y-11.777 Z-3.500 F30.000
G1 X11.777 Y-12.625 Z-3.500 F30.000
G1 X15.655 Y-16.504 Z-3.500 F30.000
G0 Z5.000
G0 Y-17.211 Z5.000
G0 Y-17.211 Z-2.000
G1 X15.655 Y-17.211 Z-3.500 F30.000
G1 X17.211 Y-15.655 Z-3.500 F30.000
G1 X12.625 Y-11.070 Z-3.500 F30.000
G1 X11.070 Y-12.625 Z-3.500 F30.000
G1 X15.655 Y-17.211 Z-3.500 F30.000
G0 Z5.000
G0 Y-15.797 Z5.000
G0 Y-15.797 Z-2.000
G1 X15.655 Y-15.797 Z-4.500 F30.000
G1 X15.797 Y-15.655 Z-4.500 F30.000
G1 X12.625 Y-12.484 Z-4.500 F30.000
G1 X12.484 Y-12.625 Z-4.500 F30.000
G1 X15.655 Y-15.797 Z-4.500 F30.000
G0 Z5.000
G0 Y-16.504 Z5.000
G0 Y-16.504 Z-2.000
G1 X15.655 Y-16.504 Z-4.500 F30.000
G1 X16.504 Y-15.655 Z-4.500 F30.000
G1 X12.625 Y-11.777 Z-4.500 F30.000
G1 X11.777 Y-12.625 Z-4.500 F30.000
G1 X15.655 Y-16.504 Z-4.500 F30.000
G0 Z5.000
G0 Y-17.211 Z5.000
G0 Y-17.211 Z-2.000
G1 X15.655 Y-17.211 Z-4.500 F30.000
G1 X17.211 Y-15.655 Z-4.500 F30.000
G1 X12.625 Y-11.070 Z-4.500 F30.000
G1 X11.070 Y-12.625 Z-4.500 F30.000
G1 X15.655 Y-17.211 Z-4.500 F30.000
G0 Z5.000
G0 Z5.000
(Finish operation: Pocket_Shape012)
(Begin operation: Pocket_Shape013)
(Path: Pocket_Shape013)
(Pocket_Shape013)
G0 Z5.000
G0
G0 X20.509 Y-8.603
G0 X20.509 Y-8.603 Z1.000
G1 X20.509 Y-8.603 Z-1.000 F30.000
G1 X20.585 Y-8.418 Z-1.000 F30.000
G1 X14.820 Y-6.031 Z-1.000 F30.000
G1 X14.744 Y-6.215 Z-1.000 F30.000
G1 X20.509 Y-8.603 Z-1.000 F30.000
G0 Z5.000
G0 X20.779 Y-9.257 Z5.000
G0 X20.779 Y-9.257 Z1.000
G1 X20.779 Y-9.257 Z-1.000 F30.000
G1 X21.239 Y-8.148 Z-1.000 F30.000
G1 X14.550 Y-5.377 Z-1.000 F30.000
G1 X14.091 Y-6.486 Z-1.000 F30.000
G1 X20.779 Y-9.257 Z-1.000 F30.000
G0 Z5.000
G0 X21.050 Y-9.910 Z5.000
G0 X21.050 Y-9.910 Z1.000
G1 X21.050 Y-9.910 Z-1.000 F30.000
G1 X21.892 Y-7.877 Z-1.000 F30.000
G1 X14.279 Y-4.724 Z-1.000 F30.000
G1 X13.437 Y-6.757 Z-1.000 F30.000
G1 X21.050 Y-9.910 Z-1.000 F30.000
G0 Z5.000
G0 X20.509 Y-8.603 Z5.000
G0 X20.509 Y-8.603 Z1.000
G1 X20.509 Y-8.603 Z-2.000 F30.000
G1 X20.585 Y-8.418 Z-2.000 F30.000
G1 X14.820 Y-6.031 Z-2.000 F30.000
G1 X14.744 Y-6.215 Z-2.000 F30.000
G1 X20.509 Y-8.603 Z-2.000 F30.000
G0 Z5.000
G0 X20.779 Y-9.257 Z5.000
G0 X20.779 Y-9.257 Z1.000
G1 X20.779 Y-9.257 Z-2.000 F30.000
G1 X21.239 Y-8.148 Z-2.000 F30.000
G1 X14.550 Y-5.377 Z-2.000 F30.000
G1 X14.091 Y-6.486 Z-2.000 F30.000
G1 X20.779 Y-9.257 Z-2.000 F30.000
G0 Z5.000
G0 X21.050 Y-9.910 Z5.000
G0 X21.050 Y-9.910 Z1.000
G1 X21.050 Y-9.910 Z-2.000 F30.000
G1 X21.892 Y-7.877 Z-2.000 F30.000
G1 X14.279 Y-4.724 Z-2.000 F30.000
G1 X13.437 Y-6.757 Z-2.000 F30.000
G1 X21.050 Y-9.910 Z-2.000 F30.000
G0 Z5.000
G0 X20.509 Y-8.603 Z5.000
G0 X20.509 Y-8.603 Z1.000
G1 X20.509 Y-8.603 Z-2.740 F30.000
G1 X20.585 Y-8.418 Z-2.740 F30.000
G1 X14.820 Y-6.031 Z-2.740 F30.000
G1 X14.744 Y-6.215 Z-2.740 F30.000
G1 X20.509 Y-8.603 Z-2.740 F30.000
G0 Z5.000
G0 X20.779 Y-9.257 Z5.000
G0 X20.779 Y-9.257 Z1.000
G1 X20.779 Y-9.257 Z-2.740 F30.000
G1 X21.239 Y-8.148 Z-2.740 F30.000
G1 X14.550 Y-5.377 Z-2.740 F30.000
G1 X14.091 Y-6.486 Z-2.740 F30.000
G1 X20.779 Y-9.257 Z-2.740 F30.000
G0 Z5.000
G0 X21.050 Y-9.910 Z5.000
G0 X21.050 Y-9.910 Z1.000
G1 X21.050 Y-9.910 Z-2.740 F30.000
G1 X21.892 Y-7.877 Z-2.740 F30.000
G1 X14.279 Y-4.724 Z-2.740 F30.000
G1 X13.437 Y-6.757 Z-2.740 F30.000
G1 X21.050 Y-9.910 Z-2.740 F30.000
G0 Z5.000
G0 Z5.000
(Finish operation: Pocket_Shape013)
(Begin operation: Pocket_Shape014)
(Path: Pocket_Shape014)
(Pocket_Shape014)
G0 Z5.000
G0
G0 X20.509 Y-8.603
G0 X20.509 Y-8.603 Z-2.000
G1 X20.509 Y-8.603 Z-3.500 F30.000
G1 X20.585 Y-8.418 Z-3.500 F30.000
G1 X16.442 Y-6.702 Z-3.500 F30.000
G1 X16.365 Y-6.887 Z-3.500 F30.000
G1 X20.509 Y-8.603 Z-3.500 F30.000
G0 Z5.000
G0 X20.779 Y-9.257 Z5.000
G0 X20.779 Y-9.257 Z-2.000
G1 X20.779 Y-9.257 Z-3.500 F30.000
G1 X21.239 Y-8.148 Z-3.500 F30.000
G1 X16.171 Y-6.049 Z-3.500 F30.000
G1 X15.712 Y-7.158 Z-3.500 F30.000
G1 X20.779 Y-9.257 Z-3.500 F30.000
G0 Z5.000
G0 X21.050 Y-9.910 Z5.000
G0 X21.050 Y-9.910 Z-2.000
G1 X21.050 Y-9.910 Z-3.500 F30.000
G1 X21.892 Y-7.877 Z-3.500 F30.000
G1 X15.901 Y-5.396 Z-3.500 F30.000
G1 X15.059 Y-7.428 Z-3.500 F30.000
G1 X21.050 Y-9.910 Z-3.500 F30.000
G0 Z5.000
G0 X20.509 Y-8.603 Z5.000
G0 X20.509 Y-8.603 Z-2.000
G1 X20.509 Y-8.603 Z-4.500 F30.000
G1 X20.585 Y-8.418 Z-4.500 F30.000
G1 X16.442 Y-6.702 Z-4.500 F30.000
G1 X16.365 Y-6.887 Z-4.500 F30.000
G1 X20.509 Y-8.603 Z-4.500 F30.000
G0 Z5.000
G0 X20.779 Y-9.257 Z5.000
G0 X20.779 Y-9.257 Z-2.000
G1 X20.779 Y-9.257 Z-4.500 F30.000
G1 X21.239 Y-8.148 Z-4.500 F30.000
G1 X16.171 Y-6.049 Z-4.500 F30.000
G1 X15.712 Y-7.158 Z-4.500 F30.000
G1 X20.779 Y-9.257 Z-4.500 F30.000
G0 Z5.000
G0 X21.050 Y-9.910 Z5.000
G0 X21.050 Y-9.910 Z-2.000
G1 X21.050 Y-9.910 Z-4.500 F30.000
G1 X21.892 Y-7.877 Z-4.500 F30.000
G1 X15.901 Y-5.396 Z-4.500 F30.000
G1 X15.059 Y-7.428 Z-4.500 F30.000
G1 X21.050 Y-9.910 Z-4.500 F30.000
G0 Z5.000
G0 Z5.000
(Finish operation: Pocket_Shape014)
(Begin operation: Pocket_Shape016)
(Path: Pocket_Shape016)
(Pocket_Shape016)
G0 Z5.000
G0
G0 X22.240 Y-0.100
G0 X22.240 Y-0.100 Z1.000
G1 X22.240 Y-0.100 Z-1.000 F30.000
G1 X22.240 Y0.100 Z-1.000 F30.000
G1 X16.000 Y0.100 Z-1.000 F30.000
G1 X16.000 Y-0.100 Z-1.000 F30.000
G1 X22.240 Y-0.100 Z-1.000 F30.000
G0 Z5.000
G0 X22.740 Y-0.600 Z5.000
G0 X22.740 Y-0.600 Z1.000
G1 X22.740 Y-0.600 Z-1.000 F30.000
G1 X22.740 Y0.600 Z-1.000 F30.000
G1 X15.500 Y0.600 Z-1.000 F30.000
G1 X15.500 Y-0.600 Z-1.000 F30.000
G1 X22.740 Y-0.600 Z-1.000 F30.000
G0 Z5.000
G0 X23.240 Y-1.100 Z5.000
G0 X23.240 Y-1.100 Z1.000
G1 X23.240 Y-1.100 Z-1.000 F30.000
G1 X23.240 Y1.100 Z-1.000 F30.000
G1 X15.000 Y1.100 Z-1.000 F30.000
G1 X15.000 Y-1.100 Z-1.000 F30.000
G1 X23.240 Y-1.100 Z-1.000 F30.000
G0 Z5.000
G0 X22.240 Y-0.100 Z5.000
G0 X22.240 Y-0.100 Z1.000
G1 X22.240 Y-0.100 Z-2.000 F30.000
G1 X22.240 Y0.100 Z-2.000 F30.000
G1 X16.000 Y0.100 Z-2.000 F30.000
G1 X16.000 Y-0.100 Z-2.000 F30.000
G1 X22.240 Y-0.100 Z-2.000 F30.000
G0 Z5.000
G0 X22.740 Y-0.600 Z5.000
G0 X22.740 Y-0.600 Z1.000
G1 X22.740 Y-0.600 Z-2.000 F30.000
G1 X22.740 Y0.600 Z-2.000 F30.000
G1 X15.500 Y0.600 Z-2.000 F30.000
G1 X15.500 Y-0.600 Z-2.000 F30.000
G1 X22.740 Y-0.600 Z-2.000 F30.000
G0 Z5.000
G0 X23.240 Y-1.100 Z5.000
G0 X23.240 Y-1.100 Z1.000
G1 X23.240 Y-1.100 Z-2.000 F30.000
G1 X23.240 Y1.100 Z-2.000 F30.000
G1 X15.000 Y1.100 Z-2.000 F30.000
G1 X15.000 Y-1.100 Z-2.000 F30.000
G1 X23.240 Y-1.100 Z-2.000 F30.000
G0 Z5.000
G0 X22.240 Y-0.100 Z5.000
G0 X22.240 Y-0.100 Z1.000
G1 X22.240 Y-0.100 Z-2.740 F30.000
G1 X22.240 Y0.100 Z-2.740 F30.000
G1 X16.000 Y0.100 Z-2.740 F30.000
G1 X16.000 Y-0.100 Z-2.740 F30.000
G1 X22.240 Y-0.100 Z-2.740 F30.000
G0 Z5.000
G0 X22.740 Y-0.600 Z5.000
G0 X22.740 Y-0.600 Z1.000
G1 X22.740 Y-0.600 Z-2.740 F30.000
G1 X22.740 Y0.600 Z-2.740 F30.000
G1 X15.500 Y0.600 Z-2.740 F30.000
G1 X15.500 Y-0.600 Z-2.740 F30.000
G1 X22.740 Y-0.600 Z-2.740 F30.000
G0 Z5.000
G0 X23.240 Y-1.100 Z5.000
G0 X23.240 Y-1.100 Z1.000
G1 X23.240 Y-1.100 Z-2.740 F30.000
G1 X23.240 Y1.100 Z-2.740 F30.000
G1 X15.000 Y1.100 Z-2.740 F30.000
G1 X15.000 Y-1.100 Z-2.740 F30.000
G1 X23.240 Y-1.100 Z-2.740 F30.000
G0 Z5.000
G0 Z5.000
(Finish operation: Pocket_Shape016)
(Begin operation: Pocket_Shape017)
(Path: Pocket_Shape017)
(Pocket_Shape017)
G0 Z5.000
G0
G0 X22.240 Y-0.100
G0 X22.240 Y-0.100 Z-2.000
G1 X22.240 Y-0.100 Z-3.500 F30.000
G1 X22.240 Y0.100 Z-3.500 F30.000
G1 X17.755 Y0.100 Z-3.500 F30.000
G1 X17.755 Y-0.100 Z-3.500 F30.000
G1 X22.240 Y-0.100 Z-3.500 F30.000
G0 Z5.000
G0 X22.740 Y-0.600 Z5.000
G0 X22.740 Y-0.600 Z-2.000
G1 X22.740 Y-0.600 Z-3.500 F30.000
G1 X22.740 Y0.600 Z-3.500 F30.000
G1 X17.255 Y0.600 Z-3.500 F30.000
G1 X17.255 Y-0.600 Z-3.500 F30.000
G1 X22.740 Y-0.600 Z-3.500 F30.000
G0 Z5.000
G0 X23.240 Y-1.100 Z5.000
G0 X23.240 Y-1.100 Z-2.000
G1 X23.240 Y-1.100 Z-3.500 F30.000
G1 X23.240 Y1.100 Z-3.500 F30.000
G1 X16.755 Y1.100 Z-3.500 F30.000
G1 X16.755 Y-1.100 Z-3.500 F30.000
G1 X23.240 Y-1.100 Z-3.500 F30.000
G0 Z5.000
G0 X22.240 Y-0.100 Z5.000
G0 X22.240 Y-0.100 Z-2.000
G1 X22.240 Y-0.100 Z-4.500 F30.000
G1 X22.240 Y0.100 Z-4.500 F30.000
G1 X17.755 Y0.100 Z-4.500 F30.000
G1 X17.755 Y-0.100 Z-4.500 F30.000
G1 X22.240 Y-0.100 Z-4.500 F30.000
G0 Z5.000
G0 X22.740 Y-0.600 Z5.000
G0 X22.740 Y-0.600 Z-2.000
G1 X22.740 Y-0.600 Z-4.500 F30.000
G1 X22.740 Y0.600 Z-4.500 F30.000
G1 X17.255 Y0.600 Z-4.500 F30.000
G1 X17.255 Y-0.600 Z-4.500 F30.000
G1 X22.740 Y-0.600 Z-4.500 F30.000
G0 Z5.000
G0 X23.240 Y-1.100 Z5.000
G0 X23.240 Y-1.100 Z-2.000
G1 X23.240 Y-1.100 Z-4.500 F30.000
G1 X23.240 Y1.100 Z-4.500 F30.000
G1 X16.755 Y1.100 Z-4.500 F30.000
G1 X16.755 Y-1.100 Z-4.500 F30.000
G1 X23.240 Y-1.100 Z-4.500 F30.000
G0 Z5.000
G0 Z5.000
(Finish operation: Pocket_Shape017)
(Begin operation: Pocket_Shape018)
(Path: Pocket_Shape018)
(Pocket_Shape018)
G0 Z5.000
G0
G0 X14.820 Y6.031
G0 X14.820 Y6.031 Z1.000
G1 X14.820 Y6.031 Z-1.000 F30.000
G1 X20.585 Y8.418 Z-1.000 F30.000
G1 X20.509 Y8.603 Z-1.000 F30.000
G1 X14.744 Y6.215 Z-1.000 F30.000
G1 X14.820 Y6.031 Z-1.000 F30.000
G0 Z5.000
G0 X14.091 Y6.486 Z5.000
G0 X14.091 Y6.486 Z1.000
G1 X14.091 Y6.486 Z-1.000 F30.000
G1 X14.550 Y5.377 Z-1.000 F30.000
G1 X21.239 Y8.148 Z-1.000 F30.000
G1 X20.779 Y9.257 Z-1.000 F30.000
G1 X14.091 Y6.486 Z-1.000 F30.000
G0 Z5.000
G0 X13.437 Y6.757 Z5.000
G0 X13.437 Y6.757 Z1.000
G1 X13.437 Y6.757 Z-1.000 F30.000
G1 X14.279 Y4.724 Z-1.000 F30.000
G1 X21.892 Y7.877 Z-1.000 F30.000
G1 X21.050 Y9.910 Z-1.000 F30.000
G1 X13.437 Y6.757 Z-1.000 F30.000
G0 Z5.000
G0 X14.820 Y6.031 Z5.000
G0 X14.820 Y6.031 Z1.000
G1 X14.820 Y6.031 Z-2.000 F30.000
G1 X20.585 Y8.418 Z-2.000 F30.000
G1 X20.509 Y8.603 Z-2.000 F30.000
G1 X14.744 Y6.215 Z-2.000 F30.000
G1 X14.820 Y6.031 Z-2.000 F30.000
G0 Z5.000
G0 X14.091 Y6.486 Z5.000
G0 X14.091 Y6.486 Z1.000
G1 X14.091 Y6.486 Z-2.000 F30.000
G1 X14.550 Y5.377 Z-2.000 F30.000
G1 X21.239 Y8.148 Z-2.000 F30.000
G1 X20.779 Y9.257 Z-2.000 F30.000
G1 X14.091 Y6.486 Z-2.000 F30.000
G0 Z5.000
G0 X13.437 Y6.757 Z5.000
G0 X13.437 Y6.757 Z1.000
G1 X13.437 Y6.757 Z-2.000 F30.000
G1 X14.279 Y4.724 Z-2.000 F30.000
G1 X21.892 Y7.877 Z-2.000 F30.000
G1 X21.050 Y9.910 Z-2.000 F30.000
G1 X13.437 Y6.757 Z-2.000 F30.000
G0 Z5.000
G0 X14.820 Y6.031 Z5.000
G0 X14.820 Y6.031 Z1.000
G1 X14.820 Y6.031 Z-2.740 F30.000
G1 X20.585 Y8.418 Z-2.740 F30.000
G1 X20.509 Y8.603 Z-2.740 F30.000
G1 X14.744 Y6.215 Z-2.740 F30.000
G1 X14.820 Y6.031 Z-2.740 F30.000
G0 Z5.000
G0 X14.091 Y6.486 Z5.000
G0 X14.091 Y6.486 Z1.000
G1 X14.091 Y6.486 Z-2.740 F30.000
G1 X14.550 Y5.377 Z-2.740 F30.000
G1 X21.239 Y8.148 Z-2.740 F30.000
G1 X20.779 Y9.257 Z-2.740 F30.000
G1 X14.091 Y6.486 Z-2.740 F30.000
G0 Z5.000
G0 X13.437 Y6.757 Z5.000
G0 X13.437 Y6.757 Z1.000
G1 X13.437 Y6.757 Z-2.740 F30.000
G1 X14.279 Y4.724 Z-2.740 F30.000
G1 X21.892 Y7.877 Z-2.740 F30.000
G1 X21.050 Y9.910 Z-2.740 F30.000
G1 X13.437 Y6.757 Z-2.740 F30.000
G0 Z5.000
G0 Z5.000
(Finish operation: Pocket_Shape018)
(Begin operation: Pocket_Shape019)
(Path: Pocket_Shape019)
(Pocket_Shape019)
G0 Z5.000
G0
G0 X16.442 Y6.702
G0 X16.442 Y6.702 Z-2.000
G1 X16.442 Y6.702 Z-3.500 F30.000
G1 X20.585 Y8.418 Z-3.500 F30.000
G1 X20.509 Y8.603 Z-3.500 F30.000
G1 X16.365 Y6.887 Z-3.500 F30.000
G1 X16.442 Y6.702 Z-3.500 F30.000
G0 Z5.000
G0 X16.171 Y6.049 Z5.000
G0 X16.171 Y6.049 Z-2.000
G1 X16.171 Y6.049 Z-3.500 F30.000
G1 X21.239 Y8.148 Z-3.500 F30.000
G1 X20.779 Y9.257 Z-3.500 F30.000
G1 X15.712 Y7.158 Z-3.500 F30.000
G1 X16.171 Y6.049 Z-3.500 F30.000
G0 Z5.000
G0 X15.901 Y5.396 Z5.000
G0 X15.901 Y5.396 Z-2.000
G1 X15.901 Y5.396 Z-3.500 F30.000
G1 X21.892 Y7.877 Z-3.500 F30.000
G1 X21.050 Y9.910 Z-3.500 F30.000
G1 X15.059 Y7.428 Z-3.500 F30.000
G1 X15.901 Y5.396 Z-3.500 F30.000
G0 Z5.000
G0 X16.442 Y6.702 Z5.000
G0 X16.442 Y6.702 Z-2.000
G1 X16.442 Y6.702 Z-4.500 F30.000
G1 X20.585 Y8.418 Z-4.500 F30.000
G1 X20.509 Y8.603 Z-4.500 F30.000
G1 X16.365 Y6.887 Z-4.500 F30.000
G1 X16.442 Y6.702 Z-4.500 F30.000
G0 Z5.000
G0 X16.171 Y6.049 Z5.000
G0 X16.171 Y6.049 Z-2.000
G1 X16.171 Y6.049 Z-4.500 F30.000
G1 X21.239 Y8.148 Z-4.500 F30.000
G1 X20.779 Y9.257 Z-4.500 F30.000
G1 X15.712 Y7.158 Z-4.500 F30.000
G1 X16.171 Y6.049 Z-4.500 F30.000
G0 Z5.000
G0 X15.901 Y5.396 Z5.000
G0 X15.901 Y5.396 Z-2.000
G1 X15.901 Y5.396 Z-4.500 F30.000
G1 X21.892 Y7.877 Z-4.500 F30.000
G1 X21.050 Y9.910 Z-4.500 F30.000
G1 X15.059 Y7.428 Z-4.500 F30.000
G1 X15.901 Y5.396 Z-4.500 F30.000
G0 Z5.000
G0 Z5.000
(Finish operation: Pocket_Shape019)
(Begin operation: Pocket_Shape021)
(Path: Pocket_Shape021)
(Pocket_Shape021)
G0 Z5.000
G0
G0 X11.384 Y11.243
G0 X11.384 Y11.243 Z1.000
G1 X11.384 Y11.243 Z-1.000 F30.000
G1 X15.797 Y15.655 Z-1.000 F30.000
G1 X15.655 Y15.797 Z-1.000 F30.000
G1 X11.243 Y11.384 Z-1.000 F30.000
G1 X11.384 Y11.243 Z-1.000 F30.000
G0 Z5.000
G0 Y10.536 Z5.000
G0 Y10.536 Z1.000
G1 X11.384 Y10.536 Z-1.000 F30.000
G1 X16.504 Y15.655 Z-1.000 F30.000
G1 X15.655 Y16.504 Z-1.000 F30.000
G1 X10.536 Y11.384 Z-1.000 F30.000
G1 X11.384 Y10.536 Z-1.000 F30.000
G0 Z5.000
G0 Y9.829 Z5.000
G0 Y9.829 Z1.000
G1 X11.384 Y9.829 Z-1.000 F30.000
G1 X17.211 Y15.655 Z-1.000 F30.000
G1 X15.655 Y17.211 Z-1.000 F30.000
G1 X9.829 Y11.384 Z-1.000 F30.000
G1 X11.384 Y9.829 Z-1.000 F30.000
G0 Z5.000
G0 Y11.243 Z5.000
G0 Y11.243 Z1.000
G1 X11.384 Y11.243 Z-2.000 F30.000
G1 X15.797 Y15.655 Z-2.000 F30.000
G1 X15.655 Y15.797 Z-2.000 F30.000
G1 X11.243 Y11.384 Z-2.000 F30.000
G1 X11.384 Y11.243 Z-2.000 F30.000
G0 Z5.000
G0 Y10.536 Z5.000
G0 Y10.536 Z1.000
G1 X11.384 Y10.536 Z-2.000 F30.000
G1 X16.504 Y15.655 Z-2.000 F30.000
G1 X15.655 Y16.504 Z-2.000 F30.000
G1 X10.536 Y11.384 Z-2.000 F30.000
G1 X11.384 Y10.536 Z-2.000 F30.000
G0 Z5.000
G0 Y9.829 Z5.000
G0 Y9.829 Z1.000
G1 X11.384 Y9.829 Z-2.000 F30.000
G1 X17.211 Y15.655 Z-2.000 F30.000
G1 X15.655 Y17.211 Z-2.000 F30.000
G1 X9.829 Y11.384 Z-2.000 F30.000
G1 X11.384 Y9.829 Z-2.000 F30.000
G0 Z5.000
G0 Y11.243 Z5.000
G0 Y11.243 Z1.000
G1 X11.384 Y11.243 Z-2.740 F30.000
G1 X15.797 Y15.655 Z-2.740 F30.000
G1 X15.655 Y15.797 Z-2.740 F30.000
G1 X11.243 Y11.384 Z-2.740 F30.000
G1 X11.384 Y11.243 Z-2.740 F30.000
G0 Z5.000
G0 Y10.536 Z5.000
G0 Y10.536 Z1.000
G1 X11.384 Y10.536 Z-2.740 F30.000
G1 X16.504 Y15.655 Z-2.740 F30.000
G1 X15.655 Y16.504 Z-2.740 F30.000
G1 X10.536 Y11.384 Z-2.740 F30.000
G1 X11.384 Y10.536 Z-2.740 F30.000
G0 Z5.000
G0 Y9.829 Z5.000
G0 Y9.829 Z1.000
G1 X11.384 Y9.829 Z-2.740 F30.000
G1 X17.211 Y15.655 Z-2.740 F30.000
G1 X15.655 Y17.211 Z-2.740 F30.000
G1 X9.829 Y11.384 Z-2.740 F30.000
G1 X11.384 Y9.829 Z-2.740 F30.000
G0 Z5.000
G0 Z5.000
(Finish operation: Pocket_Shape021)
(Begin operation: Pocket_Shape022)
(Path: Pocket_Shape022)
(Pocket_Shape022)
G0 Z5.000
G0
G0 X12.625 Y12.484
G0 X12.625 Y12.484 Z-2.000
G1 X12.625 Y12.484 Z-3.500 F30.000
G1 X15.797 Y15.655 Z-3.500 F30.000
G1 X15.655 Y15.797 Z-3.500 F30.000
G1 X12.484 Y12.625 Z-3.500 F30.000
G1 X12.625 Y12.484 Z-3.500 F30.000
G0 Z5.000
G0 Y11.777 Z5.000
G0 Y11.777 Z-2.000
G1 X12.625 Y11.777 Z-3.500 F30.000
G1 X16.504 Y15.655 Z-3.500 F30.000
G1 X15.655 Y16.504 Z-3.500 F30.000
G1 X11.777 Y12.625 Z-3.500 F30.000
G1 X12.625 Y11.777 Z-3.500 F30.000
G0 Z5.000
G0 Y11.070 Z5.000
G0 Y11.070 Z-2.000
G1 X12.625 Y11.070 Z-3.500 F30.000
G1 X17.211 Y15.655 Z-3.500 F30.000
G1 X15.655 Y17.211 Z-3.500 F30.000
G1 X11.070 Y12.625 Z-3.500 F30.000
G1 X12.625 Y11.070 Z-3.500 F30.000
G0 Z5.000
G0 Y12.484 Z5.000
G0 Y12.484 Z-2.000
G1 X12.625 Y12.484 Z-4.500 F30.000
G1 X15.797 Y15.655 Z-4.500 F30.000
G1 X15.655 Y15.797 Z-4.500 F30.000
G1 X12.484 Y12.625 Z-4.500 F30.000
G1 X12.625 Y12.484 Z-4.500 F30.000
G0 Z5.000
G0 Y11.777 Z5.000
G0 Y11.777 Z-2.000
G1 X12.625 Y11.777 Z-4.500 F30.000
G1 X16.504 Y15.655 Z-4.500 F30.000
G1 X15.655 Y16.504 Z-4.500 F30.000
G1 X11.777 Y12.625 Z-4.500 F30.000
G1 X12.625 Y11.777 Z-4.500 F30.000
G0 Z5.000
G0 Y11.070 Z5.000
G0 Y11.070 Z-2.000
G1 X12.625 Y11.070 Z-4.500 F30.000
G1 X17.211 Y15.655 Z-4.500 F30.000
G1 X15.655 Y17.211 Z-4.500 F30.000
G1 X11.070 Y12.625 Z-4.500 F30.000
G1 X12.625 Y11.070 Z-4.500 F30.000
G0 Z5.000
G0 Z5.000
(Finish operation: Pocket_Shape022)
(Begin operation: Pocket_Shape023)
(Path: Pocket_Shape023)
(Pocket_Shape023)
G0 Z5.000
G0
G0 X6.215 Y14.744
G0 X6.215 Y14.744 Z1.000
G1 X6.215 Y14.744 Z-1.000 F30.000
G1 X8.603 Y20.509 Z-1.000 F30.000
G1 X8.418 Y20.585 Z-1.000 F30.000
G1 X6.031 Y14.820 Z-1.000 F30.000
G1 X6.215 Y14.744 Z-1.000 F30.000
G0 Z5.000
G0 X5.377 Y14.550 Z5.000
G0 X5.377 Y14.550 Z1.000
G1 X5.377 Y14.550 Z-1.000 F30.000
G1 X6.486 Y14.091 Z-1.000 F30.000
G1 X9.257 Y20.779 Z-1.000 F30.000
G1 X8.148 Y21.239 Z-1.000 F30.000
G1 X5.377 Y14.550 Z-1.000 F30.000
G0 Z5.000
G0 X4.724 Y14.279 Z5.000
G0 X4.724 Y14.279 Z1.000
G1 X4.724 Y14.279 Z-1.000 F30.000
G1 X6.757 Y13.437 Z-1.000 F30.000
G1 X9.910 Y21.050 Z-1.000 F30.000
G1 X7.877 Y21.892 Z-1.000 F30.000
G1 X4.724 Y14.279 Z-1.000 F30.000
G0 Z5.000
G0 X6.215 Y14.744 Z5.000
G0 X6.215 Y14.744 Z1.000
G1 X6.215 Y14.744 Z-2.000 F30.000
G1 X8.603 Y20.509 Z-2.000 F30.000
G1 X8.418 Y20.585 Z-2.000 F30.000
G1 X6.031 Y14.820 Z-2.000 F30.000
G1 X6.215 Y14.744 Z-2.000 F30.000
G0 Z5.000
G0 X5.377 Y14.550 Z5.000
G0 X5.377 Y14.550 Z1.000
G1 X5.377 Y14.550 Z-2.000 F30.000
G1 X6.486 Y14.091 Z-2.000 F30.000
G1 X9.257 Y20.779 Z-2.000 F30.000
G1 X8.148 Y21.239 Z-2.000 F30.000
G1 X5.377 Y14.550 Z-2.000 F30.000
G0 Z5.000
G0 X4.724 Y14.279 Z5.000
G0 X4.724 Y14.279 Z1.000
G1 X4.724 Y14.279 Z-2.000 F30.000
G1 X6.757 Y13.437 Z-2.000 F30.000
G1 X9.910 Y21.050 Z-2.000 F30.000
G1 X7.877 Y21.892 Z-2.000 F30.000
G1 X4.724 Y14.279 Z-2.000 F30.000
G0 Z5.000
G0 X6.215 Y14.744 Z5.000
G0 X6.215 Y14.744 Z1.000
G1 X6.215 Y14.744 Z-2.740 F30.000
G1 X8.603 Y20.509 Z-2.740 F30.000
G1 X8.418 Y20.585 Z-2.740 F30.000
G1 X6.031 Y14.820 Z-2.740 F30.000
G1 X6.215 Y14.744 Z-2.740 F30.000
G0 Z5.000
G0 X5.377 Y14.550 Z5.000
G0 X5.377 Y14.550 Z1.000
G1 X5.377 Y14.550 Z-2.740 F30.000
G1 X6.486 Y14.091 Z-2.740 F30.000
G1 X9.257 Y20.779 Z-2.740 F30.000
G1 X8.148 Y21.239 Z-2.740 F30.000
G1 X5.377 Y14.550 Z-2.740 F30.000
G0 Z5.000
G0 X4.724 Y14.279 Z5.000
G0 X4.724 Y14.279 Z1.000
G1 X4.724 Y14.279 Z-2.740 F30.000
G1 X6.757 Y13.437 Z-2.740 F30.000
G1 X9.910 Y21.050 Z-2.740 F30.000
G1 X7.877 Y21.892 Z-2.740 F30.000
G1 X4.724 Y14.279 Z-2.740 F30.000
G0 Z5.000
G0 Z5.000
(Finish operation: Pocket_Shape023)
(Begin operation: Pocket_Shape024)
(Path: Pocket_Shape024)
(Pocket_Shape024)
G0 Z5.000
G0
G0 X6.887 Y16.365
G0 X6.887 Y16.365 Z-2.000
G1 X6.887 Y16.365 Z-3.500 F30.000
G1 X8.603 Y20.509 Z-3.500 F30.000
G1 X8.418 Y20.585 Z-3.500 F30.000
G1 X6.702 Y16.442 Z-3.500 F30.000
G1 X6.887 Y16.365 Z-3.500 F30.000
G0 Z5.000
G0 X7.158 Y15.712 Z5.000
G0 X7.158 Y15.712 Z-2.000
G1 X7.158 Y15.712 Z-3.500 F30.000
G1 X9.257 Y20.779 Z-3.500 F30.000
G1 X8.148 Y21.239 Z-3.500 F30.000
G1 X6.049 Y16.171 Z-3.500 F30.000
G1 X7.158 Y15.712 Z-3.500 F30.000
G0 Z5.000
G0 X7.428 Y15.059 Z5.000
G0 X7.428 Y15.059 Z-2.000
G1 X7.428 Y15.059 Z-3.500 F30.000
G1 X9.910 Y21.050 Z-3.500 F30.000
G1 X7.877 Y21.892 Z-3.500 F30.000
G1 X5.396 Y15.901 Z-3.500 F30.000
G1 X7.428 Y15.059 Z-3.500 F30.000
G0 Z5.000
G0 X6.887 Y16.365 Z5.000
G0 X6.887 Y16.365 Z-2.000
G1 X6.887 Y16.365 Z-4.500 F30.000
G1 X8.603 Y20.509 Z-4.500 F30.000
G1 X8.418 Y20.585 Z-4.500 F30.000
G1 X6.702 Y16.442 Z-4.500 F30.000
G1 X6.887 Y16.365 Z-4.500 F30.000
G0 Z5.000
G0 X7.158 Y15.712 Z5.000
G0 X7.158 Y15.712 Z-2.000
G1 X7.158 Y15.712 Z-4.500 F30.000
G1 X9.257 Y20.779 Z-4.500 F30.000
G1 X8.148 Y21.239 Z-4.500 F30.000
G1 X6.049 Y16.171 Z-4.500 F30.000
G1 X7.158 Y15.712 Z-4.500 F30.000
G0 Z5.000
G0 X7.428 Y15.059 Z5.000
G0 X7.428 Y15.059 Z-2.000
G1 X7.428 Y15.059 Z-4.500 F30.000
G1 X9.910 Y21.050 Z-4.500 F30.000
G1 X7.877 Y21.892 Z-4.500 F30.000
G1 X5.396 Y15.901 Z-4.500 F30.000
G1 X7.428 Y15.059 Z-4.500 F30.000
G0 Z5.000
G0 Z5.000
(Finish operation: Pocket_Shape024)
(Begin operation: Pocket_Shape025)
(Path: Pocket_Shape025)
(Pocket_Shape025)
G0 Z5.000
G0
G0 X0.100 Y16.000
G0 X0.100 Y16.000 Z1.000
G1 X0.100 Y16.000 Z-1.000 F30.000
G1 X0.100 Y22.240 Z-1.000 F30.000
G1 X-0.100 Y22.240 Z-1.000 F30.000
G1 X-0.100 Y16.000 Z-1.000 F30.000
G1 X0.100 Y16.000 Z-1.000 F30.000
G0 Z5.000
G0 X0.600 Y15.500 Z5.000
G0 X0.600 Y15.500 Z1.000
G1 X0.600 Y15.500 Z-1.000 F30.000
G1 X0.600 Y22.740 Z-1.000 F30.000
G1 X-0.600 Y22.740 Z-1.000 F30.000
G1 X-0.600 Y15.500 Z-1.000 F30.000
G1 X0.600 Y15.500 Z-1.000 F30.000
G0 Z5.000
G0 X1.100 Y15.000 Z5.000
G0 X1.100 Y15.000 Z1.000
G1 X1.100 Y15.000 Z-1.000 F30.000
G1 X1.100 Y23.240 Z-1.000 F30.000
G1 X-1.100 Y23.240 Z-1.000 F30.000
G1 X-1.100 Y15.000 Z-1.000 F30.000
G1 X1.100 Y15.000 Z-1.000 F30.000
G0 Z5.000
G0 X0.100 Y16.000 Z5.000
G0 X0.100 Y16.000 Z1.000
G1 X0.100 Y16.000 Z-2.000 F30.000
G1 X0.100 Y22.240 Z-2.000 F30.000
G1 X-0.100 Y22.240 Z-2.000 F30.000
G1 X-0.100 Y16.000 Z-2.000 F30.000
G1 X0.100 Y16.000 Z-2.000 F30.000
G0 Z5.000
G0 X0.600 Y15.500 Z5.000
G0 X0.600 Y15.500 Z1.000
G1 X0.600 Y15.500 Z-2.000 F30.000
G1 X0.600 Y22.740 Z-2.000 F30.000
G1 X-0.600 Y22.740 Z-2.000 F30.000
G1 X-0.600 Y15.500 Z-2.000 F30.000
G1 X0.600 Y15.500 Z-2.000 F30.000
G0 Z5.000
G0 X1.100 Y15.000 Z5.000
G0 X1.100 Y15.000 Z1.000
G1 X1.100 Y15.000 Z-2.000 F30.000
G1 X1.100 Y23.240 Z-2.000 F30.000
G1 X-1.100 Y23.240 Z-2.000 F30.000
G1 X-1.100 Y15.000 Z-2.000 F30.000
G1 X1.100 Y15.000 Z-2.000 F30.000
G0 Z5.000
G0 X0.100 Y16.000 Z5.000
G0 X0.100 Y16.000 Z1.000
G1 X0.100 Y16.000 Z-2.740 F30.000
G1 X0.100 Y22.240 Z-2.740 F30.000
G1 X-0.100 Y22.240 Z-2.740 F30.000
G1 X-0.100 Y16.000 Z-2.740 F30.000
G1 X0.100 Y16.000 Z-2.740 F30.000
G0 Z5.000
G0 X0.600 Y15.500 Z5.000
G0 X0.600 Y15.500 Z1.000
G1 X0.600 Y15.500 Z-2.740 F30.000
G1 X0.600 Y22.740 Z-2.740 F30.000
G1 X-0.600 Y22.740 Z-2.740 F30.000
G1 X-0.600 Y15.500 Z-2.740 F30.000
G1 X0.600 Y15.500 Z-2.740 F30.000
G0 Z5.000
G0 X1.100 Y15.000 Z5.000
G0 X1.100 Y15.000 Z1.000
G1 X1.100 Y15.000 Z-2.740 F30.000
G1 X1.100 Y23.240 Z-2.740 F30.000
G1 X-1.100 Y23.240 Z-2.740 F30.000
G1 X-1.100 Y15.000 Z-2.740 F30.000
G1 X1.100 Y15.000 Z-2.740 F30.000
G0 Z5.000
G0 Z5.000
(Finish operation: Pocket_Shape025)
(Begin operation: Pocket_Shape026)
(Path: Pocket_Shape026)
(Pocket_Shape026)
G0 Z5.000
G0
G0 X0.100 Y17.755
G0 X0.100 Y17.755 Z-2.000
G1 X0.100 Y17.755 Z-3.500 F30.000
G1 X0.100 Y22.240 Z-3.500 F30.000
G1 X-0.100 Y22.240 Z-3.500 F30.000
G1 X-0.100 Y17.755 Z-3.500 F30.000
G1 X0.100 Y17.755 Z-3.500 F30.000
G0 Z5.000
G0 X0.600 Y17.255 Z5.000
G0 X0.600 Y17.255 Z-2.000
G1 X0.600 Y17.255 Z-3.500 F30.000
G1 X0.600 Y22.740 Z-3.500 F30.000
G1 X-0.600 Y22.740 Z-3.500 F30.000
G1 X-0.600 Y17.255 Z-3.500 F30.000
G1 X0.600 Y17.255 Z-3.500 F30.000
G0 Z5.000
G0 X1.100 Y16.755 Z5.000
G0 X1.100 Y16.755 Z-2.000
G1 X1.100 Y16.755 Z-3.500 F30.000
G1 X1.100 Y23.240 Z-3.500 F30.000
G1 X-1.100 Y23.240 Z-3.500 F30.000
G1 X-1.100 Y16.755 Z-3.500 F30.000
G1 X1.100 Y16.755 Z-3.500 F30.000
G0 Z5.000
G0 X0.100 Y17.755 Z5.000
G0 X0.100 Y17.755 Z-2.000
G1 X0.100 Y17.755 Z-4.500 F30.000
G1 X0.100 Y22.240 Z-4.500 F30.000
G1 X-0.100 Y22.240 Z-4.500 F30.000
G1 X-0.100 Y17.755 Z-4.500 F30.000
G1 X0.100 Y17.755 Z-4.500 F30.000
G0 Z5.000
G0 X0.600 Y17.255 Z5.000
G0 X0.600 Y17.255 Z-2.000
G1 X0.600 Y17.255 Z-4.500 F30.000
G1 X0.600 Y22.740 Z-4.500 F30.000
G1 X-0.600 Y22.740 Z-4.500 F30.000
G1 X-0.600 Y17.255 Z-4.500 F30.000
G1 X0.600 Y17.255 Z-4.500 F30.000
G0 Z5.000
G0 X1.100 Y16.755 Z5.000
G0 X1.100 Y16.755 Z-2.000
G1 X1.100 Y16.755 Z-4.500 F30.000
G1 X1.100 Y23.240 Z-4.500 F30.000
G1 X-1.100 Y23.240 Z-4.500 F30.000
G1 X-1.100 Y16.755 Z-4.500 F30.000
G1 X1.100 Y16.755 Z-4.500 F30.000
G0 Z5.000
G0 Z5.000
(Finish operation: Pocket_Shape026)
(Begin operation: Pocket_Shape028)
(Path: Pocket_Shape028)
(Pocket_Shape028)
G0 Z5.000
G0
G0 X-6.215 Y14.744
G0 X-6.215 Y14.744 Z1.000
G1 X-6.215 Y14.744 Z-1.000 F30.000
G1 X-6.031 Y14.820 Z-1.000 F30.000
G1 X-8.418 Y20.585 Z-1.000 F30.000
G1 X-8.603 Y20.509 Z-1.000 F30.000
G1 X-6.215 Y14.744 Z-1.000 F30.000
G0 Z5.000
G0 X-6.486 Y14.091 Z5.000
G0 X-6.486 Y14.091 Z1.000
G1 X-6.486 Y14.091 Z-1.000 F30.000
G1 X-5.377 Y14.550 Z-1.000 F30.000
G1 X-8.148 Y21.239 Z-1.000 F30.000
G1 X-9.257 Y20.779 Z-1.000 F30.000
G1 X-6.486 Y14.091 Z-1.000 F30.000
G0 Z5.000
G0 X-6.757 Y13.437 Z5.000
G0 X-6.757 Y13.437 Z1.000
G1 X-6.757 Y13.437 Z-1.000 F30.000
G1 X-4.724 Y14.279 Z-1.000 F30.000
G1 X-7.877 Y21.892 Z-1.000 F30.000
G1 X-9.910 Y21.050 Z-1.000 F30.000
G1 X-6.757 Y13.437 Z-1.000 F30.000
G0 Z5.000
G0 X-6.215 Y14.744 Z5.000
G0 X-6.215 Y14.744 Z1.000
G1 X-6.215 Y14.744 Z-2.000 F30.000
G1 X-6.031 Y14.820 Z-2.000 F30.000
G1 X-8.418 Y20.585 Z-2.000 F30.000
G1 X-8.603 Y20.509 Z-2.000 F30.000
G1 X-6.215 Y14.744 Z-2.000 F30.000
G0 Z5.000
G0 X-6.486 Y14.091 Z5.000
G0 X-6.486 Y14.091 Z1.000
G1 X-6.486 Y14.091 Z-2.000 F30.000
G1 X-5.377 Y14.550 Z-2.000 F30.000
G1 X-8.148 Y21.239 Z-2.000 F30.000
G1 X-9.257 Y20.779 Z-2.000 F30.000
G1 X-6.486 Y14.091 Z-2.000 F30.000
G0 Z5.000
G0 X-6.757 Y13.437 Z5.000
G0 X-6.757 Y13.437 Z1.000
G1 X-6.757 Y13.437 Z-2.000 F30.000
G1 X-4.724 Y14.279 Z-2.000 F30.000
G1 X-7.877 Y21.892 Z-2.000 F30.000
G1 X-9.910 Y21.050 Z-2.000 F30.000
G1 X-6.757 Y13.437 Z-2.000 F30.000
G0 Z5.000
G0 X-6.215 Y14.744 Z5.000
G0 X-6.215 Y14.744 Z1.000
G1 X-6.215 Y14.744 Z-2.740 F30.000
G1 X-6.031 Y14.820 Z-2.740 F30.000
G1 X-8.418 Y20.585 Z-2.740 F30.000
G1 X-8.603 Y20.509 Z-2.740 F30.000
G1 X-6.215 Y14.744 Z-2.740 F30.000
G0 Z5.000
G0 X-6.486 Y14.091 Z5.000
G0 X-6.486 Y14.091 Z1.000
G1 X-6.486 Y14.091 Z-2.740 F30.000
G1 X-5.377 Y14.550 Z-2.740 F30.000
G1 X-8.148 Y21.239 Z-2.740 F30.000
G1 X-9.257 Y20.779 Z-2.740 F30.000
G1 X-6.486 Y14.091 Z-2.740 F30.000
G0 Z5.000
G0 X-6.757 Y13.437 Z5.000
G0 X-6.757 Y13.437 Z1.000
G1 X-6.757 Y13.437 Z-2.740 F30.000
G1 X-4.724 Y14.279 Z-2.740 F30.000
G1 X-7.877 Y21.892 Z-2.740 F30.000
G1 X-9.910 Y21.050 Z-2.740 F30.000
G1 X-6.757 Y13.437 Z-2.740 F30.000
G0 Z5.000
G0 Z5.000
(Finish operation: Pocket_Shape028)
(Begin operation: Pocket_Shape029)
(Path: Pocket_Shape029)
(Pocket_Shape029)
G0 Z5.000
G0
G0 X-6.887 Y16.365
G0 X-6.887 Y16.365 Z-2.000
G1 X-6.887 Y16.365 Z-3.500 F30.000
G1 X-6.702 Y16.442 Z-3.500 F30.000
G1 X-8.418 Y20.585 Z-3.500 F30.000
G1 X-8.603 Y20.509 Z-3.500 F30.000
G1 X-6.887 Y16.365 Z-3.500 F30.000
G0 Z5.000
G0 X-7.158 Y15.712 Z5.000
G0 X-7.158 Y15.712 Z-2.000
G1 X-7.158 Y15.712 Z-3.500 F30.000
G1 X-6.049 Y16.171 Z-3.500 F30.000
G1 X-8.148 Y21.239 Z-3.500 F30.000
G1 X-9.257 Y20.779 Z-3.500 F30.000
G1 X-7.158 Y15.712 Z-3.500 F30.000
G0 Z5.000
G0 X-7.428 Y15.059 Z5.000
G0 X-7.428 Y15.059 Z-2.000
G1 X-7.428 Y15.059 Z-3.500 F30.000
G1 X-5.396 Y15.901 Z-3.500 F30.000
G1 X-7.877 Y21.892 Z-3.500 F30.000
G1 X-9.910 Y21.050 Z-3.500 F30.000
G1 X-7.428 Y15.059 Z-3.500 F30.000
G0 Z5.000
G0 X-6.887 Y16.365 Z5.000
G0 X-6.887 Y16.365 Z-2.000
G1 X-6.887 Y16.365 Z-4.500 F30.000
G1 X-6.702 Y16.442 Z-4.500 F30.000
G1 X-8.418 Y20.585 Z-4.500 F30.000
G1 X-8.603 Y20.509 Z-4.500 F30.000
G1 X-6.887 Y16.365 Z-4.500 F30.000
G0 Z5.000
G0 X-7.158 Y15.712 Z5.000
G0 X-7.158 Y15.712 Z-2.000
G1 X-7.158 Y15.712 Z-4.500 F30.000
G1 X-6.049 Y16.171 Z-4.500 F30.000
G1 X-8.148 Y21.239 Z-4.500 F30.000
G1 X-9.257 Y20.779 Z-4.500 F30.000
G1 X-7.158 Y15.712 Z-4.500 F30.000
G0 Z5.000
G0 X-7.428 Y15.059 Z5.000
G0 X-7.428 Y15.059 Z-2.000
G1 X-7.428 Y15.059 Z-4.500 F30.000
G1 X-5.396 Y15.901 Z-4.500 F30.000
G1 X-7.877 Y21.892 Z-4.500 F30.000
G1 X-9.910 Y21.050 Z-4.500 F30.000
G1 X-7.428 Y15.059 Z-4.500 F30.000
G0 Z5.000
G0 Z5.000
(Finish operation: Pocket_Shape029)
(Begin operation: Pocket_Shape030)
(Path: Pocket_Shape030)
(Pocket_Shape030)
G0 Z5.000
G0
G0 X-11.384 Y11.243
G0 X-11.384 Y11.243 Z1.000
G1 X-11.384 Y11.243 Z-1.000 F30.000
G1 X-11.243 Y11.384 Z-1.000 F30.000
G1 X-15.655 Y15.797 Z-1.000 F30.000
G1 X-15.797 Y15.655 Z-1.000 F30.000
G1 X-11.384 Y11.243 Z-1.000 F30.000
G0 Z5.000
G0 Y10.536 Z5.000
G0 Y10.536 Z1.000
G1 X-11.384 Y10.536 Z-1.000 F30.000
G1 X-10.536 Y11.384 Z-1.000 F30.000
G1 X-15.655 Y16.504 Z-1.000 F30.000
G1 X-16.504 Y15.655 Z-1.000 F30.000
G1 X-11.384 Y10.536 Z-1.000 F30.000
G0 Z5.000
G0 Y9.829 Z5.000
G0 Y9.829 Z1.000
G1 X-11.384 Y9.829 Z-1.000 F30.000
G1 X-9.829 Y11.384 Z-1.000 F30.000
G1 X-15.655 Y17.211 Z-1.000 F30.000
G1 X-17.211 Y15.655 Z-1.000 F30.000
G1 X-11.384 Y9.829 Z-1.000 F30.000
G0 Z5.000
G0 Y11.243 Z5.000
G0 Y11.243 Z1.000
G1 X-11.384 Y11.243 Z-2.000 F30.000
G1 X-11.243 Y11.384 Z-2.000 F30.000
G1 X-15.655 Y15.797 Z-2.000 F30.000
G1 X-15.797 Y15.655 Z-2.000 F30.000
G1 X-11.384 Y11.243 Z-2.000 F30.000
G0 Z5.000
G0 Y10.536 Z5.000
G0 Y10.536 Z1.000
G1 X-11.384 Y10.536 Z-2.000 F30.000
G1 X-10.536 Y11.384 Z-2.000 F30.000
G1 X-15.655 Y16.504 Z-2.000 F30.000
G1 X-16.504 Y15.655 Z-2.000 F30.000
G1 X-11.384 Y10.536 Z-2.000 F30.000
G0 Z5.000
G0 Y9.829 Z5.000
G0 Y9.829 Z1.000
G1 X-11.384 Y9.829 Z-2.000 F30.000
G1 X-9.829 Y11.384 Z-2.000 F30.000
G1 X-15.655 Y17.211 Z-2.000 F30.000
G1 X-17.211 Y15.655 Z-2.000 F30.000
G1 X-11.384 Y9.829 Z-2.000 F30.000
G0 Z5.000
G0 Y11.243 Z5.000
G0 Y11.243 Z1.000
G1 X-11.384 Y11.243 Z-2.740 F30.000
G1 X-11.243 Y11.384 Z-2.740 F30.000
G1 X-15.655 Y15.797 Z-2.740 F30.000
G1 X-15.797 Y15.655 Z-2.740 F30.000
G1 X-11.384 Y11.243 Z-2.740 F30.000
G0 Z5.000
G0 Y10.536 Z5.000
G0 Y10.536 Z1.000
G1 X-11.384 Y10.536 Z-2.740 F30.000
G1 X-10.536 Y11.384 Z-2.740 F30.000
G1 X-15.655 Y16.504 Z-2.740 F30.000
G1 X-16.504 Y15.655 Z-2.740 F30.000
G1 X-11.384 Y10.536 Z-2.740 F30.000
G0 Z5.000
G0 Y9.829 Z5.000
G0 Y9.829 Z1.000
G1 X-11.384 Y9.829 Z-2.740 F30.000
G1 X-9.829 Y11.384 Z-2.740 F30.000
G1 X-15.655 Y17.211 Z-2.740 F30.000
G1 X-17.211 Y15.655 Z-2.740 F30.000
G1 X-11.384 Y9.829 Z-2.740 F30.000
G0 Z5.000
G0 Z5.000
(Finish operation: Pocket_Shape030)
(Begin operation: Pocket_Shape031)
(Path: Pocket_Shape031)
(Pocket_Shape031)
G0 Z5.000
G0
G0 X-12.625 Y12.484
G0 X-12.625 Y12.484 Z-2.000
G1 X-12.625 Y12.484 Z-3.500 F30.000
G1 X-12.484 Y12.625 Z-3.500 F30.000
G1 X-15.655 Y15.797 Z-3.500 F30.000
G1 X-15.797 Y15.655 Z-3.500 F30.000
G1 X-12.625 Y12.484 Z-3.500 F30.000
G0 Z5.000
G0 Y11.777 Z5.000
G0 Y11.777 Z-2.000
G1 X-12.625 Y11.777 Z-3.500 F30.000
G1 X-11.777 Y12.625 Z-3.500 F30.000
G1 X-15.655 Y16.504 Z-3.500 F30.000
G1 X-16.504 Y15.655 Z-3.500 F30.000
G1 X-12.625 Y11.777 Z-3.500 F30.000
G0 Z5.000
G0 Y11.070 Z5.000
G0 Y11.070 Z-2.000
G1 X-12.625 Y11.070 Z-3.500 F30.000
G1 X-11.070 Y12.625 Z-3.500 F30.000
G1 X-15.655 Y17.211 Z-3.500 F30.000
G1 X-17.211 Y15.655 Z-3.500 F30.000
G1 X-12.625 Y11.070 Z-3.500 F30.000
G0 Z5.000
G0 Y12.484 Z5.000
G0 Y12.484 Z-2.000
G1 X-12.625 Y12.484 Z-4.500 F30.000
G1 X-12.484 Y12.625 Z-4.500 F30.000
G1 X-15.655 Y15.797 Z-4.500 F30.000
G1 X-15.797 Y15.655 Z-4.500 F30.000
G1 X-12.625 Y12.484 Z-4.500 F30.000
G0 Z5.000
G0 Y11.777 Z5.000
G0 Y11.777 Z-2.000
G1 X-12.625 Y11.777 Z-4.500 F30.000
G1 X-11.777 Y12.625 Z-4.500 F30.000
G1 X-15.655 Y16.504 Z-4.500 F30.000
G1 X-16.504 Y15.655 Z-4.500 F30.000
G1 X-12.625 Y11.777 Z-4.500 F30.000
G0 Z5.000
G0 Y11.070 Z5.000
G0 Y11.070 Z-2.000
G1 X-12.625 Y11.070 Z-4.500 F30.000
G1 X-11.070 Y12.625 Z-4.500 F30.000
G1 X-15.655 Y17.211 Z-4.500 F30.000
G1 X-17.211 Y15.655 Z-4.500 F30.000
G1 X-12.625 Y11.070 Z-4.500 F30.000
G0 Z5.000
G0 Z5.000
(Finish operation: Pocket_Shape031)
(Begin operation: Pocket_Shape032)
(Path: Pocket_Shape032)
(Pocket_Shape032)
G0 Z5.000
G0
G0 X-14.820 Y6.031
G0 X-14.820 Y6.031 Z1.000
G1 X-14.820 Y6.031 Z-1.000 F30.000
G1 X-14.744 Y6.215 Z-1.000 F30.000
G1 X-20.509 Y8.603 Z-1.000 F30.000
G1 X-20.585 Y8.418 Z-1.000 F30.000
G1 X-14.820 Y6.031 Z-1.000 F30.000
G0 Z5.000
G0 X-14.550 Y5.377 Z5.000
G0 X-14.550 Y5.377 Z1.000
G1 X-14.550 Y5.377 Z-1.000 F30.000
G1 X-14.091 Y6.486 Z-1.000 F30.000
G1 X-20.779 Y9.257 Z-1.000 F30.000
G1 X-21.239 Y8.148 Z-1.000 F30.000
G1 X-14.550 Y5.377 Z-1.000 F30.000
G0 Z5.000
G0 X-14.279 Y4.724 Z5.000
G0 X-14.279 Y4.724 Z1.000
G1 X-14.279 Y4.724 Z-1.000 F30.000
G1 X-13.437 Y6.757 Z-1.000 F30.000
G1 X-21.050 Y9.910 Z-1.000 F30.000
G1 X-21.892 Y7.877 Z-1.000 F30.000
G1 X-14.279 Y4.724 Z-1.000 F30.000
G0 Z5.000
G0 X-14.820 Y6.031 Z5.000
G0 X-14.820 Y6.031 Z1.000
G1 X-14.820 Y6.031 Z-2.000 F30.000
G1 X-14.744 Y6.215 Z-2.000 F30.000
G1 X-20.509 Y8.603 Z-2.000 F30.000
G1 X-20.585 Y8.418 Z-2.000 F30.000
G1 X-14.820 Y6.031 Z-2.000 F30.000
G0 Z5.000
G0 X-14.550 Y5.377 Z5.000
G0 X-14.550 Y5.377 Z1.000
G1 X-14.550 Y5.377 Z-2.000 F30.000
G1 X-14.091 Y6.486 Z-2.000 F30.000
G1 X-20.779 Y9.257 Z-2.000 F30.000
G1 X-21.239 Y8.148 Z-2.000 F30.000
G1 X-14.550 Y5.377 Z-2.000 F30.000
G0 Z5.000
G0 X-14.279 Y4.724 Z5.000
G0 X-14.279 Y4.724 Z1.000
G1 X-14.279 Y4.724 Z-2.000 F30.000
G1 X-13.437 Y6.757 Z-2.000 F30.000
G1 X-21.050 Y9.910 Z-2.000 F30.000
G1 X-21.892 Y7.877 Z-2.000 F30.000
G1 X-14.279 Y4.724 Z-2.000 F30.000
G0 Z5.000
G0 X-14.820 Y6.031 Z5.000
G0 X-14.820 Y6.031 Z1.000
G1 X-14.820 Y6.031 Z-2.740 F30.000
G1 X-14.744 Y6.215 Z-2.740 F30.000
G1 X-20.509 Y8.603 Z-2.740 F30.000
G1 X-20.585 Y8.418 Z-2.740 F30.000
G1 X-14.820 Y6.031 Z-2.740 F30.000
G0 Z5.000
G0 X-14.550 Y5.377 Z5.000
G0 X-14.550 Y5.377 Z1.000
G1 X-14.550 Y5.377 Z-2.740 F30.000
G1 X-14.091 Y6.486 Z-2.740 F30.000
G1 X-20.779 Y9.257 Z-2.740 F30.000
G1 X-21.239 Y8.148 Z-2.740 F30.000
G1 X-14.550 Y5.377 Z-2.740 F30.000
G0 Z5.000
G0 X-14.279 Y4.724 Z5.000
G0 X-14.279 Y4.724 Z1.000
G1 X-14.279 Y4.724 Z-2.740 F30.000
G1 X-13.437 Y6.757 Z-2.740 F30.000
G1 X-21.050 Y9.910 Z-2.740 F30.000
G1 X-21.892 Y7.877 Z-2.740 F30.000
G1 X-14.279 Y4.724 Z-2.740 F30.000
G0 Z5.000
G0 Z5.000
(Finish operation: Pocket_Shape032)
(Begin operation: Pocket_Shape033)
(Path: Pocket_Shape033)
(Pocket_Shape033)
G0 Z5.000
G0
G0 X-16.442 Y6.702
G0 X-16.442 Y6.702 Z-2.000
G1 X-16.442 Y6.702 Z-3.500 F30.000
G1 X-16.365 Y6.887 Z-3.500 F30.000
G1 X-20.509 Y8.603 Z-3.500 F30.000
G1 X-20.585 Y8.418 Z-3.500 F30.000
G1 X-16.442 Y6.702 Z-3.500 F30.000
G0 Z5.000
G0 X-16.171 Y6.049 Z5.000
G0 X-16.171 Y6.049 Z-2.000
G1 X-16.171 Y6.049 Z-3.500 F30.000
G1 X-15.712 Y7.158 Z-3.500 F30.000
G1 X-20.779 Y9.257 Z-3.500 F30.000
G1 X-21.239 Y8.148 Z-3.500 F30.000
G1 X-16.171 Y6.049 Z-3.500 F30.000
G0 Z5.000
G0 X-15.901 Y5.396 Z5.000
G0 X-15.901 Y5.396 Z-2.000
G1 X-15.901 Y5.396 Z-3.500 F30.000
G1 X-15.059 Y7.428 Z-3.500 F30.000
G1 X-21.050 Y9.910 Z-3.500 F30.000
G1 X-21.892 Y7.877 Z-3.500 F30.000
G1 X-15.901 Y5.396 Z-3.500 F30.000
G0 Z5.000
G0 X-16.442 Y6.702 Z5.000
G0 X-16.442 Y6.702 Z-2.000
G1 X-16.442 Y6.702 Z-4.500 F30.000
G1 X-16.365 Y6.887 Z-4.500 F30.000
G1 X-20.509 Y8.603 Z-4.500 F30.000
G1 X-20.585 Y8.418 Z-4.500 F30.000
G1 X-16.442 Y6.702 Z-4.500 F30.000
G0 Z5.000
G0 X-16.171 Y6.049 Z5.000
G0 X-16.171 Y6.049 Z-2.000
G1 X-16.171 Y6.049 Z-4.500 F30.000
G1 X-15.712 Y7.158 Z-4.500 F30.000
G1 X-20.779 Y9.257 Z-4.500 F30.000
G1 X-21.239 Y8.148 Z-4.500 F30.000
G1 X-16.171 Y6.049 Z-4.500 F30.000
G0 Z5.000
G0 X-15.901 Y5.396 Z5.000
G0 X-15.901 Y5.396 Z-2.000
G1 X-15.901 Y5.396 Z-4.500 F30.000
G1 X-15.059 Y7.428 Z-4.500 F30.000
G1 X-21.050 Y9.910 Z-4.500 F30.000
G1 X-21.892 Y7.877 Z-4.500 F30.000
G1 X-15.901 Y5.396 Z-4.500 F30.000
G0 Z5.000
G0 Z5.000
(Finish operation: Pocket_Shape033)
(Begin operation: Pocket_Shape034)
(Path: Pocket_Shape034)
(Pocket_Shape034)
G0 Z5.000
G0
G0 X-16.000 Y-0.100
G0 X-16.000 Y-0.100 Z1.000
G1 X-16.000 Y-0.100 Z-1.000 F30.000
G1 X-16.000 Y0.100 Z-1.000 F30.000
G1 X-22.240 Y0.100 Z-1.000 F30.000
G1 X-22.240 Y-0.100 Z-1.000 F30.000
G1 X-16.000 Y-0.100 Z-1.000 F30.000
G0 Z5.000
G0 X-15.500 Y-0.600 Z5.000
G0 X-15.500 Y-0.600 Z1.000
G1 X-15.500 Y-0.600 Z-1.000 F30.000
G1 X-15.500 Y0.600 Z-1.000 F30.000
G1 X-22.740 Y0.600 Z-1.000 F30.000
G1 X-22.740 Y-0.600 Z-1.000 F30.000
G1 X-15.500 Y-0.600 Z-1.000 F30.000
G0 Z5.000
G0 X-15.000 Y-1.100 Z5.000
G0 X-15.000 Y-1.100 Z1.000
G1 X-15.000 Y-1.100 Z-1.000 F30.000
G1 X-15.000 Y1.100 Z-1.000 F30.000
G1 X-23.240 Y1.100 Z-1.000 F30.000
G1 X-23.240 Y-1.100 Z-1.000 F30.000
G1 X-15.000 Y-1.100 Z-1.000 F30.000
G0 Z5.000
G0 X-16.000 Y-0.100 Z5.000
G0 X-16.000 Y-0.100 Z1.000
G1 X-16.000 Y-0.100 Z-2.000 F30.000
G1 X-16.000 Y0.100 Z-2.000 F30.000
G1 X-22.240 Y0.100 Z-2.000 F30.000
G1 X-22.240 Y-0.100 Z-2.000 F30.000
G1 X-16.000 Y-0.100 Z-2.000 F30.000
G0 Z5.000
G0 X-15.500 Y-0.600 Z5.000
G0 X-15.500 Y-0.600 Z1.000
G1 X-15.500 Y-0.600 Z-2.000 F30.000
G1 X-15.500 Y0.600 Z-2.000 F30.000
G1 X-22.740 Y0.600 Z-2.000 F30.000
G1 X-22.740 Y-0.600 Z-2.000 F30.000
G1 X-15.500 Y-0.600 Z-2.000 F30.000
G0 Z5.000
G0 X-15.000 Y-1.100 Z5.000
G0 X-15.000 Y-1.100 Z1.000
G1 X-15.000 Y-1.100 Z-2.000 F30.000
G1 X-15.000 Y1.100 Z-2.000 F30.000
G1 X-23.240 Y1.100 Z-2.000 F30.000
G1 X-23.240 Y-1.100 Z-2.000 F30.000
G1 X-15.000 Y-1.100 Z-2.000 F30.000
G0 Z5.000
G0 X-16.000 Y-0.100 Z5.000
G0 X-16.000 Y-0.100 Z1.000
G1 X-16.000 Y-0.100 Z-2.740 F30.000
G1 X-16.000 Y0.100 Z-2.740 F30.000
G1 X-22.240 Y0.100 Z-2.740 F30.000
G1 X-22.240 Y-0.100 Z-2.740 F30.000
G1 X-16.000 Y-0.100 Z-2.740 F30.000
G0 Z5.000
G0 X-15.500 Y-0.600 Z5.000
G0 X-15.500 Y-0.600 Z1.000
G1 X-15.500 Y-0.600 Z-2.740 F30.000
G1 X-15.500 Y0.600 Z-2.740 F30.000
G1 X-22.740 Y0.600 Z-2.740 F30.000
G1 X-22.740 Y-0.600 Z-2.740 F30.000
G1 X-15.500 Y-0.600 Z-2.740 F30.000
G0 Z5.000
G0 X-15.000 Y-1.100 Z5.000
G0 X-15.000 Y-1.100 Z1.000
G1 X-15.000 Y-1.100 Z-2.740 F30.000
G1 X-15.000 Y1.100 Z-2.740 F30.000
G1 X-23.240 Y1.100 Z-2.740 F30.000
G1 X-23.240 Y-1.100 Z-2.740 F30.000
G1 X-15.000 Y-1.100 Z-2.740 F30.000
G0 Z5.000
G0 Z5.000
(Finish operation: Pocket_Shape034)
(Begin operation: Pocket_Shape035)
(Path: Pocket_Shape035)
(Pocket_Shape035)
G0 Z5.000
G0
G0 X-17.755 Y-0.100
G0 X-17.755 Y-0.100 Z-2.000
G1 X-17.755 Y-0.100 Z-3.500 F30.000
G1 X-17.755 Y0.100 Z-3.500 F30.000
G1 X-22.240 Y0.100 Z-3.500 F30.000
G1 X-22.240 Y-0.100 Z-3.500 F30.000
G1 X-17.755 Y-0.100 Z-3.500 F30.000
G0 Z5.000
G0 X-17.255 Y-0.600 Z5.000
G0 X-17.255 Y-0.600 Z-2.000
G1 X-17.255 Y-0.600 Z-3.500 F30.000
G1 X-17.255 Y0.600 Z-3.500 F30.000
G1 X-22.740 Y0.600 Z-3.500 F30.000
G1 X-22.740 Y-0.600 Z-3.500 F30.000
G1 X-17.255 Y-0.600 Z-3.500 F30.000
G0 Z5.000
G0 X-16.755 Y-1.100 Z5.000
G0 X-16.755 Y-1.100 Z-2.000
G1 X-16.755 Y-1.100 Z-3.500 F30.000
G1 X-16.755 Y1.100 Z-3.500 F30.000
G1 X-23.240 Y1.100 Z-3.500 F30.000
G1 X-23.240 Y-1.100 Z-3.500 F30.000
G1 X-16.755 Y-1.100 Z-3.500 F30.000
G0 Z5.000
G0 X-17.755 Y-0.100 Z5.000
G0 X-17.755 Y-0.100 Z-2.000
G1 X-17.755 Y-0.100 Z-4.500 F30.000
G1 X-17.755 Y0.100 Z-4.500 F30.000
G1 X-22.240 Y0.100 Z-4.500 F30.000
G1 X-22.240 Y-0.100 Z-4.500 F30.000
G1 X-17.755 Y-0.100 Z-4.500 F30.000
G0 Z5.000
G0 X-17.255 Y-0.600 Z5.000
G0 X-17.255 Y-0.600 Z-2.000
G1 X-17.255 Y-0.600 Z-4.500 F30.000
G1 X-17.255 Y0.600 Z-4.500 F30.000
G1 X-22.740 Y0.600 Z-4.500 F30.000
G1 X-22.740 Y-0.600 Z-4.500 F30.000
G1 X-17.255 Y-0.600 Z-4.500 F30.000
G0 Z5.000
G0 X-16.755 Y-1.100 Z5.000
G0 X-16.755 Y-1.100 Z-2.000
G1 X-16.755 Y-1.100 Z-4.500 F30.000
G1 X-16.755 Y1.100 Z-4.500 F30.000
G1 X-23.240 Y1.100 Z-4.500 F30.000
G1 X-23.240 Y-1.100 Z-4.500 F30.000
G1 X-16.755 Y-1.100 Z-4.500 F30.000
G0 Z5.000
G0 Z5.000
(Finish operation: Pocket_Shape035)
(Begin operation: Pocket_Shape036)
(Path: Pocket_Shape036)
(Pocket_Shape036)
G0 Z5.000
G0
G0 X-20.509 Y-8.603
G0 X-20.509 Y-8.603 Z1.000
G1 X-20.509 Y-8.603 Z-1.000 F30.000
G1 X-14.744 Y-6.215 Z-1.000 F30.000
G1 X-14.820 Y-6.031 Z-1.000 F30.000
G1 X-20.585 Y-8.418 Z-1.000 F30.000
G1 X-20.509 Y-8.603 Z-1.000 F30.000
G0 Z5.000
G0 X-21.239 Y-8.148 Z5.000
G0 X-21.239 Y-8.148 Z1.000
G1 X-21.239 Y-8.148 Z-1.000 F30.000
G1 X-20.779 Y-9.257 Z-1.000 F30.000
G1 X-14.091 Y-6.486 Z-1.000 F30.000
G1 X-14.550 Y-5.377 Z-1.000 F30.000
G1 X-21.239 Y-8.148 Z-1.000 F30.000
G0 Z5.000
G0 X-21.892 Y-7.877 Z5.000
G0 X-21.892 Y-7.877 Z1.000
G1 X-21.892 Y-7.877 Z-1.000 F30.000
G1 X-21.050 Y-9.910 Z-1.000 F30.000
G1 X-13.437 Y-6.757 Z-1.000 F30.000
G1 X-14.279 Y-4.724 Z-1.000 F30.000
G1 X-21.892 Y-7.877 Z-1.000 F30.000
G0 Z5.000
G0 X-20.509 Y-8.603 Z5.000
G0 X-20.509 Y-8.603 Z1.000
G1 X-20.509 Y-8.603 Z-2.000 F30.000
G1 X-14.744 Y-6.215 Z-2.000 F30.000
G1 X-14.820 Y-6.031 Z-2.000 F30.000
G1 X-20.585 Y-8.418 Z-2.000 F30.000
G1 X-20.509 Y-8.603 Z-2.000 F30.000
G0 Z5.000
G0 X-21.239 Y-8.148 Z5.000
G0 X-21.239 Y-8.148 Z1.000
G1 X-21.239 Y-8.148 Z-2.000 F30.000
G1 X-20.779 Y-9.257 Z-2.000 F30.000
G1 X-14.091 Y-6.486 Z-2.000 F30.000
G1 X-14.550 Y-5.377 Z-2.000 F30.000
G1 X-21.239 Y-8.148 Z-2.000 F30.000
G0 Z5.000
G0 X-21.892 Y-7.877 Z5.000
G0 X-21.892 Y-7.877 Z1.000
G1 X-21.892 Y-7.877 Z-2.000 F30.000
G1 X-21.050 Y-9.910 Z-2.000 F30.000
G1 X-13.437 Y-6.757 Z-2.000 F30.000
G1 X-14.279 Y-4.724 Z-2.000 F30.000
G1 X-21.892 Y-7.877 Z-2.000 F30.000
G0 Z5.000
G0 X-20.509 Y-8.603 Z5.000
G0 X-20.509 Y-8.603 Z1.000
G1 X-20.509 Y-8.603 Z-2.740 F30.000
G1 X-14.744 Y-6.215 Z-2.740 F30.000
G1 X-14.820 Y-6.031 Z-2.740 F30.000
G1 X-20.585 Y-8.418 Z-2.740 F30.000
G1 X-20.509 Y-8.603 Z-2.740 F30.000
G0 Z5.000
G0 X-21.239 Y-8.148 Z5.000
G0 X-21.239 Y-8.148 Z1.000
G1 X-21.239 Y-8.148 Z-2.740 F30.000
G1 X-20.779 Y-9.257 Z-2.740 F30.000
G1 X-14.091 Y-6.486 Z-2.740 F30.000
G1 X-14.550 Y-5.377 Z-2.740 F30.000
G1 X-21.239 Y-8.148 Z-2.740 F30.000
G0 Z5.000
G0 X-21.892 Y-7.877 Z5.000
G0 X-21.892 Y-7.877 Z1.000
G1 X-21.892 Y-7.877 Z-2.740 F30.000
G1 X-21.050 Y-9.910 Z-2.740 F30.000
G1 X-13.437 Y-6.757 Z-2.740 F30.000
G1 X-14.279 Y-4.724 Z-2.740 F30.000
G1 X-21.892 Y-7.877 Z-2.740 F30.000
G0 Z5.000
G0 Z5.000
(Finish operation: Pocket_Shape036)
(Begin operation: Pocket_Shape037)
(Path: Pocket_Shape037)
(Pocket_Shape037)
G0 Z5.000
G0
G0 X-20.509 Y-8.603
G0 X-20.509 Y-8.603 Z-2.000
G1 X-20.509 Y-8.603 Z-3.500 F30.000
G1 X-16.365 Y-6.887 Z-3.500 F30.000
G1 X-16.442 Y-6.702 Z-3.500 F30.000
G1 X-20.585 Y-8.418 Z-3.500 F30.000
G1 X-20.509 Y-8.603 Z-3.500 F30.000
G0 Z5.000
G0 X-20.779 Y-9.257 Z5.000
G0 X-20.779 Y-9.257 Z-2.000
G1 X-20.779 Y-9.257 Z-3.500 F30.000
G1 X-15.712 Y-7.158 Z-3.500 F30.000
G1 X-16.171 Y-6.049 Z-3.500 F30.000
G1 X-21.239 Y-8.148 Z-3.500 F30.000
G1 X-20.779 Y-9.257 Z-3.500 F30.000
G0 Z5.000
G0 X-21.050 Y-9.910 Z5.000
G0 X-21.050 Y-9.910 Z-2.000
G1 X-21.050 Y-9.910 Z-3.500 F30.000
G1 X-15.059 Y-7.428 Z-3.500 F30.000
G1 X-15.901 Y-5.396 Z-3.500 F30.000
G1 X-21.892 Y-7.877 Z-3.500 F30.000
G1 X-21.050 Y-9.910 Z-3.500 F30.000
G0 Z5.000
G0 X-20.509 Y-8.603 Z5.000
G0 X-20.509 Y-8.603 Z-2.000
G1 X-20.509 Y-8.603 Z-4.500 F30.000
G1 X-16.365 Y-6.887 Z-4.500 F30.000
G1 X-16.442 Y-6.702 Z-4.500 F30.000
G1 X-20.585 Y-8.418 Z-4.500 F30.000
G1 X-20.509 Y-8.603 Z-4.500 F30.000
G0 Z5.000
G0 X-20.779 Y-9.257 Z5.000
G0 X-20.779 Y-9.257 Z-2.000
G1 X-20.779 Y-9.257 Z-4.500 F30.000
G1 X-15.712 Y-7.158 Z-4.500 F30.000
G1 X-16.171 Y-6.049 Z-4.500 F30.000
G1 X-21.239 Y-8.148 Z-4.500 F30.000
G1 X-20.779 Y-9.257 Z-4.500 F30.000
G0 Z5.000
G0 X-21.050 Y-9.910 Z5.000
G0 X-21.050 Y-9.910 Z-2.000
G1 X-21.050 Y-9.910 Z-4.500 F30.000
G1 X-15.059 Y-7.428 Z-4.500 F30.000
G1 X-15.901 Y-5.396 Z-4.500 F30.000
G1 X-21.892 Y-7.877 Z-4.500 F30.000
G1 X-21.050 Y-9.910 Z-4.500 F30.000
G0 Z5.000
G0 Z5.000
(Finish operation: Pocket_Shape037)
(Begin operation: Pocket_Shape038)
(Path: Pocket_Shape038)
(Pocket_Shape038)
G0 Z5.000
G0
G0 X-15.655 Y-15.797
G0 X-15.655 Y-15.797 Z1.000
G1 X-15.655 Y-15.797 Z-1.000 F30.000
G1 X-11.243 Y-11.384 Z-1.000 F30.000
G1 X-11.384 Y-11.243 Z-1.000 F30.000
G1 X-15.797 Y-15.655 Z-1.000 F30.000
G1 X-15.655 Y-15.797 Z-1.000 F30.000
G0 Z5.000
G0 Y-16.504 Z5.000
G0 Y-16.504 Z1.000
G1 X-15.655 Y-16.504 Z-1.000 F30.000
G1 X-10.536 Y-11.384 Z-1.000 F30.000
G1 X-11.384 Y-10.536 Z-1.000 F30.000
G1 X-16.504 Y-15.655 Z-1.000 F30.000
G1 X-15.655 Y-16.504 Z-1.000 F30.000
G0 Z5.000
G0 Y-17.211 Z5.000
G0 Y-17.211 Z1.000
G1 X-15.655 Y-17.211 Z-1.000 F30.000
G1 X-9.829 Y-11.384 Z-1.000 F30.000
G1 X-11.384 Y-9.829 Z-1.000 F30.000
G1 X-17.211 Y-15.655 Z-1.000 F30.000
G1 X-15.655 Y-17.211 Z-1.000 F30.000
G0 Z5.000
G0 Y-15.797 Z5.000
G0 Y-15.797 Z1.000
G1 X-15.655 Y-15.797 Z-2.000 F30.000
G1 X-11.243 Y-11.384 Z-2.000 F30.000
G1 X-11.384 Y-11.243 Z-2.000 F30.000
G1 X-15.797 Y-15.655 Z-2.000 F30.000
G1 X-15.655 Y-15.797 Z-2.000 F30.000
G0 Z5.000
G0 Y-16.504 Z5.000
G0 Y-16.504 Z1.000
G1 X-15.655 Y-16.504 Z-2.000 F30.000
G1 X-10.536 Y-11.384 Z-2.000 F30.000
G1 X-11.384 Y-10.536 Z-2.000 F30.000
G1 X-16.504 Y-15.655 Z-2.000 F30.000
G1 X-15.655 Y-16.504 Z-2.000 F30.000
G0 Z5.000
G0 Y-17.211 Z5.000
G0 Y-17.211 Z1.000
G1 X-15.655 Y-17.211 Z-2.000 F30.000
G1 X-9.829 Y-11.384 Z-2.000 F30.000
G1 X-11.384 Y-9.829 Z-2.000 F30.000
G1 X-17.211 Y-15.655 Z-2.000 F30.000
G1 X-15.655 Y-17.211 Z-2.000 F30.000
G0 Z5.000
G0 Y-15.797 Z5.000
G0 Y-15.797 Z1.000
G1 X-15.655 Y-15.797 Z-2.740 F30.000
G1 X-11.243 Y-11.384 Z-2.740 F30.000
G1 X-11.384 Y-11.243 Z-2.740 F30.000
G1 X-15.797 Y-15.655 Z-2.740 F30.000
G1 X-15.655 Y-15.797 Z-2.740 F30.000
G0 Z5.000
G0 Y-16.504 Z5.000
G0 Y-16.504 Z1.000
G1 X-15.655 Y-16.504 Z-2.740 F30.000
G1 X-10.536 Y-11.384 Z-2.740 F30.000
G1 X-11.384 Y-10.536 Z-2.740 F30.000
G1 X-16.504 Y-15.655 Z-2.740 F30.000
G1 X-15.655 Y-16.504 Z-2.740 F30.000
G0 Z5.000
G0 Y-17.211 Z5.000
G0 Y-17.211 Z1.000
G1 X-15.655 Y-17.211 Z-2.740 F30.000
G1 X-9.829 Y-11.384 Z-2.740 F30.000
G1 X-11.384 Y-9.829 Z-2.740 F30.000
G1 X-17.211 Y-15.655 Z-2.740 F30.000
G1 X-15.655 Y-17.211 Z-2.740 F30.000
G0 Z5.000
G0 Z5.000
(Finish operation: Pocket_Shape038)
(Begin operation: Pocket_Shape039)
(Path: Pocket_Shape039)
(Pocket_Shape039)
G0 Z5.000
G0
G0 X-15.655 Y-15.797
G0 X-15.655 Y-15.797 Z-2.000
G1 X-15.655 Y-15.797 Z-3.500 F30.000
G1 X-12.484 Y-12.625 Z-3.500 F30.000
G1 X-12.625 Y-12.484 Z-3.500 F30.000
G1 X-15.797 Y-15.655 Z-3.500 F30.000
G1 X-15.655 Y-15.797 Z-3.500 F30.000
G0 Z5.000
G0 Y-16.504 Z5.000
G0 Y-16.504 Z-2.000
G1 X-15.655 Y-16.504 Z-3.500 F30.000
G1 X-11.777 Y-12.625 Z-3.500 F30.000
G1 X-12.625 Y-11.777 Z-3.500 F30.000
G1 X-16.504 Y-15.655 Z-3.500 F30.000
G1 X-15.655 Y-16.504 Z-3.500 F30.000
G0 Z5.000
G0 Y-17.211 Z5.000
G0 Y-17.211 Z-2.000
G1 X-15.655 Y-17.211 Z-3.500 F30.000
G1 X-11.070 Y-12.625 Z-3.500 F30.000
G1 X-12.625 Y-11.070 Z-3.500 F30.000
G1 X-17.211 Y-15.655 Z-3.500 F30.000
G1 X-15.655 Y-17.211 Z-3.500 F30.000
G0 Z5.000
G0 Y-15.797 Z5.000
G0 Y-15.797 Z-2.000
G1 X-15.655 Y-15.797 Z-4.500 F30.000
G1 X-12.484 Y-12.625 Z-4.500 F30.000
G1 X-12.625 Y-12.484 Z-4.500 F30.000
G1 X-15.797 Y-15.655 Z-4.500 F30.000
G1 X-15.655 Y-15.797 Z-4.500 F30.000
G0 Z5.000
G0 Y-16.504 Z5.000
G0 Y-16.504 Z-2.000
G1 X-15.655 Y-16.504 Z-4.500 F30.000
G1 X-11.777 Y-12.625 Z-4.500 F30.000
G1 X-12.625 Y-11.777 Z-4.500 F30.000
G1 X-16.504 Y-15.655 Z-4.500 F30.000
G1 X-15.655 Y-16.504 Z-4.500 F30.000
G0 Z5.000
G0 Y-17.211 Z5.000
G0 Y-17.211 Z-2.000
G1 X-15.655 Y-17.211 Z-4.500 F30.000
G1 X-11.070 Y-12.625 Z-4.500 F30.000
G1 X-12.625 Y-11.070 Z-4.500 F30.000
G1 X-17.211 Y-15.655 Z-4.500 F30.000
G1 X-15.655 Y-17.211 Z-4.500 F30.000
G0 Z5.000
G0 Z5.000
(Finish operation: Pocket_Shape039)
(Begin operation: Pocket_Shape041)
(Path: Pocket_Shape041)
(Pocket_Shape041)
G0 Z5.000
G0
G0 X-8.418 Y-20.585
G0 X-8.418 Y-20.585 Z1.000
G1 X-8.418 Y-20.585 Z-1.000 F30.000
G1 X-6.031 Y-14.820 Z-1.000 F30.000
G1 X-6.215 Y-14.744 Z-1.000 F30.000
G1 X-8.603 Y-20.509 Z-1.000 F30.000
G1 X-8.418 Y-20.585 Z-1.000 F30.000
G0 Z5.000
G0 X-9.257 Y-20.779 Z5.000
G0 X-9.257 Y-20.779 Z1.000
G1 X-9.257 Y-20.779 Z-1.000 F30.000
G1 X-8.148 Y-21.239 Z-1.000 F30.000
G1 X-5.377 Y-14.550 Z-1.000 F30.000
G1 X-6.486 Y-14.091 Z-1.000 F30.000
G1 X-9.257 Y-20.779 Z-1.000 F30.000
G0 Z5.000
G0 X-9.910 Y-21.050 Z5.000
G0 X-9.910 Y-21.050 Z1.000
G1 X-9.910 Y-21.050 Z-1.000 F30.000
G1 X-7.877 Y-21.892 Z-1.000 F30.000
G1 X-4.724 Y-14.279 Z-1.000 F30.000
G1 X-6.757 Y-13.437 Z-1.000 F30.000
G1 X-9.910 Y-21.050 Z-1.000 F30.000
G0 Z5.000
G0 X-8.418 Y-20.585 Z5.000
G0 X-8.418 Y-20.585 Z1.000
G1 X-8.418 Y-20.585 Z-2.000 F30.000
G1 X-6.031 Y-14.820 Z-2.000 F30.000
G1 X-6.215 Y-14.744 Z-2.000 F30.000
G1 X-8.603 Y-20.509 Z-2.000 F30.000
G1 X-8.418 Y-20.585 Z-2.000 F30.000
G0 Z5.000
G0 X-9.257 Y-20.779 Z5.000
G0 X-9.257 Y-20.779 Z1.000
G1 X-9.257 Y-20.779 Z-2.000 F30.000
G1 X-8.148 Y-21.239 Z-2.000 F30.000
G1 X-5.377 Y-14.550 Z-2.000 F30.000
G1 X-6.486 Y-14.091 Z-2.000 F30.000
G1 X-9.257 Y-20.779 Z-2.000 F30.000
G0 Z5.000
G0 X-9.910 Y-21.050 Z5.000
G0 X-9.910 Y-21.050 Z1.000
G1 X-9.910 Y-21.050 Z-2.000 F30.000
G1 X-7.877 Y-21.892 Z-2.000 F30.000
G1 X-4.724 Y-14.279 Z-2.000 F30.000
G1 X-6.757 Y-13.437 Z-2.000 F30.000
G1 X-9.910 Y-21.050 Z-2.000 F30.000
G0 Z5.000
G0 X-8.418 Y-20.585 Z5.000
G0 X-8.418 Y-20.585 Z1.000
G1 X-8.418 Y-20.585 Z-2.740 F30.000
G1 X-6.031 Y-14.820 Z-2.740 F30.000
G1 X-6.215 Y-14.744 Z-2.740 F30.000
G1 X-8.603 Y-20.509 Z-2.740 F30.000
G1 X-8.418 Y-20.585 Z-2.740 F30.000
G0 Z5.000
G0 X-9.257 Y-20.779 Z5.000
G0 X-9.257 Y-20.779 Z1.000
G1 X-9.257 Y-20.779 Z-2.740 F30.000
G1 X-8.148 Y-21.239 Z-2.740 F30.000
G1 X-5.377 Y-14.550 Z-2.740 F30.000
G1 X-6.486 Y-14.091 Z-2.740 F30.000
G1 X-9.257 Y-20.779 Z-2.740 F30.000
G0 Z5.000
G0 X-9.910 Y-21.050 Z5.000
G0 X-9.910 Y-21.050 Z1.000
G1 X-9.910 Y-21.050 Z-2.740 F30.000
G1 X-7.877 Y-21.892 Z-2.740 F30.000
G1 X-4.724 Y-14.279 Z-2.740 F30.000
G1 X-6.757 Y-13.437 Z-2.740 F30.000
G1 X-9.910 Y-21.050 Z-2.740 F30.000
G0 Z5.000
G0 Z5.000
(Finish operation: Pocket_Shape041)
(Begin operation: Pocket_Shape042)
(Path: Pocket_Shape042)
(Pocket_Shape042)
G0 Z5.000
G0
G0 X-8.418 Y-20.585
G0 X-8.418 Y-20.585 Z-2.000
G1 X-8.418 Y-20.585 Z-3.500 F30.000
G1 X-6.702 Y-16.442 Z-3.500 F30.000
G1 X-6.887 Y-16.365 Z-3.500 F30.000
G1 X-8.603 Y-20.509 Z-3.500 F30.000
G1 X-8.418 Y-20.585 Z-3.500 F30.000
G0 Z5.000
G0 X-8.148 Y-21.239 Z5.000
G0 X-8.148 Y-21.239 Z-2.000
G1 X-8.148 Y-21.239 Z-3.500 F30.000
G1 X-6.049 Y-16.171 Z-3.500 F30.000
G1 X-7.158 Y-15.712 Z-3.500 F30.000
G1 X-9.257 Y-20.779 Z-3.500 F30.000
G1 X-8.148 Y-21.239 Z-3.500 F30.000
G0 Z5.000
G0 X-7.877 Y-21.892 Z5.000
G0 X-7.877 Y-21.892 Z-2.000
G1 X-7.877 Y-21.892 Z-3.500 F30.000
G1 X-5.396 Y-15.901 Z-3.500 F30.000
G1 X-7.428 Y-15.059 Z-3.500 F30.000
G1 X-9.910 Y-21.050 Z-3.500 F30.000
G1 X-7.877 Y-21.892 Z-3.500 F30.000
G0 Z5.000
G0 X-8.418 Y-20.585 Z5.000
G0 X-8.418 Y-20.585 Z-2.000
G1 X-8.418 Y-20.585 Z-4.500 F30.000
G1 X-6.702 Y-16.442 Z-4.500 F30.000
G1 X-6.887 Y-16.365 Z-4.500 F30.000
G1 X-8.603 Y-20.509 Z-4.500 F30.000
G1 X-8.418 Y-20.585 Z-4.500 F30.000
G0 Z5.000
G0 X-8.148 Y-21.239 Z5.000
G0 X-8.148 Y-21.239 Z-2.000
G1 X-8.148 Y-21.239 Z-4.500 F30.000
G1 X-6.049 Y-16.171 Z-4.500 F30.000
G1 X-7.158 Y-15.712 Z-4.500 F30.000
G1 X-9.257 Y-20.779 Z-4.500 F30.000
G1 X-8.148 Y-21.239 Z-4.500 F30.000
G0 Z5.000
G0 X-7.877 Y-21.892 Z5.000
G0 X-7.877 Y-21.892 Z-2.000
G1 X-7.877 Y-21.892 Z-4.500 F30.000
G1 X-5.396 Y-15.901 Z-4.500 F30.000
G1 X-7.428 Y-15.059 Z-4.500 F30.000
G1 X-9.910 Y-21.050 Z-4.500 F30.000
G1 X-7.877 Y-21.892 Z-4.500 F30.000
G0 Z5.000
G0 Z5.000
(Finish operation: Pocket_Shape042)
(Begin operation: Pocket_Shape043)
(Path: Pocket_Shape043)
(Pocket_Shape043)
G0 Z5.000
G0
G0 X-0.113 Y0.406
G0 X-0.113 Y0.406 Z1.000
G1 X-0.113 Y0.406 Z-1.000 F30.000
G3 X-0.406 Y-0.113 Z-1.000 I0.113 J-0.406 K0.000 F30.000
G3 X0.113 Y-0.406 Z-1.000 I0.406 J0.113 K0.000 F30.000
G3 X0.406 Y0.113 Z-1.000 I-0.113 J0.406 K0.000 F30.000
G3 X-0.113 Y0.406 Z-1.000 I-0.406 J-0.113 K0.000 F30.000
G0 Z5.000
G0 X-0.247 Y0.888 Z5.000
G0 X-0.247 Y0.888 Z1.000
G1 X-0.247 Y0.888 Z-1.000 F30.000
G3 X0.247 Y-0.888 Z-1.000 I0.247 J-0.888 K0.000 F30.000
G3 X-0.247 Y0.888 Z-1.000 I-0.247 J0.888 K0.000 F30.000
G0 Z5.000
G0 X-0.381 Y1.371 Z5.000
G0 X-0.381 Y1.371 Z1.000
G1 X-0.381 Y1.371 Z-1.000 F30.000
G3 X0.381 Y-1.371 Z-1.000 I0.381 J-1.371 K0.000 F30.000
G3 X-0.381 Y1.371 Z-1.000 I-0.381 J1.371 K0.000 F30.000
G0 Z5.000
G0 X-0.916 Y3.301 Z5.000
G0 X-0.916 Y3.301 Z1.000
G1 X-0.916 Y3.301 Z-1.000 F30.000
G3 X-3.301 Y-0.916 Z-1.000 I0.916 J-3.301 K0.000 F30.000
G3 X0.916 Y-3.301 Z-1.000 I3.301 J0.916 K0.000 F30.000
G3 X3.301 Y0.916 Z-1.000 I-0.916 J3.301 K0.000 F30.000
G3 X-0.916 Y3.301 Z-1.000 I-3.301 J-0.916 K0.000 F30.000
G0 Z5.000
G0 X-1.452 Y5.231 Z5.000
G0 X-1.452 Y5.231 Z1.000
G1 X-1.452 Y5.231 Z-1.000 F30.000
G3 X1.452 Y-5.231 Z-1.000 I1.452 J-5.231 K0.000 F30.000
G3 X-1.452 Y5.231 Z-1.000 I-1.452 J5.231 K0.000 F30.000
G0 Z5.000
G0 X-0.113 Y0.406 Z5.000
G0 X-0.113 Y0.406 Z1.000
G1 X-0.113 Y0.406 Z-2.000 F30.000
G3 X-0.406 Y-0.113 Z-2.000 I0.113 J-0.406 K0.000 F30.000
G3 X0.113 Y-0.406 Z-2.000 I0.406 J0.113 K0.000 F30.000
G3 X0.406 Y0.113 Z-2.000 I-0.113 J0.406 K0.000 F30.000
G3 X-0.113 Y0.406 Z-2.000 I-0.406 J-0.113 K0.000 F30.000
G0 Z5.000
G0 X-0.247 Y0.888 Z5.000
G0 X-0.247 Y0.888 Z1.000
G1 X-0.247 Y0.888 Z-2.000 F30.000
G3 X0.247 Y-0.888 Z-2.000 I0.247 J-0.888 K0.000 F30.000
G3 X-0.247 Y0.888 Z-2.000 I-0.247 J0.888 K0.000 F30.000
G0 Z5.000
G0 X-0.381 Y1.371 Z5.000
G0 X-0.381 Y1.371 Z1.000
G1 X-0.381 Y1.371 Z-2.000 F30.000
G3 X0.381 Y-1.371 Z-2.000 I0.381 J-1.371 K0.000 F30.000
G3 X-0.381 Y1.371 Z-2.000 I-0.381 J1.371 K0.000 F30.000
G0 Z5.000
G0 X-0.916 Y3.301 Z5.000
G0 X-0.916 Y3.301 Z1.000
G1 X-0.916 Y3.301 Z-2.000 F30.000
G3 X-3.301 Y-0.916 Z-2.000 I0.916 J-3.301 K0.000 F30.000
G3 X0.916 Y-3.301 Z-2.000 I3.301 J0.916 K0.000 F30.000
G3 X3.301 Y0.916 Z-2.000 I-0.916 J3.301 K0.000 F30.000
G3 X-0.916 Y3.301 Z-2.000 I-3.301 J-0.916 K0.000 F30.000
G0 Z5.000
G0 X-1.452 Y5.231 Z5.000
G0 X-1.452 Y5.231 Z1.000
G1 X-1.452 Y5.231 Z-2.000 F30.000
G3 X1.452 Y-5.231 Z-2.000 I1.452 J-5.231 K0.000 F30.000
G3 X-1.452 Y5.231 Z-2.000 I-1.452 J5.231 K0.000 F30.000
G0 Z5.000
G0 Z5.000
(Finish operation: Pocket_Shape043)
(Begin postamble)
M5
G17 G90
M2
