(Exported by FreeCAD)
(Post Processor: grbl_post)
(Output Time:2025-08-26 05:39:22.221848)
(Begin preamble)
G17 G90
G21
(Begin operation: Fixture)
(Path: Fixture)
G54
(Finish operation: Fixture)
(Begin operation: 0001)
(Path: 0001)
(0001)
(Begin toolchange)
( M6 T4 )
(Finish operation: 0001)
(Begin operation: 0.5mm-exp)
(Path: 0.5mm-exp)
(0.5mm-exp)
(Compensated Tool Path. Diameter: 0.5)
G0 Z5.000
G0 X11.610 Y12.176
G0 Z3.000
G1 X11.610 Y12.176 Z-0.250 F30.000
G3 X10.658 Y11.692 Z-0.250 I28.404 J-57.067 K0.000 F30.000
G2 X10.229 Y11.976 Z-0.250 I0.399 J1.068 K0.000 F30.000
G2 X10.077 Y12.341 Z-0.250 I0.114 J0.262 K0.000 F30.000
G3 X10.400 Y13.224 Z-0.250 I-4.417 J2.117 K0.000 F30.000
G3 X9.498 Y12.652 Z-0.250 I33.699 J-54.108 K0.000 F30.000
G2 X9.045 Y12.894 Z-0.250 I0.296 J1.101 K0.000 F30.000
G2 X8.858 Y13.243 Z-0.250 I0.088 J0.272 K0.000 F30.000
G3 X9.096 Y14.153 Z-0.250 I-4.598 J1.687 K0.000 F30.000
G3 X8.253 Y13.498 Z-0.250 I38.692 J-50.661 K0.000 F30.000
G2 X7.778 Y13.695 Z-0.250 I0.190 J1.124 K0.000 F30.000
G2 X7.559 Y14.025 Z-0.250 I0.062 J0.279 K0.000 F30.000
G3 X7.709 Y14.954 Z-0.250 I-4.738 J1.243 K0.000 F30.000
G3 X6.932 Y14.221 Z-0.250 I43.332 J-46.755 K0.000 F30.000
G2 X6.441 Y14.373 Z-0.250 I0.082 J1.137 K0.000 F30.000
G2 X6.192 Y14.680 Z-0.250 I0.035 J0.284 K0.000 F30.000
G3 X6.253 Y15.619 Z-0.250 I-4.834 J0.787 K0.000 F30.000
G3 X5.549 Y14.816 Z-0.250 I47.584 J-42.427 K0.000 F30.000
G2 X5.046 Y14.920 Z-0.250 I-0.027 J1.140 K0.000 F30.000
G2 X4.768 Y15.202 Z-0.250 I0.008 J0.286 K0.000 F30.000
G3 X4.740 Y16.142 Z-0.250 I-4.887 J0.323 K0.000 F30.000
G3 X4.115 Y15.276 Z-0.250 I51.399 J-37.710 K0.000 F30.000
G2 X3.604 Y15.332 Z-0.250 I-0.135 J1.132 K0.000 F30.000
G2 X3.301 Y15.587 Z-0.250 I-0.019 J0.285 K0.000 F30.000
G3 X3.184 Y16.520 Z-0.250 I-4.896 J-0.143 K0.000 F30.000
G3 X2.645 Y15.598 Z-0.250 I54.752 J-32.654 K0.000 F30.000
G2 X2.131 Y15.605 Z-0.250 I-0.242 J1.114 K0.000 F30.000
G2 X1.805 Y15.830 Z-0.250 I-0.046 J0.282 K0.000 F30.000
G3 X1.599 Y16.748 Z-0.250 I-4.860 J-0.607 K0.000 F30.000
G3 X1.150 Y15.779 Z-0.250 I57.605 J-27.300 K0.000 F30.000
G2 X0.638 Y15.737 Z-0.250 I-0.347 J1.086 K0.000 F30.000
G2 X0.292 Y15.930 Z-0.250 I-0.072 J0.276 K0.000 F30.000
G3 X0.000 Y16.824 Z-0.250 I-4.781 J-1.067 K0.000 F30.000
G3 X-0.355 Y15.817 Z-0.250 I59.932 J-21.698 K0.000 F30.000
G2 X-0.861 Y15.726 Z-0.250 I-0.448 J1.048 K0.000 F30.000
G2 X-1.224 Y15.885 Z-0.250 I-0.098 J0.268 K0.000 F30.000
G3 X-1.599 Y16.748 Z-0.250 I-4.657 J-1.516 K0.000 F30.000
G3 X-1.857 Y15.711 Z-0.250 I61.728 J-15.904 K0.000 F30.000
G2 X-2.352 Y15.573 Z-0.250 I-0.546 J1.001 K0.000 F30.000
G2 X-2.728 Y15.697 Z-0.250 I-0.124 J0.258 K0.000 F30.000
G3 X-3.184 Y16.520 Z-0.250 I-4.492 J-1.952 K0.000 F30.000
G3 X-3.342 Y15.464 Z-0.250 I62.959 J-9.965 K0.000 F30.000
G2 X-3.822 Y15.279 Z-0.250 I-0.639 J0.944 K0.000 F30.000
G2 X-4.208 Y15.367 Z-0.250 I-0.147 J0.245 K0.000 F30.000
G3 X-4.740 Y16.142 Z-0.250 I-4.286 J-2.370 K0.000 F30.000
G3 X-4.797 Y15.076 Z-0.250 I63.629 J-3.935 K0.000 F30.000
G2 X-5.257 Y14.847 Z-0.250 I-0.726 J0.880 K0.000 F30.000
G2 X-5.649 Y14.897 Z-0.250 I-0.170 J0.230 K0.000 F30.000
G3 X-6.253 Y15.619 Z-0.250 I-4.042 J-2.767 K0.000 F30.000
G3 X-6.208 Y14.552 Z-0.250 I63.712 J2.131 K0.000 F30.000
G2 X-6.644 Y14.280 Z-0.250 I-0.806 J0.807 K0.000 F30.000
G2 X-7.040 Y14.293 Z-0.250 I-0.191 J0.213 K0.000 F30.000
G3 X-7.709 Y14.954 Z-0.250 I-3.760 J-3.139 K0.000 F30.000
G3 X-7.563 Y13.896 Z-0.250 I63.218 J8.177 K0.000 F30.000
G2 X-7.972 Y13.584 Z-0.250 I-0.879 J0.726 K0.000 F30.000
G2 X-8.367 Y13.559 Z-0.250 I-0.210 J0.193 K0.000 F30.000
G3 X-9.096 Y14.153 Z-0.250 I-3.445 J-3.482 K0.000 F30.000
G3 X-8.850 Y13.114 Z-0.250 I62.155 J14.149 K0.000 F30.000
G2 X-9.227 Y12.764 Z-0.250 I-0.944 J0.639 K0.000 F30.000
G2 X-9.618 Y12.702 Z-0.250 I-0.228 J0.173 K0.000 F30.000
G3 X-10.400 Y13.224 Z-0.250 I-3.098 J-3.794 K0.000 F30.000
G3 X-10.056 Y12.213 Z-0.250 I60.527 J19.993 K0.000 F30.000
G2 X-10.398 Y11.830 Z-0.250 I-1.000 J0.547 K0.000 F30.000
G2 X-10.782 Y11.730 Z-0.250 I-0.243 J0.150 K0.000 F30.000
G3 X-11.610 Y12.176 Z-0.250 I-2.724 J-4.071 K0.000 F30.000
G3 X-11.172 Y11.202 Z-0.250 I58.361 J25.660 K0.000 F30.000
G2 X-11.476 Y10.788 Z-0.250 I-1.048 J0.449 K0.000 F30.000
G2 X-11.848 Y10.652 Z-0.250 I-0.256 J0.126 K0.000 F30.000
G3 X-12.715 Y11.017 Z-0.250 I-2.324 J-4.311 K0.000 F30.000
G3 X-12.186 Y10.090 Z-0.250 I55.654 J31.089 K0.000 F30.000
G2 X-12.449 Y9.648 Z-0.250 I-1.086 J0.348 K0.000 F30.000
G2 X-12.807 Y9.478 Z-0.250 I-0.267 J0.101 K0.000 F30.000
G3 X-13.704 Y9.759 Z-0.250 I-1.904 J-4.513 K0.000 F30.000
G3 X-13.090 Y8.885 Z-0.250 I52.440 J36.234 K0.000 F30.000
G2 X-13.310 Y8.421 Z-0.250 I-1.114 J0.243 K0.000 F30.000
G2 X-13.650 Y8.218 Z-0.250 I-0.276 J0.075 K0.000 F30.000
G3 X-14.570 Y8.412 Z-0.250 I-1.467 J-4.673 K0.000 F30.000
G3 X-13.875 Y7.601 Z-0.250 I48.764 J41.059 K0.000 F30.000
G2 X-14.050 Y7.117 Z-0.250 I-1.132 J0.136 K0.000 F30.000
G2 X-14.369 Y6.883 Z-0.250 I-0.282 J0.049 K0.000 F30.000
G3 X-15.303 Y6.989 Z-0.250 I-1.016 J-4.792 K0.000 F30.000
G3 X-14.535 Y6.248 Z-0.250 I44.639 J45.508 K0.000 F30.000
G2 X-14.663 Y5.750 Z-0.250 I-1.140 J0.028 K0.000 F30.000
G2 X-14.958 Y5.486 Z-0.250 I-0.285 J0.022 K0.000 F30.000
G3 X-15.898 Y5.503 Z-0.250 I-0.556 J-4.866 K0.000 F30.000
G3 X-15.063 Y4.838 Z-0.250 I40.107 J49.539 K0.000 F30.000
G2 X-15.143 Y4.330 Z-0.250 I-1.137 J-0.081 K0.000 F30.000
G2 X-15.412 Y4.039 Z-0.250 I-0.286 J-0.005 K0.000 F30.000
G3 X-16.349 Y3.966 Z-0.250 I-0.091 J-4.897 K0.000 F30.000
G3 X-15.455 Y3.384 Z-0.250 I35.220 J53.132 K0.000 F30.000
G2 X-15.486 Y2.871 Z-0.250 I-1.124 J-0.189 K0.000 F30.000
G2 X-15.726 Y2.556 Z-0.250 I-0.284 J-0.032 K0.000 F30.000
G3 X-16.652 Y2.394 Z-0.250 I0.375 J-4.884 K0.000 F30.000
G3 X-15.706 Y1.900 Z-0.250 I30.010 J56.240 K0.000 F30.000
G2 X-15.689 Y1.386 Z-0.250 I-1.101 J-0.295 K0.000 F30.000
G2 X-15.898 Y1.050 Z-0.250 I-0.280 J-0.059 K0.000 F30.000
G3 X-16.805 Y0.801 Z-0.250 I0.838 J-4.826 K0.000 F30.000
G3 X-15.816 Y0.398 Z-0.250 I24.531 J58.844 K0.000 F30.000
G2 X-15.750 Y-0.112 Z-0.250 I-1.068 J-0.398 K0.000 F30.000
G2 X-15.926 Y-0.466 Z-0.250 I-0.273 J-0.086 K0.000 F30.000
G3 X-16.805 Y-0.801 Z-0.250 I1.293 J-4.724 K0.000 F30.000
G3 X-15.782 Y-1.107 Z-0.250 I18.824 J60.904 K0.000 F30.000
G2 X-15.668 Y-1.608 Z-0.250 I-1.026 J-0.498 K0.000 F30.000
G2 X-15.809 Y-1.978 Z-0.250 I-0.263 J-0.111 K0.000 F30.000
G3 X-16.652 Y-2.394 Z-0.250 I1.736 J-4.580 K0.000 F30.000
G3 X-15.605 Y-2.602 Z-0.250 I12.950 J62.417 K0.000 F30.000
G2 X-15.444 Y-3.090 Z-0.250 I-0.974 J-0.593 K0.000 F30.000
G2 X-15.550 Y-3.472 Z-0.250 I-0.252 J-0.136 K0.000 F30.000
G3 X-16.349 Y-3.966 Z-0.250 I2.164 J-4.394 K0.000 F30.000
G3 X-15.287 Y-4.074 Z-0.250 I6.958 J63.364 K0.000 F30.000
G2 X-15.080 Y-4.544 Z-0.250 I-0.913 J-0.683 K0.000 F30.000
G2 X-15.149 Y-4.934 Z-0.250 I-0.238 J-0.159 K0.000 F30.000
G3 X-15.898 Y-5.503 Z-0.250 I2.571 J-4.169 K0.000 F30.000
G3 X-14.831 Y-5.509 Z-0.250 I0.903 J63.735 K0.000 F30.000
G2 X-14.580 Y-5.957 Z-0.250 I-0.844 J-0.767 K0.000 F30.000
G2 X-14.612 Y-6.352 Z-0.250 I-0.221 J-0.181 K0.000 F30.000
G3 X-15.303 Y-6.989 Z-0.250 I2.956 J-3.905 K0.000 F30.000
G3 X-14.240 Y-6.894 Z-0.250 I-5.159 J63.531 K0.000 F30.000
G2 X-13.948 Y-7.316 Z-0.250 I-0.767 J-0.843 K0.000 F30.000
G2 X-13.942 Y-7.712 Z-0.250 I-0.203 J-0.201 K0.000 F30.000
G3 X-14.570 Y-8.412 Z-0.250 I3.314 J-3.607 K0.000 F30.000
G3 X-13.520 Y-8.216 Z-0.250 I-11.176 J62.760 K0.000 F30.000
G2 X-13.189 Y-8.609 Z-0.250 I-0.684 J-0.912 K0.000 F30.000
G2 X-13.145 Y-9.002 Z-0.250 I-0.183 J-0.219 K0.000 F30.000
G3 X-13.704 Y-9.759 Z-0.250 I3.642 J-3.275 K0.000 F30.000
G3 X-12.678 Y-9.464 Z-0.250 I-17.090 J61.409 K0.000 F30.000
G2 X-12.311 Y-9.824 Z-0.250 I-0.594 J-0.973 K0.000 F30.000
G2 X-12.230 Y-10.211 Z-0.250 I-0.161 J-0.236 K0.000 F30.000
G3 X-12.715 Y-11.017 Z-0.250 I3.937 J-2.914 K0.000 F30.000
G3 X-11.721 Y-10.626 Z-0.250 I-22.854 J59.516 K0.000 F30.000
G2 X-11.321 Y-10.949 Z-0.250 I-0.499 J-1.025 K0.000 F30.000
G2 X-11.204 Y-11.327 Z-0.250 I-0.138 J-0.250 K0.000 F30.000
G3 X-11.610 Y-12.176 Z-0.250 I4.196 J-2.527 K0.000 F30.000
G3 X-10.658 Y-11.692 Z-0.250 I-28.405 J57.069 K0.000 F30.000
G2 X-10.229 Y-11.976 Z-0.250 I-0.399 J-1.068 K0.000 F30.000
G2 X-10.077 Y-12.341 Z-0.250 I-0.114 J-0.262 K0.000 F30.000
G3 X-10.400 Y-13.224 Z-0.250 I4.417 J-2.117 K0.000 F30.000
G3 X-9.498 Y-12.652 Z-0.250 I-33.700 J54.108 K0.000 F30.000
G2 X-9.045 Y-12.894 Z-0.250 I-0.296 J-1.101 K0.000 F30.000
G2 X-8.858 Y-13.243 Z-0.250 I-0.088 J-0.272 K0.000 F30.000
G3 X-9.096 Y-14.153 Z-0.250 I4.598 J-1.687 K0.000 F30.000
G3 X-8.253 Y-13.498 Z-0.250 I-38.693 J50.663 K0.000 F30.000
G2 X-7.778 Y-13.695 Z-0.250 I-0.190 J-1.124 K0.000 F30.000
G2 X-7.559 Y-14.025 Z-0.250 I-0.062 J-0.279 K0.000 F30.000
G3 X-7.709 Y-14.954 Z-0.250 I4.738 J-1.243 K0.000 F30.000
G3 X-6.932 Y-14.221 Z-0.250 I-43.333 J46.756 K0.000 F30.000
G2 X-6.441 Y-14.373 Z-0.250 I-0.082 J-1.137 K0.000 F30.000
G2 X-6.192 Y-14.680 Z-0.250 I-0.035 J-0.284 K0.000 F30.000
G3 X-6.253 Y-15.619 Z-0.250 I4.834 J-0.787 K0.000 F30.000
G3 X-5.549 Y-14.816 Z-0.250 I-47.584 J42.427 K0.000 F30.000
G2 X-5.046 Y-14.920 Z-0.250 I0.027 J-1.140 K0.000 F30.000
G2 X-4.768 Y-15.202 Z-0.250 I-0.008 J-0.286 K0.000 F30.000
G3 X-4.740 Y-16.142 Z-0.250 I4.887 J-0.323 K0.000 F30.000
G3 X-4.115 Y-15.276 Z-0.250 I-51.399 J37.710 K0.000 F30.000
G2 X-3.604 Y-15.332 Z-0.250 I0.135 J-1.132 K0.000 F30.000
G2 X-3.301 Y-15.587 Z-0.250 I0.019 J-0.285 K0.000 F30.000
G3 X-3.184 Y-16.520 Z-0.250 I4.896 J0.143 K0.000 F30.000
G3 X-2.645 Y-15.598 Z-0.250 I-54.746 J32.651 K0.000 F30.000
G2 X-2.131 Y-15.605 Z-0.250 I0.242 J-1.114 K0.000 F30.000
G2 X-1.805 Y-15.830 Z-0.250 I0.046 J-0.282 K0.000 F30.000
G3 X-1.599 Y-16.748 Z-0.250 I4.860 J0.607 K0.000 F30.000
G3 X-1.150 Y-15.779 Z-0.250 I-57.609 J27.302 K0.000 F30.000
G2 X-0.638 Y-15.737 Z-0.250 I0.347 J-1.086 K0.000 F30.000
G2 X-0.292 Y-15.930 Z-0.250 I0.072 J-0.276 K0.000 F30.000
G3 X-0.000 Y-16.824 Z-0.250 I4.781 J1.067 K0.000 F30.000
G3 X0.355 Y-15.817 Z-0.250 I-59.937 J21.700 K0.000 F30.000
G2 X0.861 Y-15.726 Z-0.250 I0.448 J-1.048 K0.000 F30.000
G2 X1.224 Y-15.885 Z-0.250 I0.098 J-0.268 K0.000 F30.000
G3 X1.599 Y-16.748 Z-0.250 I4.657 J1.516 K0.000 F30.000
G3 X1.857 Y-15.711 Z-0.250 I-61.729 J15.905 K0.000 F30.000
G2 X2.352 Y-15.573 Z-0.250 I0.546 J-1.001 K0.000 F30.000
G2 X2.728 Y-15.697 Z-0.250 I0.124 J-0.258 K0.000 F30.000
G3 X3.184 Y-16.520 Z-0.250 I4.492 J1.952 K0.000 F30.000
G3 X3.342 Y-15.464 Z-0.250 I-62.963 J9.965 K0.000 F30.000
G2 X3.822 Y-15.279 Z-0.250 I0.639 J-0.944 K0.000 F30.000
G2 X4.208 Y-15.367 Z-0.250 I0.147 J-0.245 K0.000 F30.000
G3 X4.740 Y-16.142 Z-0.250 I4.286 J2.370 K0.000 F30.000
G3 X4.797 Y-15.076 Z-0.250 I-63.628 J3.935 K0.000 F30.000
G2 X5.257 Y-14.847 Z-0.250 I0.726 J-0.880 K0.000 F30.000
G2 X5.649 Y-14.897 Z-0.250 I0.170 J-0.230 K0.000 F30.000
G3 X6.253 Y-15.619 Z-0.250 I4.042 J2.767 K0.000 F30.000
G3 X6.208 Y-14.552 Z-0.250 I-63.712 J-2.131 K0.000 F30.000
G2 X6.644 Y-14.280 Z-0.250 I0.806 J-0.807 K0.000 F30.000
G2 X7.040 Y-14.293 Z-0.250 I0.191 J-0.213 K0.000 F30.000
G3 X7.709 Y-14.954 Z-0.250 I3.760 J3.139 K0.000 F30.000
G3 X7.563 Y-13.896 Z-0.250 I-63.218 J-8.177 K0.000 F30.000
G2 X7.972 Y-13.584 Z-0.250 I0.879 J-0.726 K0.000 F30.000
G2 X8.367 Y-13.559 Z-0.250 I0.210 J-0.193 K0.000 F30.000
G3 X9.096 Y-14.153 Z-0.250 I3.445 J3.482 K0.000 F30.000
G3 X8.850 Y-13.114 Z-0.250 I-62.154 J-14.149 K0.000 F30.000
G2 X9.227 Y-12.764 Z-0.250 I0.944 J-0.639 K0.000 F30.000
G2 X9.618 Y-12.702 Z-0.250 I0.228 J-0.173 K0.000 F30.000
G3 X10.400 Y-13.224 Z-0.250 I3.098 J3.794 K0.000 F30.000
G3 X10.056 Y-12.213 Z-0.250 I-60.527 J-19.993 K0.000 F30.000
G2 X10.398 Y-11.830 Z-0.250 I1.000 J-0.547 K0.000 F30.000
G2 X10.782 Y-11.730 Z-0.250 I0.243 J-0.150 K0.000 F30.000
G3 X11.610 Y-12.176 Z-0.250 I2.724 J4.071 K0.000 F30.000
G3 X11.172 Y-11.202 Z-0.250 I-58.361 J-25.659 K0.000 F30.000
G2 X11.476 Y-10.788 Z-0.250 I1.048 J-0.449 K0.000 F30.000
G2 X11.848 Y-10.652 Z-0.250 I0.256 J-0.126 K0.000 F30.000
G3 X12.715 Y-11.017 Z-0.250 I2.324 J4.311 K0.000 F30.000
G3 X12.186 Y-10.090 Z-0.250 I-55.654 J-31.089 K0.000 F30.000
G2 X12.449 Y-9.648 Z-0.250 I1.086 J-0.348 K0.000 F30.000
G2 X12.807 Y-9.478 Z-0.250 I0.267 J-0.101 K0.000 F30.000
G3 X13.704 Y-9.759 Z-0.250 I1.904 J4.513 K0.000 F30.000
G3 X13.090 Y-8.885 Z-0.250 I-52.445 J-36.237 K0.000 F30.000
G2 X13.310 Y-8.421 Z-0.250 I1.114 J-0.243 K0.000 F30.000
G2 X13.650 Y-8.218 Z-0.250 I0.276 J-0.075 K0.000 F30.000
G3 X14.570 Y-8.412 Z-0.250 I1.467 J4.673 K0.000 F30.000
G3 X13.875 Y-7.601 Z-0.250 I-48.764 J-41.059 K0.000 F30.000
G2 X14.050 Y-7.117 Z-0.250 I1.132 J-0.136 K0.000 F30.000
G2 X14.369 Y-6.883 Z-0.250 I0.282 J-0.049 K0.000 F30.000
G3 X15.303 Y-6.989 Z-0.250 I1.016 J4.792 K0.000 F30.000
G3 X14.535 Y-6.248 Z-0.250 I-44.637 J-45.505 K0.000 F30.000
G2 X14.663 Y-5.750 Z-0.250 I1.140 J-0.028 K0.000 F30.000
G2 X14.958 Y-5.486 Z-0.250 I0.285 J-0.022 K0.000 F30.000
G3 X15.898 Y-5.503 Z-0.250 I0.556 J4.866 K0.000 F30.000
G3 X15.063 Y-4.838 Z-0.250 I-40.108 J-49.540 K0.000 F30.000
G2 X15.143 Y-4.330 Z-0.250 I1.137 J0.081 K0.000 F30.000
G2 X15.412 Y-4.039 Z-0.250 I0.286 J0.005 K0.000 F30.000
G3 X16.349 Y-3.966 Z-0.250 I0.091 J4.897 K0.000 F30.000
G3 X15.455 Y-3.384 Z-0.250 I-35.222 J-53.136 K0.000 F30.000
G2 X15.486 Y-2.871 Z-0.250 I1.124 J0.189 K0.000 F30.000
G2 X15.726 Y-2.556 Z-0.250 I0.284 J0.032 K0.000 F30.000
G3 X16.652 Y-2.394 Z-0.250 I-0.375 J4.884 K0.000 F30.000
G3 X15.706 Y-1.900 Z-0.250 I-30.011 J-56.241 K0.000 F30.000
G2 X15.689 Y-1.386 Z-0.250 I1.101 J0.295 K0.000 F30.000
G2 X15.898 Y-1.050 Z-0.250 I0.280 J0.059 K0.000 F30.000
G3 X16.805 Y-0.801 Z-0.250 I-0.838 J4.826 K0.000 F30.000
G3 X15.816 Y-0.398 Z-0.250 I-24.529 J-58.839 K0.000 F30.000
G2 X15.750 Y0.112 Z-0.250 I1.068 J0.398 K0.000 F30.000
G2 X15.926 Y0.466 Z-0.250 I0.273 J0.086 K0.000 F30.000
G3 X16.805 Y0.801 Z-0.250 I-1.293 J4.724 K0.000 F30.000
G3 X15.782 Y1.107 Z-0.250 I-18.823 J-60.900 K0.000 F30.000
G2 X15.668 Y1.608 Z-0.250 I1.026 J0.498 K0.000 F30.000
G2 X15.809 Y1.978 Z-0.250 I0.263 J0.111 K0.000 F30.000
G3 X16.652 Y2.394 Z-0.250 I-1.736 J4.580 K0.000 F30.000
G3 X15.605 Y2.602 Z-0.250 I-12.950 J-62.418 K0.000 F30.000
G2 X15.444 Y3.090 Z-0.250 I0.974 J0.593 K0.000 F30.000
G2 X15.550 Y3.472 Z-0.250 I0.252 J0.136 K0.000 F30.000
G3 X16.349 Y3.966 Z-0.250 I-2.164 J4.394 K0.000 F30.000
G3 X15.287 Y4.074 Z-0.250 I-6.957 J-63.360 K0.000 F30.000
G2 X15.080 Y4.544 Z-0.250 I0.913 J0.683 K0.000 F30.000
G2 X15.149 Y4.934 Z-0.250 I0.238 J0.159 K0.000 F30.000
G3 X15.898 Y5.503 Z-0.250 I-2.571 J4.169 K0.000 F30.000
G3 X14.831 Y5.509 Z-0.250 I-0.903 J-63.737 K0.000 F30.000
G2 X14.580 Y5.957 Z-0.250 I0.844 J0.767 K0.000 F30.000
G2 X14.612 Y6.352 Z-0.250 I0.221 J0.181 K0.000 F30.000
G3 X15.303 Y6.989 Z-0.250 I-2.956 J3.905 K0.000 F30.000
G3 X14.240 Y6.894 Z-0.250 I5.159 J-63.530 K0.000 F30.000
G2 X13.948 Y7.316 Z-0.250 I0.767 J0.843 K0.000 F30.000
G2 X13.942 Y7.712 Z-0.250 I0.203 J0.201 K0.000 F30.000
G3 X14.570 Y8.412 Z-0.250 I-3.314 J3.607 K0.000 F30.000
G3 X13.520 Y8.216 Z-0.250 I11.176 J-62.760 K0.000 F30.000
G2 X13.189 Y8.609 Z-0.250 I0.684 J0.912 K0.000 F30.000
G2 X13.145 Y9.002 Z-0.250 I0.183 J0.219 K0.000 F30.000
G3 X13.704 Y9.759 Z-0.250 I-3.642 J3.275 K0.000 F30.000
G3 X12.678 Y9.464 Z-0.250 I17.090 J-61.409 K0.000 F30.000
G2 X12.311 Y9.824 Z-0.250 I0.594 J0.973 K0.000 F30.000
G2 X12.230 Y10.211 Z-0.250 I0.161 J0.236 K0.000 F30.000
G3 X12.715 Y11.017 Z-0.250 I-3.937 J2.914 K0.000 F30.000
G3 X11.721 Y10.626 Z-0.250 I22.850 J-59.505 K0.000 F30.000
G2 X11.321 Y10.949 Z-0.250 I0.499 J1.025 K0.000 F30.000
G2 X11.204 Y11.327 Z-0.250 I0.138 J0.250 K0.000 F30.000
G3 X11.610 Y12.176 Z-0.250 I-4.196 J2.527 K0.000 F30.000
G1 X11.610 Y12.176 Z-0.500 F30.000
G3 X10.658 Y11.692 Z-0.500 I28.404 J-57.067 K0.000 F30.000
G2 X10.229 Y11.976 Z-0.500 I0.399 J1.068 K0.000 F30.000
G2 X10.077 Y12.341 Z-0.500 I0.114 J0.262 K0.000 F30.000
G3 X10.400 Y13.224 Z-0.500 I-4.417 J2.117 K0.000 F30.000
G3 X9.498 Y12.652 Z-0.500 I33.699 J-54.108 K0.000 F30.000
G2 X9.045 Y12.894 Z-0.500 I0.296 J1.101 K0.000 F30.000
G2 X8.858 Y13.243 Z-0.500 I0.088 J0.272 K0.000 F30.000
G3 X9.096 Y14.153 Z-0.500 I-4.598 J1.687 K0.000 F30.000
G3 X8.253 Y13.498 Z-0.500 I38.692 J-50.661 K0.000 F30.000
G2 X7.778 Y13.695 Z-0.500 I0.190 J1.124 K0.000 F30.000
G2 X7.559 Y14.025 Z-0.500 I0.062 J0.279 K0.000 F30.000
G3 X7.709 Y14.954 Z-0.500 I-4.738 J1.243 K0.000 F30.000
G3 X6.932 Y14.221 Z-0.500 I43.332 J-46.755 K0.000 F30.000
G2 X6.441 Y14.373 Z-0.500 I0.082 J1.137 K0.000 F30.000
G2 X6.192 Y14.680 Z-0.500 I0.035 J0.284 K0.000 F30.000
G3 X6.253 Y15.619 Z-0.500 I-4.834 J0.787 K0.000 F30.000
G3 X5.549 Y14.816 Z-0.500 I47.584 J-42.427 K0.000 F30.000
G2 X5.046 Y14.920 Z-0.500 I-0.027 J1.140 K0.000 F30.000
G2 X4.768 Y15.202 Z-0.500 I0.008 J0.286 K0.000 F30.000
G3 X4.740 Y16.142 Z-0.500 I-4.887 J0.323 K0.000 F30.000
G3 X4.115 Y15.276 Z-0.500 I51.399 J-37.710 K0.000 F30.000
G2 X3.604 Y15.332 Z-0.500 I-0.135 J1.132 K0.000 F30.000
G2 X3.301 Y15.587 Z-0.500 I-0.019 J0.285 K0.000 F30.000
G3 X3.184 Y16.520 Z-0.500 I-4.896 J-0.143 K0.000 F30.000
G3 X2.645 Y15.598 Z-0.500 I54.752 J-32.654 K0.000 F30.000
G2 X2.131 Y15.605 Z-0.500 I-0.242 J1.114 K0.000 F30.000
G2 X1.805 Y15.830 Z-0.500 I-0.046 J0.282 K0.000 F30.000
G3 X1.599 Y16.748 Z-0.500 I-4.860 J-0.607 K0.000 F30.000
G3 X1.150 Y15.779 Z-0.500 I57.605 J-27.300 K0.000 F30.000
G2 X0.638 Y15.737 Z-0.500 I-0.347 J1.086 K0.000 F30.000
G2 X0.292 Y15.930 Z-0.500 I-0.072 J0.276 K0.000 F30.000
G3 X0.000 Y16.824 Z-0.500 I-4.781 J-1.067 K0.000 F30.000
G3 X-0.355 Y15.817 Z-0.500 I59.932 J-21.698 K0.000 F30.000
G2 X-0.861 Y15.726 Z-0.500 I-0.448 J1.048 K0.000 F30.000
G2 X-1.224 Y15.885 Z-0.500 I-0.098 J0.268 K0.000 F30.000
G3 X-1.599 Y16.748 Z-0.500 I-4.657 J-1.516 K0.000 F30.000
G3 X-1.857 Y15.711 Z-0.500 I61.728 J-15.904 K0.000 F30.000
G2 X-2.352 Y15.573 Z-0.500 I-0.546 J1.001 K0.000 F30.000
G2 X-2.728 Y15.697 Z-0.500 I-0.124 J0.258 K0.000 F30.000
G3 X-3.184 Y16.520 Z-0.500 I-4.492 J-1.952 K0.000 F30.000
G3 X-3.342 Y15.464 Z-0.500 I62.959 J-9.965 K0.000 F30.000
G2 X-3.822 Y15.279 Z-0.500 I-0.639 J0.944 K0.000 F30.000
G2 X-4.208 Y15.367 Z-0.500 I-0.147 J0.245 K0.000 F30.000
G3 X-4.740 Y16.142 Z-0.500 I-4.286 J-2.370 K0.000 F30.000
G3 X-4.797 Y15.076 Z-0.500 I63.629 J-3.935 K0.000 F30.000
G2 X-5.257 Y14.847 Z-0.500 I-0.726 J0.880 K0.000 F30.000
G2 X-5.649 Y14.897 Z-0.500 I-0.170 J0.230 K0.000 F30.000
G3 X-6.253 Y15.619 Z-0.500 I-4.042 J-2.767 K0.000 F30.000
G3 X-6.208 Y14.552 Z-0.500 I63.712 J2.131 K0.000 F30.000
G2 X-6.644 Y14.280 Z-0.500 I-0.806 J0.807 K0.000 F30.000
G2 X-7.040 Y14.293 Z-0.500 I-0.191 J0.213 K0.000 F30.000
G3 X-7.709 Y14.954 Z-0.500 I-3.760 J-3.139 K0.000 F30.000
G3 X-7.563 Y13.896 Z-0.500 I63.218 J8.177 K0.000 F30.000
G2 X-7.972 Y13.584 Z-0.500 I-0.879 J0.726 K0.000 F30.000
G2 X-8.367 Y13.559 Z-0.500 I-0.210 J0.193 K0.000 F30.000
G3 X-9.096 Y14.153 Z-0.500 I-3.445 J-3.482 K0.000 F30.000
G3 X-8.850 Y13.114 Z-0.500 I62.155 J14.149 K0.000 F30.000
G2 X-9.227 Y12.764 Z-0.500 I-0.944 J0.639 K0.000 F30.000
G2 X-9.618 Y12.702 Z-0.500 I-0.228 J0.173 K0.000 F30.000
G3 X-10.400 Y13.224 Z-0.500 I-3.098 J-3.794 K0.000 F30.000
G3 X-10.056 Y12.213 Z-0.500 I60.527 J19.993 K0.000 F30.000
G2 X-10.398 Y11.830 Z-0.500 I-1.000 J0.547 K0.000 F30.000
G2 X-10.782 Y11.730 Z-0.500 I-0.243 J0.150 K0.000 F30.000
G3 X-11.610 Y12.176 Z-0.500 I-2.724 J-4.071 K0.000 F30.000
G3 X-11.172 Y11.202 Z-0.500 I58.361 J25.660 K0.000 F30.000
G2 X-11.476 Y10.788 Z-0.500 I-1.048 J0.449 K0.000 F30.000
G2 X-11.848 Y10.652 Z-0.500 I-0.256 J0.126 K0.000 F30.000
G3 X-12.715 Y11.017 Z-0.500 I-2.324 J-4.311 K0.000 F30.000
G3 X-12.186 Y10.090 Z-0.500 I55.654 J31.089 K0.000 F30.000
G2 X-12.449 Y9.648 Z-0.500 I-1.086 J0.348 K0.000 F30.000
G2 X-12.807 Y9.478 Z-0.500 I-0.267 J0.101 K0.000 F30.000
G3 X-13.704 Y9.759 Z-0.500 I-1.904 J-4.513 K0.000 F30.000
G3 X-13.090 Y8.885 Z-0.500 I52.440 J36.234 K0.000 F30.000
G2 X-13.310 Y8.421 Z-0.500 I-1.114 J0.243 K0.000 F30.000
G2 X-13.650 Y8.218 Z-0.500 I-0.276 J0.075 K0.000 F30.000
G3 X-14.570 Y8.412 Z-0.500 I-1.467 J-4.673 K0.000 F30.000
G3 X-13.875 Y7.601 Z-0.500 I48.764 J41.059 K0.000 F30.000
G2 X-14.050 Y7.117 Z-0.500 I-1.132 J0.136 K0.000 F30.000
G2 X-14.369 Y6.883 Z-0.500 I-0.282 J0.049 K0.000 F30.000
G3 X-15.303 Y6.989 Z-0.500 I-1.016 J-4.792 K0.000 F30.000
G3 X-14.535 Y6.248 Z-0.500 I44.639 J45.508 K0.000 F30.000
G2 X-14.663 Y5.750 Z-0.500 I-1.140 J0.028 K0.000 F30.000
G2 X-14.958 Y5.486 Z-0.500 I-0.285 J0.022 K0.000 F30.000
G3 X-15.898 Y5.503 Z-0.500 I-0.556 J-4.866 K0.000 F30.000
G3 X-15.063 Y4.838 Z-0.500 I40.107 J49.539 K0.000 F30.000
G2 X-15.143 Y4.330 Z-0.500 I-1.137 J-0.081 K0.000 F30.000
G2 X-15.412 Y4.039 Z-0.500 I-0.286 J-0.005 K0.000 F30.000
G3 X-16.349 Y3.966 Z-0.500 I-0.091 J-4.897 K0.000 F30.000
G3 X-15.455 Y3.384 Z-0.500 I35.220 J53.132 K0.000 F30.000
G2 X-15.486 Y2.871 Z-0.500 I-1.124 J-0.189 K0.000 F30.000
G2 X-15.726 Y2.556 Z-0.500 I-0.284 J-0.032 K0.000 F30.000
G3 X-16.652 Y2.394 Z-0.500 I0.375 J-4.884 K0.000 F30.000
G3 X-15.706 Y1.900 Z-0.500 I30.010 J56.240 K0.000 F30.000
G2 X-15.689 Y1.386 Z-0.500 I-1.101 J-0.295 K0.000 F30.000
G2 X-15.898 Y1.050 Z-0.500 I-0.280 J-0.059 K0.000 F30.000
G3 X-16.805 Y0.801 Z-0.500 I0.838 J-4.826 K0.000 F30.000
G3 X-15.816 Y0.398 Z-0.500 I24.531 J58.844 K0.000 F30.000
G2 X-15.750 Y-0.112 Z-0.500 I-1.068 J-0.398 K0.000 F30.000
G2 X-15.926 Y-0.466 Z-0.500 I-0.273 J-0.086 K0.000 F30.000
G3 X-16.805 Y-0.801 Z-0.500 I1.293 J-4.724 K0.000 F30.000
G3 X-15.782 Y-1.107 Z-0.500 I18.824 J60.904 K0.000 F30.000
G2 X-15.668 Y-1.608 Z-0.500 I-1.026 J-0.498 K0.000 F30.000
G2 X-15.809 Y-1.978 Z-0.500 I-0.263 J-0.111 K0.000 F30.000
G3 X-16.652 Y-2.394 Z-0.500 I1.736 J-4.580 K0.000 F30.000
G3 X-15.605 Y-2.602 Z-0.500 I12.950 J62.417 K0.000 F30.000
G2 X-15.444 Y-3.090 Z-0.500 I-0.974 J-0.593 K0.000 F30.000
G2 X-15.550 Y-3.472 Z-0.500 I-0.252 J-0.136 K0.000 F30.000
G3 X-16.349 Y-3.966 Z-0.500 I2.164 J-4.394 K0.000 F30.000
G3 X-15.287 Y-4.074 Z-0.500 I6.958 J63.364 K0.000 F30.000
G2 X-15.080 Y-4.544 Z-0.500 I-0.913 J-0.683 K0.000 F30.000
G2 X-15.149 Y-4.934 Z-0.500 I-0.238 J-0.159 K0.000 F30.000
G3 X-15.898 Y-5.503 Z-0.500 I2.571 J-4.169 K0.000 F30.000
G3 X-14.831 Y-5.509 Z-0.500 I0.903 J63.735 K0.000 F30.000
G2 X-14.580 Y-5.957 Z-0.500 I-0.844 J-0.767 K0.000 F30.000
G2 X-14.612 Y-6.352 Z-0.500 I-0.221 J-0.181 K0.000 F30.000
G3 X-15.303 Y-6.989 Z-0.500 I2.956 J-3.905 K0.000 F30.000
G3 X-14.240 Y-6.894 Z-0.500 I-5.159 J63.531 K0.000 F30.000
G2 X-13.948 Y-7.316 Z-0.500 I-0.767 J-0.843 K0.000 F30.000
G2 X-13.942 Y-7.712 Z-0.500 I-0.203 J-0.201 K0.000 F30.000
G3 X-14.570 Y-8.412 Z-0.500 I3.314 J-3.607 K0.000 F30.000
G3 X-13.520 Y-8.216 Z-0.500 I-11.176 J62.760 K0.000 F30.000
G2 X-13.189 Y-8.609 Z-0.500 I-0.684 J-0.912 K0.000 F30.000
G2 X-13.145 Y-9.002 Z-0.500 I-0.183 J-0.219 K0.000 F30.000
G3 X-13.704 Y-9.759 Z-0.500 I3.642 J-3.275 K0.000 F30.000
G3 X-12.678 Y-9.464 Z-0.500 I-17.090 J61.409 K0.000 F30.000
G2 X-12.311 Y-9.824 Z-0.500 I-0.594 J-0.973 K0.000 F30.000
G2 X-12.230 Y-10.211 Z-0.500 I-0.161 J-0.236 K0.000 F30.000
G3 X-12.715 Y-11.017 Z-0.500 I3.937 J-2.914 K0.000 F30.000
G3 X-11.721 Y-10.626 Z-0.500 I-22.854 J59.516 K0.000 F30.000
G2 X-11.321 Y-10.949 Z-0.500 I-0.499 J-1.025 K0.000 F30.000
G2 X-11.204 Y-11.327 Z-0.500 I-0.138 J-0.250 K0.000 F30.000
G3 X-11.610 Y-12.176 Z-0.500 I4.196 J-2.527 K0.000 F30.000
G3 X-10.658 Y-11.692 Z-0.500 I-28.405 J57.069 K0.000 F30.000
G2 X-10.229 Y-11.976 Z-0.500 I-0.399 J-1.068 K0.000 F30.000
G2 X-10.077 Y-12.341 Z-0.500 I-0.114 J-0.262 K0.000 F30.000
G3 X-10.400 Y-13.224 Z-0.500 I4.417 J-2.117 K0.000 F30.000
G3 X-9.498 Y-12.652 Z-0.500 I-33.700 J54.108 K0.000 F30.000
G2 X-9.045 Y-12.894 Z-0.500 I-0.296 J-1.101 K0.000 F30.000
G2 X-8.858 Y-13.243 Z-0.500 I-0.088 J-0.272 K0.000 F30.000
G3 X-9.096 Y-14.153 Z-0.500 I4.598 J-1.687 K0.000 F30.000
G3 X-8.253 Y-13.498 Z-0.500 I-38.693 J50.663 K0.000 F30.000
G2 X-7.778 Y-13.695 Z-0.500 I-0.190 J-1.124 K0.000 F30.000
G2 X-7.559 Y-14.025 Z-0.500 I-0.062 J-0.279 K0.000 F30.000
G3 X-7.709 Y-14.954 Z-0.500 I4.738 J-1.243 K0.000 F30.000
G3 X-6.932 Y-14.221 Z-0.500 I-43.333 J46.756 K0.000 F30.000
G2 X-6.441 Y-14.373 Z-0.500 I-0.082 J-1.137 K0.000 F30.000
G2 X-6.192 Y-14.680 Z-0.500 I-0.035 J-0.284 K0.000 F30.000
G3 X-6.253 Y-15.619 Z-0.500 I4.834 J-0.787 K0.000 F30.000
G3 X-5.549 Y-14.816 Z-0.500 I-47.584 J42.427 K0.000 F30.000
G2 X-5.046 Y-14.920 Z-0.500 I0.027 J-1.140 K0.000 F30.000
G2 X-4.768 Y-15.202 Z-0.500 I-0.008 J-0.286 K0.000 F30.000
G3 X-4.740 Y-16.142 Z-0.500 I4.887 J-0.323 K0.000 F30.000
G3 X-4.115 Y-15.276 Z-0.500 I-51.399 J37.710 K0.000 F30.000
G2 X-3.604 Y-15.332 Z-0.500 I0.135 J-1.132 K0.000 F30.000
G2 X-3.301 Y-15.587 Z-0.500 I0.019 J-0.285 K0.000 F30.000
G3 X-3.184 Y-16.520 Z-0.500 I4.896 J0.143 K0.000 F30.000
G3 X-2.645 Y-15.598 Z-0.500 I-54.746 J32.651 K0.000 F30.000
G2 X-2.131 Y-15.605 Z-0.500 I0.242 J-1.114 K0.000 F30.000
G2 X-1.805 Y-15.830 Z-0.500 I0.046 J-0.282 K0.000 F30.000
G3 X-1.599 Y-16.748 Z-0.500 I4.860 J0.607 K0.000 F30.000
G3 X-1.150 Y-15.779 Z-0.500 I-57.609 J27.302 K0.000 F30.000
G2 X-0.638 Y-15.737 Z-0.500 I0.347 J-1.086 K0.000 F30.000
G2 X-0.292 Y-15.930 Z-0.500 I0.072 J-0.276 K0.000 F30.000
G3 X-0.000 Y-16.824 Z-0.500 I4.781 J1.067 K0.000 F30.000
G3 X0.355 Y-15.817 Z-0.500 I-59.937 J21.700 K0.000 F30.000
G2 X0.861 Y-15.726 Z-0.500 I0.448 J-1.048 K0.000 F30.000
G2 X1.224 Y-15.885 Z-0.500 I0.098 J-0.268 K0.000 F30.000
G3 X1.599 Y-16.748 Z-0.500 I4.657 J1.516 K0.000 F30.000
G3 X1.857 Y-15.711 Z-0.500 I-61.729 J15.905 K0.000 F30.000
G2 X2.352 Y-15.573 Z-0.500 I0.546 J-1.001 K0.000 F30.000
G2 X2.728 Y-15.697 Z-0.500 I0.124 J-0.258 K0.000 F30.000
G3 X3.184 Y-16.520 Z-0.500 I4.492 J1.952 K0.000 F30.000
G3 X3.342 Y-15.464 Z-0.500 I-62.963 J9.965 K0.000 F30.000
G2 X3.822 Y-15.279 Z-0.500 I0.639 J-0.944 K0.000 F30.000
G2 X4.208 Y-15.367 Z-0.500 I0.147 J-0.245 K0.000 F30.000
G3 X4.740 Y-16.142 Z-0.500 I4.286 J2.370 K0.000 F30.000
G3 X4.797 Y-15.076 Z-0.500 I-63.628 J3.935 K0.000 F30.000
G2 X5.257 Y-14.847 Z-0.500 I0.726 J-0.880 K0.000 F30.000
G2 X5.649 Y-14.897 Z-0.500 I0.170 J-0.230 K0.000 F30.000
G3 X6.253 Y-15.619 Z-0.500 I4.042 J2.767 K0.000 F30.000
G3 X6.208 Y-14.552 Z-0.500 I-63.712 J-2.131 K0.000 F30.000
G2 X6.644 Y-14.280 Z-0.500 I0.806 J-0.807 K0.000 F30.000
G2 X7.040 Y-14.293 Z-0.500 I0.191 J-0.213 K0.000 F30.000
G3 X7.709 Y-14.954 Z-0.500 I3.760 J3.139 K0.000 F30.000
G3 X7.563 Y-13.896 Z-0.500 I-63.218 J-8.177 K0.000 F30.000
G2 X7.972 Y-13.584 Z-0.500 I0.879 J-0.726 K0.000 F30.000
G2 X8.367 Y-13.559 Z-0.500 I0.210 J-0.193 K0.000 F30.000
G3 X9.096 Y-14.153 Z-0.500 I3.445 J3.482 K0.000 F30.000
G3 X8.850 Y-13.114 Z-0.500 I-62.154 J-14.149 K0.000 F30.000
G2 X9.227 Y-12.764 Z-0.500 I0.944 J-0.639 K0.000 F30.000
G2 X9.618 Y-12.702 Z-0.500 I0.228 J-0.173 K0.000 F30.000
G3 X10.400 Y-13.224 Z-0.500 I3.098 J3.794 K0.000 F30.000
G3 X10.056 Y-12.213 Z-0.500 I-60.527 J-19.993 K0.000 F30.000
G2 X10.398 Y-11.830 Z-0.500 I1.000 J-0.547 K0.000 F30.000
G2 X10.782 Y-11.730 Z-0.500 I0.243 J-0.150 K0.000 F30.000
G3 X11.610 Y-12.176 Z-0.500 I2.724 J4.071 K0.000 F30.000
G3 X11.172 Y-11.202 Z-0.500 I-58.361 J-25.659 K0.000 F30.000
G2 X11.476 Y-10.788 Z-0.500 I1.048 J-0.449 K0.000 F30.000
G2 X11.848 Y-10.652 Z-0.500 I0.256 J-0.126 K0.000 F30.000
G3 X12.715 Y-11.017 Z-0.500 I2.324 J4.311 K0.000 F30.000
G3 X12.186 Y-10.090 Z-0.500 I-55.654 J-31.089 K0.000 F30.000
G2 X12.449 Y-9.648 Z-0.500 I1.086 J-0.348 K0.000 F30.000
G2 X12.807 Y-9.478 Z-0.500 I0.267 J-0.101 K0.000 F30.000
G3 X13.704 Y-9.759 Z-0.500 I1.904 J4.513 K0.000 F30.000
G3 X13.090 Y-8.885 Z-0.500 I-52.445 J-36.237 K0.000 F30.000
G2 X13.310 Y-8.421 Z-0.500 I1.114 J-0.243 K0.000 F30.000
G2 X13.650 Y-8.218 Z-0.500 I0.276 J-0.075 K0.000 F30.000
G3 X14.570 Y-8.412 Z-0.500 I1.467 J4.673 K0.000 F30.000
G3 X13.875 Y-7.601 Z-0.500 I-48.764 J-41.059 K0.000 F30.000
G2 X14.050 Y-7.117 Z-0.500 I1.132 J-0.136 K0.000 F30.000
G2 X14.369 Y-6.883 Z-0.500 I0.282 J-0.049 K0.000 F30.000
G3 X15.303 Y-6.989 Z-0.500 I1.016 J4.792 K0.000 F30.000
G3 X14.535 Y-6.248 Z-0.500 I-44.637 J-45.505 K0.000 F30.000
G2 X14.663 Y-5.750 Z-0.500 I1.140 J-0.028 K0.000 F30.000
G2 X14.958 Y-5.486 Z-0.500 I0.285 J-0.022 K0.000 F30.000
G3 X15.898 Y-5.503 Z-0.500 I0.556 J4.866 K0.000 F30.000
G3 X15.063 Y-4.838 Z-0.500 I-40.108 J-49.540 K0.000 F30.000
G2 X15.143 Y-4.330 Z-0.500 I1.137 J0.081 K0.000 F30.000
G2 X15.412 Y-4.039 Z-0.500 I0.286 J0.005 K0.000 F30.000
G3 X16.349 Y-3.966 Z-0.500 I0.091 J4.897 K0.000 F30.000
G3 X15.455 Y-3.384 Z-0.500 I-35.222 J-53.136 K0.000 F30.000
G2 X15.486 Y-2.871 Z-0.500 I1.124 J0.189 K0.000 F30.000
G2 X15.726 Y-2.556 Z-0.500 I0.284 J0.032 K0.000 F30.000
G3 X16.652 Y-2.394 Z-0.500 I-0.375 J4.884 K0.000 F30.000
G3 X15.706 Y-1.900 Z-0.500 I-30.011 J-56.241 K0.000 F30.000
G2 X15.689 Y-1.386 Z-0.500 I1.101 J0.295 K0.000 F30.000
G2 X15.898 Y-1.050 Z-0.500 I0.280 J0.059 K0.000 F30.000
G3 X16.805 Y-0.801 Z-0.500 I-0.838 J4.826 K0.000 F30.000
G3 X15.816 Y-0.398 Z-0.500 I-24.529 J-58.839 K0.000 F30.000
G2 X15.750 Y0.112 Z-0.500 I1.068 J0.398 K0.000 F30.000
G2 X15.926 Y0.466 Z-0.500 I0.273 J0.086 K0.000 F30.000
G3 X16.805 Y0.801 Z-0.500 I-1.293 J4.724 K0.000 F30.000
G3 X15.782 Y1.107 Z-0.500 I-18.823 J-60.900 K0.000 F30.000
G2 X15.668 Y1.608 Z-0.500 I1.026 J0.498 K0.000 F30.000
G2 X15.809 Y1.978 Z-0.500 I0.263 J0.111 K0.000 F30.000
G3 X16.652 Y2.394 Z-0.500 I-1.736 J4.580 K0.000 F30.000
G3 X15.605 Y2.602 Z-0.500 I-12.950 J-62.418 K0.000 F30.000
G2 X15.444 Y3.090 Z-0.500 I0.974 J0.593 K0.000 F30.000
G2 X15.550 Y3.472 Z-0.500 I0.252 J0.136 K0.000 F30.000
G3 X16.349 Y3.966 Z-0.500 I-2.164 J4.394 K0.000 F30.000
G3 X15.287 Y4.074 Z-0.500 I-6.957 J-63.360 K0.000 F30.000
G2 X15.080 Y4.544 Z-0.500 I0.913 J0.683 K0.000 F30.000
G2 X15.149 Y4.934 Z-0.500 I0.238 J0.159 K0.000 F30.000
G3 X15.898 Y5.503 Z-0.500 I-2.571 J4.169 K0.000 F30.000
G3 X14.831 Y5.509 Z-0.500 I-0.903 J-63.737 K0.000 F30.000
G2 X14.580 Y5.957 Z-0.500 I0.844 J0.767 K0.000 F30.000
G2 X14.612 Y6.352 Z-0.500 I0.221 J0.181 K0.000 F30.000
G3 X15.303 Y6.989 Z-0.500 I-2.956 J3.905 K0.000 F30.000
G3 X14.240 Y6.894 Z-0.500 I5.159 J-63.530 K0.000 F30.000
G2 X13.948 Y7.316 Z-0.500 I0.767 J0.843 K0.000 F30.000
G2 X13.942 Y7.712 Z-0.500 I0.203 J0.201 K0.000 F30.000
G3 X14.570 Y8.412 Z-0.500 I-3.314 J3.607 K0.000 F30.000
G3 X13.520 Y8.216 Z-0.500 I11.176 J-62.760 K0.000 F30.000
G2 X13.189 Y8.609 Z-0.500 I0.684 J0.912 K0.000 F30.000
G2 X13.145 Y9.002 Z-0.500 I0.183 J0.219 K0.000 F30.000
G3 X13.704 Y9.759 Z-0.500 I-3.642 J3.275 K0.000 F30.000
G3 X12.678 Y9.464 Z-0.500 I17.090 J-61.409 K0.000 F30.000
G2 X12.311 Y9.824 Z-0.500 I0.594 J0.973 K0.000 F30.000
G2 X12.230 Y10.211 Z-0.500 I0.161 J0.236 K0.000 F30.000
G3 X12.715 Y11.017 Z-0.500 I-3.937 J2.914 K0.000 F30.000
G3 X11.721 Y10.626 Z-0.500 I22.850 J-59.505 K0.000 F30.000
G2 X11.321 Y10.949 Z-0.500 I0.499 J1.025 K0.000 F30.000
G2 X11.204 Y11.327 Z-0.500 I0.138 J0.250 K0.000 F30.000
G3 X11.610 Y12.176 Z-0.500 I-4.196 J2.527 K0.000 F30.000
G1 X11.610 Y12.176 Z-0.750 F30.000
G3 X10.658 Y11.692 Z-0.750 I28.404 J-57.067 K0.000 F30.000
G2 X10.229 Y11.976 Z-0.750 I0.399 J1.068 K0.000 F30.000
G2 X10.077 Y12.341 Z-0.750 I0.114 J0.262 K0.000 F30.000
G3 X10.400 Y13.224 Z-0.750 I-4.417 J2.117 K0.000 F30.000
G3 X9.498 Y12.652 Z-0.750 I33.699 J-54.108 K0.000 F30.000
G2 X9.045 Y12.894 Z-0.750 I0.296 J1.101 K0.000 F30.000
G2 X8.858 Y13.243 Z-0.750 I0.088 J0.272 K0.000 F30.000
G3 X9.096 Y14.153 Z-0.750 I-4.598 J1.687 K0.000 F30.000
G3 X8.253 Y13.498 Z-0.750 I38.692 J-50.661 K0.000 F30.000
G2 X7.778 Y13.695 Z-0.750 I0.190 J1.124 K0.000 F30.000
G2 X7.559 Y14.025 Z-0.750 I0.062 J0.279 K0.000 F30.000
G3 X7.709 Y14.954 Z-0.750 I-4.738 J1.243 K0.000 F30.000
G3 X6.932 Y14.221 Z-0.750 I43.332 J-46.755 K0.000 F30.000
G2 X6.441 Y14.373 Z-0.750 I0.082 J1.137 K0.000 F30.000
G2 X6.192 Y14.680 Z-0.750 I0.035 J0.284 K0.000 F30.000
G3 X6.253 Y15.619 Z-0.750 I-4.834 J0.787 K0.000 F30.000
G3 X5.549 Y14.816 Z-0.750 I47.584 J-42.427 K0.000 F30.000
G2 X5.046 Y14.920 Z-0.750 I-0.027 J1.140 K0.000 F30.000
G2 X4.768 Y15.202 Z-0.750 I0.008 J0.286 K0.000 F30.000
G3 X4.740 Y16.142 Z-0.750 I-4.887 J0.323 K0.000 F30.000
G3 X4.115 Y15.276 Z-0.750 I51.399 J-37.710 K0.000 F30.000
G2 X3.604 Y15.332 Z-0.750 I-0.135 J1.132 K0.000 F30.000
G2 X3.301 Y15.587 Z-0.750 I-0.019 J0.285 K0.000 F30.000
G3 X3.184 Y16.520 Z-0.750 I-4.896 J-0.143 K0.000 F30.000
G3 X2.645 Y15.598 Z-0.750 I54.752 J-32.654 K0.000 F30.000
G2 X2.131 Y15.605 Z-0.750 I-0.242 J1.114 K0.000 F30.000
G2 X1.805 Y15.830 Z-0.750 I-0.046 J0.282 K0.000 F30.000
G3 X1.599 Y16.748 Z-0.750 I-4.860 J-0.607 K0.000 F30.000
G3 X1.150 Y15.779 Z-0.750 I57.605 J-27.300 K0.000 F30.000
G2 X0.638 Y15.737 Z-0.750 I-0.347 J1.086 K0.000 F30.000
G2 X0.292 Y15.930 Z-0.750 I-0.072 J0.276 K0.000 F30.000
G3 X0.000 Y16.824 Z-0.750 I-4.781 J-1.067 K0.000 F30.000
G3 X-0.355 Y15.817 Z-0.750 I59.932 J-21.698 K0.000 F30.000
G2 X-0.861 Y15.726 Z-0.750 I-0.448 J1.048 K0.000 F30.000
G2 X-1.224 Y15.885 Z-0.750 I-0.098 J0.268 K0.000 F30.000
G3 X-1.599 Y16.748 Z-0.750 I-4.657 J-1.516 K0.000 F30.000
G3 X-1.857 Y15.711 Z-0.750 I61.728 J-15.904 K0.000 F30.000
G2 X-2.352 Y15.573 Z-0.750 I-0.546 J1.001 K0.000 F30.000
G2 X-2.728 Y15.697 Z-0.750 I-0.124 J0.258 K0.000 F30.000
G3 X-3.184 Y16.520 Z-0.750 I-4.492 J-1.952 K0.000 F30.000
G3 X-3.342 Y15.464 Z-0.750 I62.959 J-9.965 K0.000 F30.000
G2 X-3.822 Y15.279 Z-0.750 I-0.639 J0.944 K0.000 F30.000
G2 X-4.208 Y15.367 Z-0.750 I-0.147 J0.245 K0.000 F30.000
G3 X-4.740 Y16.142 Z-0.750 I-4.286 J-2.370 K0.000 F30.000
G3 X-4.797 Y15.076 Z-0.750 I63.629 J-3.935 K0.000 F30.000
G2 X-5.257 Y14.847 Z-0.750 I-0.726 J0.880 K0.000 F30.000
G2 X-5.649 Y14.897 Z-0.750 I-0.170 J0.230 K0.000 F30.000
G3 X-6.253 Y15.619 Z-0.750 I-4.042 J-2.767 K0.000 F30.000
G3 X-6.208 Y14.552 Z-0.750 I63.712 J2.131 K0.000 F30.000
G2 X-6.644 Y14.280 Z-0.750 I-0.806 J0.807 K0.000 F30.000
G2 X-7.040 Y14.293 Z-0.750 I-0.191 J0.213 K0.000 F30.000
G3 X-7.709 Y14.954 Z-0.750 I-3.760 J-3.139 K0.000 F30.000
G3 X-7.563 Y13.896 Z-0.750 I63.218 J8.177 K0.000 F30.000
G2 X-7.972 Y13.584 Z-0.750 I-0.879 J0.726 K0.000 F30.000
G2 X-8.367 Y13.559 Z-0.750 I-0.210 J0.193 K0.000 F30.000
G3 X-9.096 Y14.153 Z-0.750 I-3.445 J-3.482 K0.000 F30.000
G3 X-8.850 Y13.114 Z-0.750 I62.155 J14.149 K0.000 F30.000
G2 X-9.227 Y12.764 Z-0.750 I-0.944 J0.639 K0.000 F30.000
G2 X-9.618 Y12.702 Z-0.750 I-0.228 J0.173 K0.000 F30.000
G3 X-10.400 Y13.224 Z-0.750 I-3.098 J-3.794 K0.000 F30.000
G3 X-10.056 Y12.213 Z-0.750 I60.527 J19.993 K0.000 F30.000
G2 X-10.398 Y11.830 Z-0.750 I-1.000 J0.547 K0.000 F30.000
G2 X-10.782 Y11.730 Z-0.750 I-0.243 J0.150 K0.000 F30.000
G3 X-11.610 Y12.176 Z-0.750 I-2.724 J-4.071 K0.000 F30.000
G3 X-11.172 Y11.202 Z-0.750 I58.361 J25.660 K0.000 F30.000
G2 X-11.476 Y10.788 Z-0.750 I-1.048 J0.449 K0.000 F30.000
G2 X-11.848 Y10.652 Z-0.750 I-0.256 J0.126 K0.000 F30.000
G3 X-12.715 Y11.017 Z-0.750 I-2.324 J-4.311 K0.000 F30.000
G3 X-12.186 Y10.090 Z-0.750 I55.654 J31.089 K0.000 F30.000
G2 X-12.449 Y9.648 Z-0.750 I-1.086 J0.348 K0.000 F30.000
G2 X-12.807 Y9.478 Z-0.750 I-0.267 J0.101 K0.000 F30.000
G3 X-13.704 Y9.759 Z-0.750 I-1.904 J-4.513 K0.000 F30.000
G3 X-13.090 Y8.885 Z-0.750 I52.440 J36.234 K0.000 F30.000
G2 X-13.310 Y8.421 Z-0.750 I-1.114 J0.243 K0.000 F30.000
G2 X-13.650 Y8.218 Z-0.750 I-0.276 J0.075 K0.000 F30.000
G3 X-14.570 Y8.412 Z-0.750 I-1.467 J-4.673 K0.000 F30.000
G3 X-13.875 Y7.601 Z-0.750 I48.764 J41.059 K0.000 F30.000
G2 X-14.050 Y7.117 Z-0.750 I-1.132 J0.136 K0.000 F30.000
G2 X-14.369 Y6.883 Z-0.750 I-0.282 J0.049 K0.000 F30.000
G3 X-15.303 Y6.989 Z-0.750 I-1.016 J-4.792 K0.000 F30.000
G3 X-14.535 Y6.248 Z-0.750 I44.639 J45.508 K0.000 F30.000
G2 X-14.663 Y5.750 Z-0.750 I-1.140 J0.028 K0.000 F30.000
G2 X-14.958 Y5.486 Z-0.750 I-0.285 J0.022 K0.000 F30.000
G3 X-15.898 Y5.503 Z-0.750 I-0.556 J-4.866 K0.000 F30.000
G3 X-15.063 Y4.838 Z-0.750 I40.107 J49.539 K0.000 F30.000
G2 X-15.143 Y4.330 Z-0.750 I-1.137 J-0.081 K0.000 F30.000
G2 X-15.412 Y4.039 Z-0.750 I-0.286 J-0.005 K0.000 F30.000
G3 X-16.349 Y3.966 Z-0.750 I-0.091 J-4.897 K0.000 F30.000
G3 X-15.455 Y3.384 Z-0.750 I35.220 J53.132 K0.000 F30.000
G2 X-15.486 Y2.871 Z-0.750 I-1.124 J-0.189 K0.000 F30.000
G2 X-15.726 Y2.556 Z-0.750 I-0.284 J-0.032 K0.000 F30.000
G3 X-16.652 Y2.394 Z-0.750 I0.375 J-4.884 K0.000 F30.000
G3 X-15.706 Y1.900 Z-0.750 I30.010 J56.240 K0.000 F30.000
G2 X-15.689 Y1.386 Z-0.750 I-1.101 J-0.295 K0.000 F30.000
G2 X-15.898 Y1.050 Z-0.750 I-0.280 J-0.059 K0.000 F30.000
G3 X-16.805 Y0.801 Z-0.750 I0.838 J-4.826 K0.000 F30.000
G3 X-15.816 Y0.398 Z-0.750 I24.531 J58.844 K0.000 F30.000
G2 X-15.750 Y-0.112 Z-0.750 I-1.068 J-0.398 K0.000 F30.000
G2 X-15.926 Y-0.466 Z-0.750 I-0.273 J-0.086 K0.000 F30.000
G3 X-16.805 Y-0.801 Z-0.750 I1.293 J-4.724 K0.000 F30.000
G3 X-15.782 Y-1.107 Z-0.750 I18.824 J60.904 K0.000 F30.000
G2 X-15.668 Y-1.608 Z-0.750 I-1.026 J-0.498 K0.000 F30.000
G2 X-15.809 Y-1.978 Z-0.750 I-0.263 J-0.111 K0.000 F30.000
G3 X-16.652 Y-2.394 Z-0.750 I1.736 J-4.580 K0.000 F30.000
G3 X-15.605 Y-2.602 Z-0.750 I12.950 J62.417 K0.000 F30.000
G2 X-15.444 Y-3.090 Z-0.750 I-0.974 J-0.593 K0.000 F30.000
G2 X-15.550 Y-3.472 Z-0.750 I-0.252 J-0.136 K0.000 F30.000
G3 X-16.349 Y-3.966 Z-0.750 I2.164 J-4.394 K0.000 F30.000
G3 X-15.287 Y-4.074 Z-0.750 I6.958 J63.364 K0.000 F30.000
G2 X-15.080 Y-4.544 Z-0.750 I-0.913 J-0.683 K0.000 F30.000
G2 X-15.149 Y-4.934 Z-0.750 I-0.238 J-0.159 K0.000 F30.000
G3 X-15.898 Y-5.503 Z-0.750 I2.571 J-4.169 K0.000 F30.000
G3 X-14.831 Y-5.509 Z-0.750 I0.903 J63.735 K0.000 F30.000
G2 X-14.580 Y-5.957 Z-0.750 I-0.844 J-0.767 K0.000 F30.000
G2 X-14.612 Y-6.352 Z-0.750 I-0.221 J-0.181 K0.000 F30.000
G3 X-15.303 Y-6.989 Z-0.750 I2.956 J-3.905 K0.000 F30.000
G3 X-14.240 Y-6.894 Z-0.750 I-5.159 J63.531 K0.000 F30.000
G2 X-13.948 Y-7.316 Z-0.750 I-0.767 J-0.843 K0.000 F30.000
G2 X-13.942 Y-7.712 Z-0.750 I-0.203 J-0.201 K0.000 F30.000
G3 X-14.570 Y-8.412 Z-0.750 I3.314 J-3.607 K0.000 F30.000
G3 X-13.520 Y-8.216 Z-0.750 I-11.176 J62.760 K0.000 F30.000
G2 X-13.189 Y-8.609 Z-0.750 I-0.684 J-0.912 K0.000 F30.000
G2 X-13.145 Y-9.002 Z-0.750 I-0.183 J-0.219 K0.000 F30.000
G3 X-13.704 Y-9.759 Z-0.750 I3.642 J-3.275 K0.000 F30.000
G3 X-12.678 Y-9.464 Z-0.750 I-17.090 J61.409 K0.000 F30.000
G2 X-12.311 Y-9.824 Z-0.750 I-0.594 J-0.973 K0.000 F30.000
G2 X-12.230 Y-10.211 Z-0.750 I-0.161 J-0.236 K0.000 F30.000
G3 X-12.715 Y-11.017 Z-0.750 I3.937 J-2.914 K0.000 F30.000
G3 X-11.721 Y-10.626 Z-0.750 I-22.854 J59.516 K0.000 F30.000
G2 X-11.321 Y-10.949 Z-0.750 I-0.499 J-1.025 K0.000 F30.000
G2 X-11.204 Y-11.327 Z-0.750 I-0.138 J-0.250 K0.000 F30.000
G3 X-11.610 Y-12.176 Z-0.750 I4.196 J-2.527 K0.000 F30.000
G3 X-10.658 Y-11.692 Z-0.750 I-28.405 J57.069 K0.000 F30.000
G2 X-10.229 Y-11.976 Z-0.750 I-0.399 J-1.068 K0.000 F30.000
G2 X-10.077 Y-12.341 Z-0.750 I-0.114 J-0.262 K0.000 F30.000
G3 X-10.400 Y-13.224 Z-0.750 I4.417 J-2.117 K0.000 F30.000
G3 X-9.498 Y-12.652 Z-0.750 I-33.700 J54.108 K0.000 F30.000
G2 X-9.045 Y-12.894 Z-0.750 I-0.296 J-1.101 K0.000 F30.000
G2 X-8.858 Y-13.243 Z-0.750 I-0.088 J-0.272 K0.000 F30.000
G3 X-9.096 Y-14.153 Z-0.750 I4.598 J-1.687 K0.000 F30.000
G3 X-8.253 Y-13.498 Z-0.750 I-38.693 J50.663 K0.000 F30.000
G2 X-7.778 Y-13.695 Z-0.750 I-0.190 J-1.124 K0.000 F30.000
G2 X-7.559 Y-14.025 Z-0.750 I-0.062 J-0.279 K0.000 F30.000
G3 X-7.709 Y-14.954 Z-0.750 I4.738 J-1.243 K0.000 F30.000
G3 X-6.932 Y-14.221 Z-0.750 I-43.333 J46.756 K0.000 F30.000
G2 X-6.441 Y-14.373 Z-0.750 I-0.082 J-1.137 K0.000 F30.000
G2 X-6.192 Y-14.680 Z-0.750 I-0.035 J-0.284 K0.000 F30.000
G3 X-6.253 Y-15.619 Z-0.750 I4.834 J-0.787 K0.000 F30.000
G3 X-5.549 Y-14.816 Z-0.750 I-47.584 J42.427 K0.000 F30.000
G2 X-5.046 Y-14.920 Z-0.750 I0.027 J-1.140 K0.000 F30.000
G2 X-4.768 Y-15.202 Z-0.750 I-0.008 J-0.286 K0.000 F30.000
G3 X-4.740 Y-16.142 Z-0.750 I4.887 J-0.323 K0.000 F30.000
G3 X-4.115 Y-15.276 Z-0.750 I-51.399 J37.710 K0.000 F30.000
G2 X-3.604 Y-15.332 Z-0.750 I0.135 J-1.132 K0.000 F30.000
G2 X-3.301 Y-15.587 Z-0.750 I0.019 J-0.285 K0.000 F30.000
G3 X-3.184 Y-16.520 Z-0.750 I4.896 J0.143 K0.000 F30.000
G3 X-2.645 Y-15.598 Z-0.750 I-54.746 J32.651 K0.000 F30.000
G2 X-2.131 Y-15.605 Z-0.750 I0.242 J-1.114 K0.000 F30.000
G2 X-1.805 Y-15.830 Z-0.750 I0.046 J-0.282 K0.000 F30.000
G3 X-1.599 Y-16.748 Z-0.750 I4.860 J0.607 K0.000 F30.000
G3 X-1.150 Y-15.779 Z-0.750 I-57.609 J27.302 K0.000 F30.000
G2 X-0.638 Y-15.737 Z-0.750 I0.347 J-1.086 K0.000 F30.000
G2 X-0.292 Y-15.930 Z-0.750 I0.072 J-0.276 K0.000 F30.000
G3 X-0.000 Y-16.824 Z-0.750 I4.781 J1.067 K0.000 F30.000
G3 X0.355 Y-15.817 Z-0.750 I-59.937 J21.700 K0.000 F30.000
G2 X0.861 Y-15.726 Z-0.750 I0.448 J-1.048 K0.000 F30.000
G2 X1.224 Y-15.885 Z-0.750 I0.098 J-0.268 K0.000 F30.000
G3 X1.599 Y-16.748 Z-0.750 I4.657 J1.516 K0.000 F30.000
G3 X1.857 Y-15.711 Z-0.750 I-61.729 J15.905 K0.000 F30.000
G2 X2.352 Y-15.573 Z-0.750 I0.546 J-1.001 K0.000 F30.000
G2 X2.728 Y-15.697 Z-0.750 I0.124 J-0.258 K0.000 F30.000
G3 X3.184 Y-16.520 Z-0.750 I4.492 J1.952 K0.000 F30.000
G3 X3.342 Y-15.464 Z-0.750 I-62.963 J9.965 K0.000 F30.000
G2 X3.822 Y-15.279 Z-0.750 I0.639 J-0.944 K0.000 F30.000
G2 X4.208 Y-15.367 Z-0.750 I0.147 J-0.245 K0.000 F30.000
G3 X4.740 Y-16.142 Z-0.750 I4.286 J2.370 K0.000 F30.000
G3 X4.797 Y-15.076 Z-0.750 I-63.628 J3.935 K0.000 F30.000
G2 X5.257 Y-14.847 Z-0.750 I0.726 J-0.880 K0.000 F30.000
G2 X5.649 Y-14.897 Z-0.750 I0.170 J-0.230 K0.000 F30.000
G3 X6.253 Y-15.619 Z-0.750 I4.042 J2.767 K0.000 F30.000
G3 X6.208 Y-14.552 Z-0.750 I-63.712 J-2.131 K0.000 F30.000
G2 X6.644 Y-14.280 Z-0.750 I0.806 J-0.807 K0.000 F30.000
G2 X7.040 Y-14.293 Z-0.750 I0.191 J-0.213 K0.000 F30.000
G3 X7.709 Y-14.954 Z-0.750 I3.760 J3.139 K0.000 F30.000
G3 X7.563 Y-13.896 Z-0.750 I-63.218 J-8.177 K0.000 F30.000
G2 X7.972 Y-13.584 Z-0.750 I0.879 J-0.726 K0.000 F30.000
G2 X8.367 Y-13.559 Z-0.750 I0.210 J-0.193 K0.000 F30.000
G3 X9.096 Y-14.153 Z-0.750 I3.445 J3.482 K0.000 F30.000
G3 X8.850 Y-13.114 Z-0.750 I-62.154 J-14.149 K0.000 F30.000
G2 X9.227 Y-12.764 Z-0.750 I0.944 J-0.639 K0.000 F30.000
G2 X9.618 Y-12.702 Z-0.750 I0.228 J-0.173 K0.000 F30.000
G3 X10.400 Y-13.224 Z-0.750 I3.098 J3.794 K0.000 F30.000
G3 X10.056 Y-12.213 Z-0.750 I-60.527 J-19.993 K0.000 F30.000
G2 X10.398 Y-11.830 Z-0.750 I1.000 J-0.547 K0.000 F30.000
G2 X10.782 Y-11.730 Z-0.750 I0.243 J-0.150 K0.000 F30.000
G3 X11.610 Y-12.176 Z-0.750 I2.724 J4.071 K0.000 F30.000
G3 X11.172 Y-11.202 Z-0.750 I-58.361 J-25.659 K0.000 F30.000
G2 X11.476 Y-10.788 Z-0.750 I1.048 J-0.449 K0.000 F30.000
G2 X11.848 Y-10.652 Z-0.750 I0.256 J-0.126 K0.000 F30.000
G3 X12.715 Y-11.017 Z-0.750 I2.324 J4.311 K0.000 F30.000
G3 X12.186 Y-10.090 Z-0.750 I-55.654 J-31.089 K0.000 F30.000
G2 X12.449 Y-9.648 Z-0.750 I1.086 J-0.348 K0.000 F30.000
G2 X12.807 Y-9.478 Z-0.750 I0.267 J-0.101 K0.000 F30.000
G3 X13.704 Y-9.759 Z-0.750 I1.904 J4.513 K0.000 F30.000
G3 X13.090 Y-8.885 Z-0.750 I-52.445 J-36.237 K0.000 F30.000
G2 X13.310 Y-8.421 Z-0.750 I1.114 J-0.243 K0.000 F30.000
G2 X13.650 Y-8.218 Z-0.750 I0.276 J-0.075 K0.000 F30.000
G3 X14.570 Y-8.412 Z-0.750 I1.467 J4.673 K0.000 F30.000
G3 X13.875 Y-7.601 Z-0.750 I-48.764 J-41.059 K0.000 F30.000
G2 X14.050 Y-7.117 Z-0.750 I1.132 J-0.136 K0.000 F30.000
G2 X14.369 Y-6.883 Z-0.750 I0.282 J-0.049 K0.000 F30.000
G3 X15.303 Y-6.989 Z-0.750 I1.016 J4.792 K0.000 F30.000
G3 X14.535 Y-6.248 Z-0.750 I-44.637 J-45.505 K0.000 F30.000
G2 X14.663 Y-5.750 Z-0.750 I1.140 J-0.028 K0.000 F30.000
G2 X14.958 Y-5.486 Z-0.750 I0.285 J-0.022 K0.000 F30.000
G3 X15.898 Y-5.503 Z-0.750 I0.556 J4.866 K0.000 F30.000
G3 X15.063 Y-4.838 Z-0.750 I-40.108 J-49.540 K0.000 F30.000
G2 X15.143 Y-4.330 Z-0.750 I1.137 J0.081 K0.000 F30.000
G2 X15.412 Y-4.039 Z-0.750 I0.286 J0.005 K0.000 F30.000
G3 X16.349 Y-3.966 Z-0.750 I0.091 J4.897 K0.000 F30.000
G3 X15.455 Y-3.384 Z-0.750 I-35.222 J-53.136 K0.000 F30.000
G2 X15.486 Y-2.871 Z-0.750 I1.124 J0.189 K0.000 F30.000
G2 X15.726 Y-2.556 Z-0.750 I0.284 J0.032 K0.000 F30.000
G3 X16.652 Y-2.394 Z-0.750 I-0.375 J4.884 K0.000 F30.000
G3 X15.706 Y-1.900 Z-0.750 I-30.011 J-56.241 K0.000 F30.000
G2 X15.689 Y-1.386 Z-0.750 I1.101 J0.295 K0.000 F30.000
G2 X15.898 Y-1.050 Z-0.750 I0.280 J0.059 K0.000 F30.000
G3 X16.805 Y-0.801 Z-0.750 I-0.838 J4.826 K0.000 F30.000
G3 X15.816 Y-0.398 Z-0.750 I-24.529 J-58.839 K0.000 F30.000
G2 X15.750 Y0.112 Z-0.750 I1.068 J0.398 K0.000 F30.000
G2 X15.926 Y0.466 Z-0.750 I0.273 J0.086 K0.000 F30.000
G3 X16.805 Y0.801 Z-0.750 I-1.293 J4.724 K0.000 F30.000
G3 X15.782 Y1.107 Z-0.750 I-18.823 J-60.900 K0.000 F30.000
G2 X15.668 Y1.608 Z-0.750 I1.026 J0.498 K0.000 F30.000
G2 X15.809 Y1.978 Z-0.750 I0.263 J0.111 K0.000 F30.000
G3 X16.652 Y2.394 Z-0.750 I-1.736 J4.580 K0.000 F30.000
G3 X15.605 Y2.602 Z-0.750 I-12.950 J-62.418 K0.000 F30.000
G2 X15.444 Y3.090 Z-0.750 I0.974 J0.593 K0.000 F30.000
G2 X15.550 Y3.472 Z-0.750 I0.252 J0.136 K0.000 F30.000
G3 X16.349 Y3.966 Z-0.750 I-2.164 J4.394 K0.000 F30.000
G3 X15.287 Y4.074 Z-0.750 I-6.957 J-63.360 K0.000 F30.000
G2 X15.080 Y4.544 Z-0.750 I0.913 J0.683 K0.000 F30.000
G2 X15.149 Y4.934 Z-0.750 I0.238 J0.159 K0.000 F30.000
G3 X15.898 Y5.503 Z-0.750 I-2.571 J4.169 K0.000 F30.000
G3 X14.831 Y5.509 Z-0.750 I-0.903 J-63.737 K0.000 F30.000
G2 X14.580 Y5.957 Z-0.750 I0.844 J0.767 K0.000 F30.000
G2 X14.612 Y6.352 Z-0.750 I0.221 J0.181 K0.000 F30.000
G3 X15.303 Y6.989 Z-0.750 I-2.956 J3.905 K0.000 F30.000
G3 X14.240 Y6.894 Z-0.750 I5.159 J-63.530 K0.000 F30.000
G2 X13.948 Y7.316 Z-0.750 I0.767 J0.843 K0.000 F30.000
G2 X13.942 Y7.712 Z-0.750 I0.203 J0.201 K0.000 F30.000
G3 X14.570 Y8.412 Z-0.750 I-3.314 J3.607 K0.000 F30.000
G3 X13.520 Y8.216 Z-0.750 I11.176 J-62.760 K0.000 F30.000
G2 X13.189 Y8.609 Z-0.750 I0.684 J0.912 K0.000 F30.000
G2 X13.145 Y9.002 Z-0.750 I0.183 J0.219 K0.000 F30.000
G3 X13.704 Y9.759 Z-0.750 I-3.642 J3.275 K0.000 F30.000
G3 X12.678 Y9.464 Z-0.750 I17.090 J-61.409 K0.000 F30.000
G2 X12.311 Y9.824 Z-0.750 I0.594 J0.973 K0.000 F30.000
G2 X12.230 Y10.211 Z-0.750 I0.161 J0.236 K0.000 F30.000
G3 X12.715 Y11.017 Z-0.750 I-3.937 J2.914 K0.000 F30.000
G3 X11.721 Y10.626 Z-0.750 I22.850 J-59.505 K0.000 F30.000
G2 X11.321 Y10.949 Z-0.750 I0.499 J1.025 K0.000 F30.000
G2 X11.204 Y11.327 Z-0.750 I0.138 J0.250 K0.000 F30.000
G3 X11.610 Y12.176 Z-0.750 I-4.196 J2.527 K0.000 F30.000
G1 X11.610 Y12.176 Z-1.000 F30.000
G3 X10.658 Y11.692 Z-1.000 I28.404 J-57.067 K0.000 F30.000
G2 X10.229 Y11.976 Z-1.000 I0.399 J1.068 K0.000 F30.000
G2 X10.077 Y12.341 Z-1.000 I0.114 J0.262 K0.000 F30.000
G3 X10.400 Y13.224 Z-1.000 I-4.417 J2.117 K0.000 F30.000
G3 X9.498 Y12.652 Z-1.000 I33.699 J-54.108 K0.000 F30.000
G2 X9.045 Y12.894 Z-1.000 I0.296 J1.101 K0.000 F30.000
G2 X8.858 Y13.243 Z-1.000 I0.088 J0.272 K0.000 F30.000
G3 X9.096 Y14.153 Z-1.000 I-4.598 J1.687 K0.000 F30.000
G3 X8.253 Y13.498 Z-1.000 I38.692 J-50.661 K0.000 F30.000
G2 X7.778 Y13.695 Z-1.000 I0.190 J1.124 K0.000 F30.000
G2 X7.559 Y14.025 Z-1.000 I0.062 J0.279 K0.000 F30.000
G3 X7.709 Y14.954 Z-1.000 I-4.738 J1.243 K0.000 F30.000
G3 X6.932 Y14.221 Z-1.000 I43.332 J-46.755 K0.000 F30.000
G2 X6.441 Y14.373 Z-1.000 I0.082 J1.137 K0.000 F30.000
G2 X6.192 Y14.680 Z-1.000 I0.035 J0.284 K0.000 F30.000
G3 X6.253 Y15.619 Z-1.000 I-4.834 J0.787 K0.000 F30.000
G3 X5.549 Y14.816 Z-1.000 I47.584 J-42.427 K0.000 F30.000
G2 X5.046 Y14.920 Z-1.000 I-0.027 J1.140 K0.000 F30.000
G2 X4.768 Y15.202 Z-1.000 I0.008 J0.286 K0.000 F30.000
G3 X4.740 Y16.142 Z-1.000 I-4.887 J0.323 K0.000 F30.000
G3 X4.115 Y15.276 Z-1.000 I51.399 J-37.710 K0.000 F30.000
G2 X3.604 Y15.332 Z-1.000 I-0.135 J1.132 K0.000 F30.000
G2 X3.301 Y15.587 Z-1.000 I-0.019 J0.285 K0.000 F30.000
G3 X3.184 Y16.520 Z-1.000 I-4.896 J-0.143 K0.000 F30.000
G3 X2.645 Y15.598 Z-1.000 I54.752 J-32.654 K0.000 F30.000
G2 X2.131 Y15.605 Z-1.000 I-0.242 J1.114 K0.000 F30.000
G2 X1.805 Y15.830 Z-1.000 I-0.046 J0.282 K0.000 F30.000
G3 X1.599 Y16.748 Z-1.000 I-4.860 J-0.607 K0.000 F30.000
G3 X1.150 Y15.779 Z-1.000 I57.605 J-27.300 K0.000 F30.000
G2 X0.638 Y15.737 Z-1.000 I-0.347 J1.086 K0.000 F30.000
G2 X0.292 Y15.930 Z-1.000 I-0.072 J0.276 K0.000 F30.000
G3 X0.000 Y16.824 Z-1.000 I-4.781 J-1.067 K0.000 F30.000
G3 X-0.355 Y15.817 Z-1.000 I59.932 J-21.698 K0.000 F30.000
G2 X-0.861 Y15.726 Z-1.000 I-0.448 J1.048 K0.000 F30.000
G2 X-1.224 Y15.885 Z-1.000 I-0.098 J0.268 K0.000 F30.000
G3 X-1.599 Y16.748 Z-1.000 I-4.657 J-1.516 K0.000 F30.000
G3 X-1.857 Y15.711 Z-1.000 I61.728 J-15.904 K0.000 F30.000
G2 X-2.352 Y15.573 Z-1.000 I-0.546 J1.001 K0.000 F30.000
G2 X-2.728 Y15.697 Z-1.000 I-0.124 J0.258 K0.000 F30.000
G3 X-3.184 Y16.520 Z-1.000 I-4.492 J-1.952 K0.000 F30.000
G3 X-3.342 Y15.464 Z-1.000 I62.959 J-9.965 K0.000 F30.000
G2 X-3.822 Y15.279 Z-1.000 I-0.639 J0.944 K0.000 F30.000
G2 X-4.208 Y15.367 Z-1.000 I-0.147 J0.245 K0.000 F30.000
G3 X-4.740 Y16.142 Z-1.000 I-4.286 J-2.370 K0.000 F30.000
G3 X-4.797 Y15.076 Z-1.000 I63.629 J-3.935 K0.000 F30.000
G2 X-5.257 Y14.847 Z-1.000 I-0.726 J0.880 K0.000 F30.000
G2 X-5.649 Y14.897 Z-1.000 I-0.170 J0.230 K0.000 F30.000
G3 X-6.253 Y15.619 Z-1.000 I-4.042 J-2.767 K0.000 F30.000
G3 X-6.208 Y14.552 Z-1.000 I63.712 J2.131 K0.000 F30.000
G2 X-6.644 Y14.280 Z-1.000 I-0.806 J0.807 K0.000 F30.000
G2 X-7.040 Y14.293 Z-1.000 I-0.191 J0.213 K0.000 F30.000
G3 X-7.709 Y14.954 Z-1.000 I-3.760 J-3.139 K0.000 F30.000
G3 X-7.563 Y13.896 Z-1.000 I63.218 J8.177 K0.000 F30.000
G2 X-7.972 Y13.584 Z-1.000 I-0.879 J0.726 K0.000 F30.000
G2 X-8.367 Y13.559 Z-1.000 I-0.210 J0.193 K0.000 F30.000
G3 X-9.096 Y14.153 Z-1.000 I-3.445 J-3.482 K0.000 F30.000
G3 X-8.850 Y13.114 Z-1.000 I62.155 J14.149 K0.000 F30.000
G2 X-9.227 Y12.764 Z-1.000 I-0.944 J0.639 K0.000 F30.000
G2 X-9.618 Y12.702 Z-1.000 I-0.228 J0.173 K0.000 F30.000
G3 X-10.400 Y13.224 Z-1.000 I-3.098 J-3.794 K0.000 F30.000
G3 X-10.056 Y12.213 Z-1.000 I60.527 J19.993 K0.000 F30.000
G2 X-10.398 Y11.830 Z-1.000 I-1.000 J0.547 K0.000 F30.000
G2 X-10.782 Y11.730 Z-1.000 I-0.243 J0.150 K0.000 F30.000
G3 X-11.610 Y12.176 Z-1.000 I-2.724 J-4.071 K0.000 F30.000
G3 X-11.172 Y11.202 Z-1.000 I58.361 J25.660 K0.000 F30.000
G2 X-11.476 Y10.788 Z-1.000 I-1.048 J0.449 K0.000 F30.000
G2 X-11.848 Y10.652 Z-1.000 I-0.256 J0.126 K0.000 F30.000
G3 X-12.715 Y11.017 Z-1.000 I-2.324 J-4.311 K0.000 F30.000
G3 X-12.186 Y10.090 Z-1.000 I55.654 J31.089 K0.000 F30.000
G2 X-12.449 Y9.648 Z-1.000 I-1.086 J0.348 K0.000 F30.000
G2 X-12.807 Y9.478 Z-1.000 I-0.267 J0.101 K0.000 F30.000
G3 X-13.704 Y9.759 Z-1.000 I-1.904 J-4.513 K0.000 F30.000
G3 X-13.090 Y8.885 Z-1.000 I52.440 J36.234 K0.000 F30.000
G2 X-13.310 Y8.421 Z-1.000 I-1.114 J0.243 K0.000 F30.000
G2 X-13.650 Y8.218 Z-1.000 I-0.276 J0.075 K0.000 F30.000
G3 X-14.570 Y8.412 Z-1.000 I-1.467 J-4.673 K0.000 F30.000
G3 X-13.875 Y7.601 Z-1.000 I48.764 J41.059 K0.000 F30.000
G2 X-14.050 Y7.117 Z-1.000 I-1.132 J0.136 K0.000 F30.000
G2 X-14.369 Y6.883 Z-1.000 I-0.282 J0.049 K0.000 F30.000
G3 X-15.303 Y6.989 Z-1.000 I-1.016 J-4.792 K0.000 F30.000
G3 X-14.535 Y6.248 Z-1.000 I44.639 J45.508 K0.000 F30.000
G2 X-14.663 Y5.750 Z-1.000 I-1.140 J0.028 K0.000 F30.000
G2 X-14.958 Y5.486 Z-1.000 I-0.285 J0.022 K0.000 F30.000
G3 X-15.898 Y5.503 Z-1.000 I-0.556 J-4.866 K0.000 F30.000
G3 X-15.063 Y4.838 Z-1.000 I40.107 J49.539 K0.000 F30.000
G2 X-15.143 Y4.330 Z-1.000 I-1.137 J-0.081 K0.000 F30.000
G2 X-15.412 Y4.039 Z-1.000 I-0.286 J-0.005 K0.000 F30.000
G3 X-16.349 Y3.966 Z-1.000 I-0.091 J-4.897 K0.000 F30.000
G3 X-15.455 Y3.384 Z-1.000 I35.220 J53.132 K0.000 F30.000
G2 X-15.486 Y2.871 Z-1.000 I-1.124 J-0.189 K0.000 F30.000
G2 X-15.726 Y2.556 Z-1.000 I-0.284 J-0.032 K0.000 F30.000
G3 X-16.652 Y2.394 Z-1.000 I0.375 J-4.884 K0.000 F30.000
G3 X-15.706 Y1.900 Z-1.000 I30.010 J56.240 K0.000 F30.000
G2 X-15.689 Y1.386 Z-1.000 I-1.101 J-0.295 K0.000 F30.000
G2 X-15.898 Y1.050 Z-1.000 I-0.280 J-0.059 K0.000 F30.000
G3 X-16.805 Y0.801 Z-1.000 I0.838 J-4.826 K0.000 F30.000
G3 X-15.816 Y0.398 Z-1.000 I24.531 J58.844 K0.000 F30.000
G2 X-15.750 Y-0.112 Z-1.000 I-1.068 J-0.398 K0.000 F30.000
G2 X-15.926 Y-0.466 Z-1.000 I-0.273 J-0.086 K0.000 F30.000
G3 X-16.805 Y-0.801 Z-1.000 I1.293 J-4.724 K0.000 F30.000
G3 X-15.782 Y-1.107 Z-1.000 I18.824 J60.904 K0.000 F30.000
G2 X-15.668 Y-1.608 Z-1.000 I-1.026 J-0.498 K0.000 F30.000
G2 X-15.809 Y-1.978 Z-1.000 I-0.263 J-0.111 K0.000 F30.000
G3 X-16.652 Y-2.394 Z-1.000 I1.736 J-4.580 K0.000 F30.000
G3 X-15.605 Y-2.602 Z-1.000 I12.950 J62.417 K0.000 F30.000
G2 X-15.444 Y-3.090 Z-1.000 I-0.974 J-0.593 K0.000 F30.000
G2 X-15.550 Y-3.472 Z-1.000 I-0.252 J-0.136 K0.000 F30.000
G3 X-16.349 Y-3.966 Z-1.000 I2.164 J-4.394 K0.000 F30.000
G3 X-15.287 Y-4.074 Z-1.000 I6.958 J63.364 K0.000 F30.000
G2 X-15.080 Y-4.544 Z-1.000 I-0.913 J-0.683 K0.000 F30.000
G2 X-15.149 Y-4.934 Z-1.000 I-0.238 J-0.159 K0.000 F30.000
G3 X-15.898 Y-5.503 Z-1.000 I2.571 J-4.169 K0.000 F30.000
G3 X-14.831 Y-5.509 Z-1.000 I0.903 J63.735 K0.000 F30.000
G2 X-14.580 Y-5.957 Z-1.000 I-0.844 J-0.767 K0.000 F30.000
G2 X-14.612 Y-6.352 Z-1.000 I-0.221 J-0.181 K0.000 F30.000
G3 X-15.303 Y-6.989 Z-1.000 I2.956 J-3.905 K0.000 F30.000
G3 X-14.240 Y-6.894 Z-1.000 I-5.159 J63.531 K0.000 F30.000
G2 X-13.948 Y-7.316 Z-1.000 I-0.767 J-0.843 K0.000 F30.000
G2 X-13.942 Y-7.712 Z-1.000 I-0.203 J-0.201 K0.000 F30.000
G3 X-14.570 Y-8.412 Z-1.000 I3.314 J-3.607 K0.000 F30.000
G3 X-13.520 Y-8.216 Z-1.000 I-11.176 J62.760 K0.000 F30.000
G2 X-13.189 Y-8.609 Z-1.000 I-0.684 J-0.912 K0.000 F30.000
G2 X-13.145 Y-9.002 Z-1.000 I-0.183 J-0.219 K0.000 F30.000
G3 X-13.704 Y-9.759 Z-1.000 I3.642 J-3.275 K0.000 F30.000
G3 X-12.678 Y-9.464 Z-1.000 I-17.090 J61.409 K0.000 F30.000
G2 X-12.311 Y-9.824 Z-1.000 I-0.594 J-0.973 K0.000 F30.000
G2 X-12.230 Y-10.211 Z-1.000 I-0.161 J-0.236 K0.000 F30.000
G3 X-12.715 Y-11.017 Z-1.000 I3.937 J-2.914 K0.000 F30.000
G3 X-11.721 Y-10.626 Z-1.000 I-22.854 J59.516 K0.000 F30.000
G2 X-11.321 Y-10.949 Z-1.000 I-0.499 J-1.025 K0.000 F30.000
G2 X-11.204 Y-11.327 Z-1.000 I-0.138 J-0.250 K0.000 F30.000
G3 X-11.610 Y-12.176 Z-1.000 I4.196 J-2.527 K0.000 F30.000
G3 X-10.658 Y-11.692 Z-1.000 I-28.405 J57.069 K0.000 F30.000
G2 X-10.229 Y-11.976 Z-1.000 I-0.399 J-1.068 K0.000 F30.000
G2 X-10.077 Y-12.341 Z-1.000 I-0.114 J-0.262 K0.000 F30.000
G3 X-10.400 Y-13.224 Z-1.000 I4.417 J-2.117 K0.000 F30.000
G3 X-9.498 Y-12.652 Z-1.000 I-33.700 J54.108 K0.000 F30.000
G2 X-9.045 Y-12.894 Z-1.000 I-0.296 J-1.101 K0.000 F30.000
G2 X-8.858 Y-13.243 Z-1.000 I-0.088 J-0.272 K0.000 F30.000
G3 X-9.096 Y-14.153 Z-1.000 I4.598 J-1.687 K0.000 F30.000
G3 X-8.253 Y-13.498 Z-1.000 I-38.693 J50.663 K0.000 F30.000
G2 X-7.778 Y-13.695 Z-1.000 I-0.190 J-1.124 K0.000 F30.000
G2 X-7.559 Y-14.025 Z-1.000 I-0.062 J-0.279 K0.000 F30.000
G3 X-7.709 Y-14.954 Z-1.000 I4.738 J-1.243 K0.000 F30.000
G3 X-6.932 Y-14.221 Z-1.000 I-43.333 J46.756 K0.000 F30.000
G2 X-6.441 Y-14.373 Z-1.000 I-0.082 J-1.137 K0.000 F30.000
G2 X-6.192 Y-14.680 Z-1.000 I-0.035 J-0.284 K0.000 F30.000
G3 X-6.253 Y-15.619 Z-1.000 I4.834 J-0.787 K0.000 F30.000
G3 X-5.549 Y-14.816 Z-1.000 I-47.584 J42.427 K0.000 F30.000
G2 X-5.046 Y-14.920 Z-1.000 I0.027 J-1.140 K0.000 F30.000
G2 X-4.768 Y-15.202 Z-1.000 I-0.008 J-0.286 K0.000 F30.000
G3 X-4.740 Y-16.142 Z-1.000 I4.887 J-0.323 K0.000 F30.000
G3 X-4.115 Y-15.276 Z-1.000 I-51.399 J37.710 K0.000 F30.000
G2 X-3.604 Y-15.332 Z-1.000 I0.135 J-1.132 K0.000 F30.000
G2 X-3.301 Y-15.587 Z-1.000 I0.019 J-0.285 K0.000 F30.000
G3 X-3.184 Y-16.520 Z-1.000 I4.896 J0.143 K0.000 F30.000
G3 X-2.645 Y-15.598 Z-1.000 I-54.746 J32.651 K0.000 F30.000
G2 X-2.131 Y-15.605 Z-1.000 I0.242 J-1.114 K0.000 F30.000
G2 X-1.805 Y-15.830 Z-1.000 I0.046 J-0.282 K0.000 F30.000
G3 X-1.599 Y-16.748 Z-1.000 I4.860 J0.607 K0.000 F30.000
G3 X-1.150 Y-15.779 Z-1.000 I-57.609 J27.302 K0.000 F30.000
G2 X-0.638 Y-15.737 Z-1.000 I0.347 J-1.086 K0.000 F30.000
G2 X-0.292 Y-15.930 Z-1.000 I0.072 J-0.276 K0.000 F30.000
G3 X-0.000 Y-16.824 Z-1.000 I4.781 J1.067 K0.000 F30.000
G3 X0.355 Y-15.817 Z-1.000 I-59.937 J21.700 K0.000 F30.000
G2 X0.861 Y-15.726 Z-1.000 I0.448 J-1.048 K0.000 F30.000
G2 X1.224 Y-15.885 Z-1.000 I0.098 J-0.268 K0.000 F30.000
G3 X1.599 Y-16.748 Z-1.000 I4.657 J1.516 K0.000 F30.000
G3 X1.857 Y-15.711 Z-1.000 I-61.729 J15.905 K0.000 F30.000
G2 X2.352 Y-15.573 Z-1.000 I0.546 J-1.001 K0.000 F30.000
G2 X2.728 Y-15.697 Z-1.000 I0.124 J-0.258 K0.000 F30.000
G3 X3.184 Y-16.520 Z-1.000 I4.492 J1.952 K0.000 F30.000
G3 X3.342 Y-15.464 Z-1.000 I-62.963 J9.965 K0.000 F30.000
G2 X3.822 Y-15.279 Z-1.000 I0.639 J-0.944 K0.000 F30.000
G2 X4.208 Y-15.367 Z-1.000 I0.147 J-0.245 K0.000 F30.000
G3 X4.740 Y-16.142 Z-1.000 I4.286 J2.370 K0.000 F30.000
G3 X4.797 Y-15.076 Z-1.000 I-63.628 J3.935 K0.000 F30.000
G2 X5.257 Y-14.847 Z-1.000 I0.726 J-0.880 K0.000 F30.000
G2 X5.649 Y-14.897 Z-1.000 I0.170 J-0.230 K0.000 F30.000
G3 X6.253 Y-15.619 Z-1.000 I4.042 J2.767 K0.000 F30.000
G3 X6.208 Y-14.552 Z-1.000 I-63.712 J-2.131 K0.000 F30.000
G2 X6.644 Y-14.280 Z-1.000 I0.806 J-0.807 K0.000 F30.000
G2 X7.040 Y-14.293 Z-1.000 I0.191 J-0.213 K0.000 F30.000
G3 X7.709 Y-14.954 Z-1.000 I3.760 J3.139 K0.000 F30.000
G3 X7.563 Y-13.896 Z-1.000 I-63.218 J-8.177 K0.000 F30.000
G2 X7.972 Y-13.584 Z-1.000 I0.879 J-0.726 K0.000 F30.000
G2 X8.367 Y-13.559 Z-1.000 I0.210 J-0.193 K0.000 F30.000
G3 X9.096 Y-14.153 Z-1.000 I3.445 J3.482 K0.000 F30.000
G3 X8.850 Y-13.114 Z-1.000 I-62.154 J-14.149 K0.000 F30.000
G2 X9.227 Y-12.764 Z-1.000 I0.944 J-0.639 K0.000 F30.000
G2 X9.618 Y-12.702 Z-1.000 I0.228 J-0.173 K0.000 F30.000
G3 X10.400 Y-13.224 Z-1.000 I3.098 J3.794 K0.000 F30.000
G3 X10.056 Y-12.213 Z-1.000 I-60.527 J-19.993 K0.000 F30.000
G2 X10.398 Y-11.830 Z-1.000 I1.000 J-0.547 K0.000 F30.000
G2 X10.782 Y-11.730 Z-1.000 I0.243 J-0.150 K0.000 F30.000
G3 X11.610 Y-12.176 Z-1.000 I2.724 J4.071 K0.000 F30.000
G3 X11.172 Y-11.202 Z-1.000 I-58.361 J-25.659 K0.000 F30.000
G2 X11.476 Y-10.788 Z-1.000 I1.048 J-0.449 K0.000 F30.000
G2 X11.848 Y-10.652 Z-1.000 I0.256 J-0.126 K0.000 F30.000
G3 X12.715 Y-11.017 Z-1.000 I2.324 J4.311 K0.000 F30.000
G3 X12.186 Y-10.090 Z-1.000 I-55.654 J-31.089 K0.000 F30.000
G2 X12.449 Y-9.648 Z-1.000 I1.086 J-0.348 K0.000 F30.000
G2 X12.807 Y-9.478 Z-1.000 I0.267 J-0.101 K0.000 F30.000
G3 X13.704 Y-9.759 Z-1.000 I1.904 J4.513 K0.000 F30.000
G3 X13.090 Y-8.885 Z-1.000 I-52.445 J-36.237 K0.000 F30.000
G2 X13.310 Y-8.421 Z-1.000 I1.114 J-0.243 K0.000 F30.000
G2 X13.650 Y-8.218 Z-1.000 I0.276 J-0.075 K0.000 F30.000
G3 X14.570 Y-8.412 Z-1.000 I1.467 J4.673 K0.000 F30.000
G3 X13.875 Y-7.601 Z-1.000 I-48.764 J-41.059 K0.000 F30.000
G2 X14.050 Y-7.117 Z-1.000 I1.132 J-0.136 K0.000 F30.000
G2 X14.369 Y-6.883 Z-1.000 I0.282 J-0.049 K0.000 F30.000
G3 X15.303 Y-6.989 Z-1.000 I1.016 J4.792 K0.000 F30.000
G3 X14.535 Y-6.248 Z-1.000 I-44.637 J-45.505 K0.000 F30.000
G2 X14.663 Y-5.750 Z-1.000 I1.140 J-0.028 K0.000 F30.000
G2 X14.958 Y-5.486 Z-1.000 I0.285 J-0.022 K0.000 F30.000
G3 X15.898 Y-5.503 Z-1.000 I0.556 J4.866 K0.000 F30.000
G3 X15.063 Y-4.838 Z-1.000 I-40.108 J-49.540 K0.000 F30.000
G2 X15.143 Y-4.330 Z-1.000 I1.137 J0.081 K0.000 F30.000
G2 X15.412 Y-4.039 Z-1.000 I0.286 J0.005 K0.000 F30.000
G3 X16.349 Y-3.966 Z-1.000 I0.091 J4.897 K0.000 F30.000
G3 X15.455 Y-3.384 Z-1.000 I-35.222 J-53.136 K0.000 F30.000
G2 X15.486 Y-2.871 Z-1.000 I1.124 J0.189 K0.000 F30.000
G2 X15.726 Y-2.556 Z-1.000 I0.284 J0.032 K0.000 F30.000
G3 X16.652 Y-2.394 Z-1.000 I-0.375 J4.884 K0.000 F30.000
G3 X15.706 Y-1.900 Z-1.000 I-30.011 J-56.241 K0.000 F30.000
G2 X15.689 Y-1.386 Z-1.000 I1.101 J0.295 K0.000 F30.000
G2 X15.898 Y-1.050 Z-1.000 I0.280 J0.059 K0.000 F30.000
G3 X16.805 Y-0.801 Z-1.000 I-0.838 J4.826 K0.000 F30.000
G3 X15.816 Y-0.398 Z-1.000 I-24.529 J-58.839 K0.000 F30.000
G2 X15.750 Y0.112 Z-1.000 I1.068 J0.398 K0.000 F30.000
G2 X15.926 Y0.466 Z-1.000 I0.273 J0.086 K0.000 F30.000
G3 X16.805 Y0.801 Z-1.000 I-1.293 J4.724 K0.000 F30.000
G3 X15.782 Y1.107 Z-1.000 I-18.823 J-60.900 K0.000 F30.000
G2 X15.668 Y1.608 Z-1.000 I1.026 J0.498 K0.000 F30.000
G2 X15.809 Y1.978 Z-1.000 I0.263 J0.111 K0.000 F30.000
G3 X16.652 Y2.394 Z-1.000 I-1.736 J4.580 K0.000 F30.000
G3 X15.605 Y2.602 Z-1.000 I-12.950 J-62.418 K0.000 F30.000
G2 X15.444 Y3.090 Z-1.000 I0.974 J0.593 K0.000 F30.000
G2 X15.550 Y3.472 Z-1.000 I0.252 J0.136 K0.000 F30.000
G3 X16.349 Y3.966 Z-1.000 I-2.164 J4.394 K0.000 F30.000
G3 X15.287 Y4.074 Z-1.000 I-6.957 J-63.360 K0.000 F30.000
G2 X15.080 Y4.544 Z-1.000 I0.913 J0.683 K0.000 F30.000
G2 X15.149 Y4.934 Z-1.000 I0.238 J0.159 K0.000 F30.000
G3 X15.898 Y5.503 Z-1.000 I-2.571 J4.169 K0.000 F30.000
G3 X14.831 Y5.509 Z-1.000 I-0.903 J-63.737 K0.000 F30.000
G2 X14.580 Y5.957 Z-1.000 I0.844 J0.767 K0.000 F30.000
G2 X14.612 Y6.352 Z-1.000 I0.221 J0.181 K0.000 F30.000
G3 X15.303 Y6.989 Z-1.000 I-2.956 J3.905 K0.000 F30.000
G3 X14.240 Y6.894 Z-1.000 I5.159 J-63.530 K0.000 F30.000
G2 X13.948 Y7.316 Z-1.000 I0.767 J0.843 K0.000 F30.000
G2 X13.942 Y7.712 Z-1.000 I0.203 J0.201 K0.000 F30.000
G3 X14.570 Y8.412 Z-1.000 I-3.314 J3.607 K0.000 F30.000
G3 X13.520 Y8.216 Z-1.000 I11.176 J-62.760 K0.000 F30.000
G2 X13.189 Y8.609 Z-1.000 I0.684 J0.912 K0.000 F30.000
G2 X13.145 Y9.002 Z-1.000 I0.183 J0.219 K0.000 F30.000
G3 X13.704 Y9.759 Z-1.000 I-3.642 J3.275 K0.000 F30.000
G3 X12.678 Y9.464 Z-1.000 I17.090 J-61.409 K0.000 F30.000
G2 X12.311 Y9.824 Z-1.000 I0.594 J0.973 K0.000 F30.000
G2 X12.230 Y10.211 Z-1.000 I0.161 J0.236 K0.000 F30.000
G3 X12.715 Y11.017 Z-1.000 I-3.937 J2.914 K0.000 F30.000
G3 X11.721 Y10.626 Z-1.000 I22.850 J-59.505 K0.000 F30.000
G2 X11.321 Y10.949 Z-1.000 I0.499 J1.025 K0.000 F30.000
G2 X11.204 Y11.327 Z-1.000 I0.138 J0.250 K0.000 F30.000
G3 X11.610 Y12.176 Z-1.000 I-4.196 J2.527 K0.000 F30.000
G1 X11.610 Y12.176 Z-1.250 F30.000
G3 X10.658 Y11.692 Z-1.250 I28.404 J-57.067 K0.000 F30.000
G2 X10.229 Y11.976 Z-1.250 I0.399 J1.068 K0.000 F30.000
G2 X10.077 Y12.341 Z-1.250 I0.114 J0.262 K0.000 F30.000
G3 X10.400 Y13.224 Z-1.250 I-4.417 J2.117 K0.000 F30.000
G3 X9.498 Y12.652 Z-1.250 I33.699 J-54.108 K0.000 F30.000
G2 X9.045 Y12.894 Z-1.250 I0.296 J1.101 K0.000 F30.000
G2 X8.858 Y13.243 Z-1.250 I0.088 J0.272 K0.000 F30.000
G3 X9.096 Y14.153 Z-1.250 I-4.598 J1.687 K0.000 F30.000
G3 X8.253 Y13.498 Z-1.250 I38.692 J-50.661 K0.000 F30.000
G2 X7.778 Y13.695 Z-1.250 I0.190 J1.124 K0.000 F30.000
G2 X7.559 Y14.025 Z-1.250 I0.062 J0.279 K0.000 F30.000
G3 X7.709 Y14.954 Z-1.250 I-4.738 J1.243 K0.000 F30.000
G3 X6.932 Y14.221 Z-1.250 I43.332 J-46.755 K0.000 F30.000
G2 X6.441 Y14.373 Z-1.250 I0.082 J1.137 K0.000 F30.000
G2 X6.192 Y14.680 Z-1.250 I0.035 J0.284 K0.000 F30.000
G3 X6.253 Y15.619 Z-1.250 I-4.834 J0.787 K0.000 F30.000
G3 X5.549 Y14.816 Z-1.250 I47.584 J-42.427 K0.000 F30.000
G2 X5.046 Y14.920 Z-1.250 I-0.027 J1.140 K0.000 F30.000
G2 X4.768 Y15.202 Z-1.250 I0.008 J0.286 K0.000 F30.000
G3 X4.740 Y16.142 Z-1.250 I-4.887 J0.323 K0.000 F30.000
G3 X4.115 Y15.276 Z-1.250 I51.399 J-37.710 K0.000 F30.000
G2 X3.604 Y15.332 Z-1.250 I-0.135 J1.132 K0.000 F30.000
G2 X3.301 Y15.587 Z-1.250 I-0.019 J0.285 K0.000 F30.000
G3 X3.184 Y16.520 Z-1.250 I-4.896 J-0.143 K0.000 F30.000
G3 X2.645 Y15.598 Z-1.250 I54.752 J-32.654 K0.000 F30.000
G2 X2.131 Y15.605 Z-1.250 I-0.242 J1.114 K0.000 F30.000
G2 X1.805 Y15.830 Z-1.250 I-0.046 J0.282 K0.000 F30.000
G3 X1.599 Y16.748 Z-1.250 I-4.860 J-0.607 K0.000 F30.000
G3 X1.150 Y15.779 Z-1.250 I57.605 J-27.300 K0.000 F30.000
G2 X0.638 Y15.737 Z-1.250 I-0.347 J1.086 K0.000 F30.000
G2 X0.292 Y15.930 Z-1.250 I-0.072 J0.276 K0.000 F30.000
G3 X0.000 Y16.824 Z-1.250 I-4.781 J-1.067 K0.000 F30.000
G3 X-0.355 Y15.817 Z-1.250 I59.932 J-21.698 K0.000 F30.000
G2 X-0.861 Y15.726 Z-1.250 I-0.448 J1.048 K0.000 F30.000
G2 X-1.224 Y15.885 Z-1.250 I-0.098 J0.268 K0.000 F30.000
G3 X-1.599 Y16.748 Z-1.250 I-4.657 J-1.516 K0.000 F30.000
G3 X-1.857 Y15.711 Z-1.250 I61.728 J-15.904 K0.000 F30.000
G2 X-2.352 Y15.573 Z-1.250 I-0.546 J1.001 K0.000 F30.000
G2 X-2.728 Y15.697 Z-1.250 I-0.124 J0.258 K0.000 F30.000
G3 X-3.184 Y16.520 Z-1.250 I-4.492 J-1.952 K0.000 F30.000
G3 X-3.342 Y15.464 Z-1.250 I62.959 J-9.965 K0.000 F30.000
G2 X-3.822 Y15.279 Z-1.250 I-0.639 J0.944 K0.000 F30.000
G2 X-4.208 Y15.367 Z-1.250 I-0.147 J0.245 K0.000 F30.000
G3 X-4.740 Y16.142 Z-1.250 I-4.286 J-2.370 K0.000 F30.000
G3 X-4.797 Y15.076 Z-1.250 I63.629 J-3.935 K0.000 F30.000
G2 X-5.257 Y14.847 Z-1.250 I-0.726 J0.880 K0.000 F30.000
G2 X-5.649 Y14.897 Z-1.250 I-0.170 J0.230 K0.000 F30.000
G3 X-6.253 Y15.619 Z-1.250 I-4.042 J-2.767 K0.000 F30.000
G3 X-6.208 Y14.552 Z-1.250 I63.712 J2.131 K0.000 F30.000
G2 X-6.644 Y14.280 Z-1.250 I-0.806 J0.807 K0.000 F30.000
G2 X-7.040 Y14.293 Z-1.250 I-0.191 J0.213 K0.000 F30.000
G3 X-7.709 Y14.954 Z-1.250 I-3.760 J-3.139 K0.000 F30.000
G3 X-7.563 Y13.896 Z-1.250 I63.218 J8.177 K0.000 F30.000
G2 X-7.972 Y13.584 Z-1.250 I-0.879 J0.726 K0.000 F30.000
G2 X-8.367 Y13.559 Z-1.250 I-0.210 J0.193 K0.000 F30.000
G3 X-9.096 Y14.153 Z-1.250 I-3.445 J-3.482 K0.000 F30.000
G3 X-8.850 Y13.114 Z-1.250 I62.155 J14.149 K0.000 F30.000
G2 X-9.227 Y12.764 Z-1.250 I-0.944 J0.639 K0.000 F30.000
G2 X-9.618 Y12.702 Z-1.250 I-0.228 J0.173 K0.000 F30.000
G3 X-10.400 Y13.224 Z-1.250 I-3.098 J-3.794 K0.000 F30.000
G3 X-10.056 Y12.213 Z-1.250 I60.527 J19.993 K0.000 F30.000
G2 X-10.398 Y11.830 Z-1.250 I-1.000 J0.547 K0.000 F30.000
G2 X-10.782 Y11.730 Z-1.250 I-0.243 J0.150 K0.000 F30.000
G3 X-11.610 Y12.176 Z-1.250 I-2.724 J-4.071 K0.000 F30.000
G3 X-11.172 Y11.202 Z-1.250 I58.361 J25.660 K0.000 F30.000
G2 X-11.476 Y10.788 Z-1.250 I-1.048 J0.449 K0.000 F30.000
G2 X-11.848 Y10.652 Z-1.250 I-0.256 J0.126 K0.000 F30.000
G3 X-12.715 Y11.017 Z-1.250 I-2.324 J-4.311 K0.000 F30.000
G3 X-12.186 Y10.090 Z-1.250 I55.654 J31.089 K0.000 F30.000
G2 X-12.449 Y9.648 Z-1.250 I-1.086 J0.348 K0.000 F30.000
G2 X-12.807 Y9.478 Z-1.250 I-0.267 J0.101 K0.000 F30.000
G3 X-13.704 Y9.759 Z-1.250 I-1.904 J-4.513 K0.000 F30.000
G3 X-13.090 Y8.885 Z-1.250 I52.440 J36.234 K0.000 F30.000
G2 X-13.310 Y8.421 Z-1.250 I-1.114 J0.243 K0.000 F30.000
G2 X-13.650 Y8.218 Z-1.250 I-0.276 J0.075 K0.000 F30.000
G3 X-14.570 Y8.412 Z-1.250 I-1.467 J-4.673 K0.000 F30.000
G3 X-13.875 Y7.601 Z-1.250 I48.764 J41.059 K0.000 F30.000
G2 X-14.050 Y7.117 Z-1.250 I-1.132 J0.136 K0.000 F30.000
G2 X-14.369 Y6.883 Z-1.250 I-0.282 J0.049 K0.000 F30.000
G3 X-15.303 Y6.989 Z-1.250 I-1.016 J-4.792 K0.000 F30.000
G3 X-14.535 Y6.248 Z-1.250 I44.639 J45.508 K0.000 F30.000
G2 X-14.663 Y5.750 Z-1.250 I-1.140 J0.028 K0.000 F30.000
G2 X-14.958 Y5.486 Z-1.250 I-0.285 J0.022 K0.000 F30.000
G3 X-15.898 Y5.503 Z-1.250 I-0.556 J-4.866 K0.000 F30.000
G3 X-15.063 Y4.838 Z-1.250 I40.107 J49.539 K0.000 F30.000
G2 X-15.143 Y4.330 Z-1.250 I-1.137 J-0.081 K0.000 F30.000
G2 X-15.412 Y4.039 Z-1.250 I-0.286 J-0.005 K0.000 F30.000
G3 X-16.349 Y3.966 Z-1.250 I-0.091 J-4.897 K0.000 F30.000
G3 X-15.455 Y3.384 Z-1.250 I35.220 J53.132 K0.000 F30.000
G2 X-15.486 Y2.871 Z-1.250 I-1.124 J-0.189 K0.000 F30.000
G2 X-15.726 Y2.556 Z-1.250 I-0.284 J-0.032 K0.000 F30.000
G3 X-16.652 Y2.394 Z-1.250 I0.375 J-4.884 K0.000 F30.000
G3 X-15.706 Y1.900 Z-1.250 I30.010 J56.240 K0.000 F30.000
G2 X-15.689 Y1.386 Z-1.250 I-1.101 J-0.295 K0.000 F30.000
G2 X-15.898 Y1.050 Z-1.250 I-0.280 J-0.059 K0.000 F30.000
G3 X-16.805 Y0.801 Z-1.250 I0.838 J-4.826 K0.000 F30.000
G3 X-15.816 Y0.398 Z-1.250 I24.531 J58.844 K0.000 F30.000
G2 X-15.750 Y-0.112 Z-1.250 I-1.068 J-0.398 K0.000 F30.000
G2 X-15.926 Y-0.466 Z-1.250 I-0.273 J-0.086 K0.000 F30.000
G3 X-16.805 Y-0.801 Z-1.250 I1.293 J-4.724 K0.000 F30.000
G3 X-15.782 Y-1.107 Z-1.250 I18.824 J60.904 K0.000 F30.000
G2 X-15.668 Y-1.608 Z-1.250 I-1.026 J-0.498 K0.000 F30.000
G2 X-15.809 Y-1.978 Z-1.250 I-0.263 J-0.111 K0.000 F30.000
G3 X-16.652 Y-2.394 Z-1.250 I1.736 J-4.580 K0.000 F30.000
G3 X-15.605 Y-2.602 Z-1.250 I12.950 J62.417 K0.000 F30.000
G2 X-15.444 Y-3.090 Z-1.250 I-0.974 J-0.593 K0.000 F30.000
G2 X-15.550 Y-3.472 Z-1.250 I-0.252 J-0.136 K0.000 F30.000
G3 X-16.349 Y-3.966 Z-1.250 I2.164 J-4.394 K0.000 F30.000
G3 X-15.287 Y-4.074 Z-1.250 I6.958 J63.364 K0.000 F30.000
G2 X-15.080 Y-4.544 Z-1.250 I-0.913 J-0.683 K0.000 F30.000
G2 X-15.149 Y-4.934 Z-1.250 I-0.238 J-0.159 K0.000 F30.000
G3 X-15.898 Y-5.503 Z-1.250 I2.571 J-4.169 K0.000 F30.000
G3 X-14.831 Y-5.509 Z-1.250 I0.903 J63.735 K0.000 F30.000
G2 X-14.580 Y-5.957 Z-1.250 I-0.844 J-0.767 K0.000 F30.000
G2 X-14.612 Y-6.352 Z-1.250 I-0.221 J-0.181 K0.000 F30.000
G3 X-15.303 Y-6.989 Z-1.250 I2.956 J-3.905 K0.000 F30.000
G3 X-14.240 Y-6.894 Z-1.250 I-5.159 J63.531 K0.000 F30.000
G2 X-13.948 Y-7.316 Z-1.250 I-0.767 J-0.843 K0.000 F30.000
G2 X-13.942 Y-7.712 Z-1.250 I-0.203 J-0.201 K0.000 F30.000
G3 X-14.570 Y-8.412 Z-1.250 I3.314 J-3.607 K0.000 F30.000
G3 X-13.520 Y-8.216 Z-1.250 I-11.176 J62.760 K0.000 F30.000
G2 X-13.189 Y-8.609 Z-1.250 I-0.684 J-0.912 K0.000 F30.000
G2 X-13.145 Y-9.002 Z-1.250 I-0.183 J-0.219 K0.000 F30.000
G3 X-13.704 Y-9.759 Z-1.250 I3.642 J-3.275 K0.000 F30.000
G3 X-12.678 Y-9.464 Z-1.250 I-17.090 J61.409 K0.000 F30.000
G2 X-12.311 Y-9.824 Z-1.250 I-0.594 J-0.973 K0.000 F30.000
G2 X-12.230 Y-10.211 Z-1.250 I-0.161 J-0.236 K0.000 F30.000
G3 X-12.715 Y-11.017 Z-1.250 I3.937 J-2.914 K0.000 F30.000
G3 X-11.721 Y-10.626 Z-1.250 I-22.854 J59.516 K0.000 F30.000
G2 X-11.321 Y-10.949 Z-1.250 I-0.499 J-1.025 K0.000 F30.000
G2 X-11.204 Y-11.327 Z-1.250 I-0.138 J-0.250 K0.000 F30.000
G3 X-11.610 Y-12.176 Z-1.250 I4.196 J-2.527 K0.000 F30.000
G3 X-10.658 Y-11.692 Z-1.250 I-28.405 J57.069 K0.000 F30.000
G2 X-10.229 Y-11.976 Z-1.250 I-0.399 J-1.068 K0.000 F30.000
G2 X-10.077 Y-12.341 Z-1.250 I-0.114 J-0.262 K0.000 F30.000
G3 X-10.400 Y-13.224 Z-1.250 I4.417 J-2.117 K0.000 F30.000
G3 X-9.498 Y-12.652 Z-1.250 I-33.700 J54.108 K0.000 F30.000
G2 X-9.045 Y-12.894 Z-1.250 I-0.296 J-1.101 K0.000 F30.000
G2 X-8.858 Y-13.243 Z-1.250 I-0.088 J-0.272 K0.000 F30.000
G3 X-9.096 Y-14.153 Z-1.250 I4.598 J-1.687 K0.000 F30.000
G3 X-8.253 Y-13.498 Z-1.250 I-38.693 J50.663 K0.000 F30.000
G2 X-7.778 Y-13.695 Z-1.250 I-0.190 J-1.124 K0.000 F30.000
G2 X-7.559 Y-14.025 Z-1.250 I-0.062 J-0.279 K0.000 F30.000
G3 X-7.709 Y-14.954 Z-1.250 I4.738 J-1.243 K0.000 F30.000
G3 X-6.932 Y-14.221 Z-1.250 I-43.333 J46.756 K0.000 F30.000
G2 X-6.441 Y-14.373 Z-1.250 I-0.082 J-1.137 K0.000 F30.000
G2 X-6.192 Y-14.680 Z-1.250 I-0.035 J-0.284 K0.000 F30.000
G3 X-6.253 Y-15.619 Z-1.250 I4.834 J-0.787 K0.000 F30.000
G3 X-5.549 Y-14.816 Z-1.250 I-47.584 J42.427 K0.000 F30.000
G2 X-5.046 Y-14.920 Z-1.250 I0.027 J-1.140 K0.000 F30.000
G2 X-4.768 Y-15.202 Z-1.250 I-0.008 J-0.286 K0.000 F30.000
G3 X-4.740 Y-16.142 Z-1.250 I4.887 J-0.323 K0.000 F30.000
G3 X-4.115 Y-15.276 Z-1.250 I-51.399 J37.710 K0.000 F30.000
G2 X-3.604 Y-15.332 Z-1.250 I0.135 J-1.132 K0.000 F30.000
G2 X-3.301 Y-15.587 Z-1.250 I0.019 J-0.285 K0.000 F30.000
G3 X-3.184 Y-16.520 Z-1.250 I4.896 J0.143 K0.000 F30.000
G3 X-2.645 Y-15.598 Z-1.250 I-54.746 J32.651 K0.000 F30.000
G2 X-2.131 Y-15.605 Z-1.250 I0.242 J-1.114 K0.000 F30.000
G2 X-1.805 Y-15.830 Z-1.250 I0.046 J-0.282 K0.000 F30.000
G3 X-1.599 Y-16.748 Z-1.250 I4.860 J0.607 K0.000 F30.000
G3 X-1.150 Y-15.779 Z-1.250 I-57.609 J27.302 K0.000 F30.000
G2 X-0.638 Y-15.737 Z-1.250 I0.347 J-1.086 K0.000 F30.000
G2 X-0.292 Y-15.930 Z-1.250 I0.072 J-0.276 K0.000 F30.000
G3 X-0.000 Y-16.824 Z-1.250 I4.781 J1.067 K0.000 F30.000
G3 X0.355 Y-15.817 Z-1.250 I-59.937 J21.700 K0.000 F30.000
G2 X0.861 Y-15.726 Z-1.250 I0.448 J-1.048 K0.000 F30.000
G2 X1.224 Y-15.885 Z-1.250 I0.098 J-0.268 K0.000 F30.000
G3 X1.599 Y-16.748 Z-1.250 I4.657 J1.516 K0.000 F30.000
G3 X1.857 Y-15.711 Z-1.250 I-61.729 J15.905 K0.000 F30.000
G2 X2.352 Y-15.573 Z-1.250 I0.546 J-1.001 K0.000 F30.000
G2 X2.728 Y-15.697 Z-1.250 I0.124 J-0.258 K0.000 F30.000
G3 X3.184 Y-16.520 Z-1.250 I4.492 J1.952 K0.000 F30.000
G3 X3.342 Y-15.464 Z-1.250 I-62.963 J9.965 K0.000 F30.000
G2 X3.822 Y-15.279 Z-1.250 I0.639 J-0.944 K0.000 F30.000
G2 X4.208 Y-15.367 Z-1.250 I0.147 J-0.245 K0.000 F30.000
G3 X4.740 Y-16.142 Z-1.250 I4.286 J2.370 K0.000 F30.000
G3 X4.797 Y-15.076 Z-1.250 I-63.628 J3.935 K0.000 F30.000
G2 X5.257 Y-14.847 Z-1.250 I0.726 J-0.880 K0.000 F30.000
G2 X5.649 Y-14.897 Z-1.250 I0.170 J-0.230 K0.000 F30.000
G3 X6.253 Y-15.619 Z-1.250 I4.042 J2.767 K0.000 F30.000
G3 X6.208 Y-14.552 Z-1.250 I-63.712 J-2.131 K0.000 F30.000
G2 X6.644 Y-14.280 Z-1.250 I0.806 J-0.807 K0.000 F30.000
G2 X7.040 Y-14.293 Z-1.250 I0.191 J-0.213 K0.000 F30.000
G3 X7.709 Y-14.954 Z-1.250 I3.760 J3.139 K0.000 F30.000
G3 X7.563 Y-13.896 Z-1.250 I-63.218 J-8.177 K0.000 F30.000
G2 X7.972 Y-13.584 Z-1.250 I0.879 J-0.726 K0.000 F30.000
G2 X8.367 Y-13.559 Z-1.250 I0.210 J-0.193 K0.000 F30.000
G3 X9.096 Y-14.153 Z-1.250 I3.445 J3.482 K0.000 F30.000
G3 X8.850 Y-13.114 Z-1.250 I-62.154 J-14.149 K0.000 F30.000
G2 X9.227 Y-12.764 Z-1.250 I0.944 J-0.639 K0.000 F30.000
G2 X9.618 Y-12.702 Z-1.250 I0.228 J-0.173 K0.000 F30.000
G3 X10.400 Y-13.224 Z-1.250 I3.098 J3.794 K0.000 F30.000
G3 X10.056 Y-12.213 Z-1.250 I-60.527 J-19.993 K0.000 F30.000
G2 X10.398 Y-11.830 Z-1.250 I1.000 J-0.547 K0.000 F30.000
G2 X10.782 Y-11.730 Z-1.250 I0.243 J-0.150 K0.000 F30.000
G3 X11.610 Y-12.176 Z-1.250 I2.724 J4.071 K0.000 F30.000
G3 X11.172 Y-11.202 Z-1.250 I-58.361 J-25.659 K0.000 F30.000
G2 X11.476 Y-10.788 Z-1.250 I1.048 J-0.449 K0.000 F30.000
G2 X11.848 Y-10.652 Z-1.250 I0.256 J-0.126 K0.000 F30.000
G3 X12.715 Y-11.017 Z-1.250 I2.324 J4.311 K0.000 F30.000
G3 X12.186 Y-10.090 Z-1.250 I-55.654 J-31.089 K0.000 F30.000
G2 X12.449 Y-9.648 Z-1.250 I1.086 J-0.348 K0.000 F30.000
G2 X12.807 Y-9.478 Z-1.250 I0.267 J-0.101 K0.000 F30.000
G3 X13.704 Y-9.759 Z-1.250 I1.904 J4.513 K0.000 F30.000
G3 X13.090 Y-8.885 Z-1.250 I-52.445 J-36.237 K0.000 F30.000
G2 X13.310 Y-8.421 Z-1.250 I1.114 J-0.243 K0.000 F30.000
G2 X13.650 Y-8.218 Z-1.250 I0.276 J-0.075 K0.000 F30.000
G3 X14.570 Y-8.412 Z-1.250 I1.467 J4.673 K0.000 F30.000
G3 X13.875 Y-7.601 Z-1.250 I-48.764 J-41.059 K0.000 F30.000
G2 X14.050 Y-7.117 Z-1.250 I1.132 J-0.136 K0.000 F30.000
G2 X14.369 Y-6.883 Z-1.250 I0.282 J-0.049 K0.000 F30.000
G3 X15.303 Y-6.989 Z-1.250 I1.016 J4.792 K0.000 F30.000
G3 X14.535 Y-6.248 Z-1.250 I-44.637 J-45.505 K0.000 F30.000
G2 X14.663 Y-5.750 Z-1.250 I1.140 J-0.028 K0.000 F30.000
G2 X14.958 Y-5.486 Z-1.250 I0.285 J-0.022 K0.000 F30.000
G3 X15.898 Y-5.503 Z-1.250 I0.556 J4.866 K0.000 F30.000
G3 X15.063 Y-4.838 Z-1.250 I-40.108 J-49.540 K0.000 F30.000
G2 X15.143 Y-4.330 Z-1.250 I1.137 J0.081 K0.000 F30.000
G2 X15.412 Y-4.039 Z-1.250 I0.286 J0.005 K0.000 F30.000
G3 X16.349 Y-3.966 Z-1.250 I0.091 J4.897 K0.000 F30.000
G3 X15.455 Y-3.384 Z-1.250 I-35.222 J-53.136 K0.000 F30.000
G2 X15.486 Y-2.871 Z-1.250 I1.124 J0.189 K0.000 F30.000
G2 X15.726 Y-2.556 Z-1.250 I0.284 J0.032 K0.000 F30.000
G3 X16.652 Y-2.394 Z-1.250 I-0.375 J4.884 K0.000 F30.000
G3 X15.706 Y-1.900 Z-1.250 I-30.011 J-56.241 K0.000 F30.000
G2 X15.689 Y-1.386 Z-1.250 I1.101 J0.295 K0.000 F30.000
G2 X15.898 Y-1.050 Z-1.250 I0.280 J0.059 K0.000 F30.000
G3 X16.805 Y-0.801 Z-1.250 I-0.838 J4.826 K0.000 F30.000
G3 X15.816 Y-0.398 Z-1.250 I-24.529 J-58.839 K0.000 F30.000
G2 X15.750 Y0.112 Z-1.250 I1.068 J0.398 K0.000 F30.000
G2 X15.926 Y0.466 Z-1.250 I0.273 J0.086 K0.000 F30.000
G3 X16.805 Y0.801 Z-1.250 I-1.293 J4.724 K0.000 F30.000
G3 X15.782 Y1.107 Z-1.250 I-18.823 J-60.900 K0.000 F30.000
G2 X15.668 Y1.608 Z-1.250 I1.026 J0.498 K0.000 F30.000
G2 X15.809 Y1.978 Z-1.250 I0.263 J0.111 K0.000 F30.000
G3 X16.652 Y2.394 Z-1.250 I-1.736 J4.580 K0.000 F30.000
G3 X15.605 Y2.602 Z-1.250 I-12.950 J-62.418 K0.000 F30.000
G2 X15.444 Y3.090 Z-1.250 I0.974 J0.593 K0.000 F30.000
G2 X15.550 Y3.472 Z-1.250 I0.252 J0.136 K0.000 F30.000
G3 X16.349 Y3.966 Z-1.250 I-2.164 J4.394 K0.000 F30.000
G3 X15.287 Y4.074 Z-1.250 I-6.957 J-63.360 K0.000 F30.000
G2 X15.080 Y4.544 Z-1.250 I0.913 J0.683 K0.000 F30.000
G2 X15.149 Y4.934 Z-1.250 I0.238 J0.159 K0.000 F30.000
G3 X15.898 Y5.503 Z-1.250 I-2.571 J4.169 K0.000 F30.000
G3 X14.831 Y5.509 Z-1.250 I-0.903 J-63.737 K0.000 F30.000
G2 X14.580 Y5.957 Z-1.250 I0.844 J0.767 K0.000 F30.000
G2 X14.612 Y6.352 Z-1.250 I0.221 J0.181 K0.000 F30.000
G3 X15.303 Y6.989 Z-1.250 I-2.956 J3.905 K0.000 F30.000
G3 X14.240 Y6.894 Z-1.250 I5.159 J-63.530 K0.000 F30.000
G2 X13.948 Y7.316 Z-1.250 I0.767 J0.843 K0.000 F30.000
G2 X13.942 Y7.712 Z-1.250 I0.203 J0.201 K0.000 F30.000
G3 X14.570 Y8.412 Z-1.250 I-3.314 J3.607 K0.000 F30.000
G3 X13.520 Y8.216 Z-1.250 I11.176 J-62.760 K0.000 F30.000
G2 X13.189 Y8.609 Z-1.250 I0.684 J0.912 K0.000 F30.000
G2 X13.145 Y9.002 Z-1.250 I0.183 J0.219 K0.000 F30.000
G3 X13.704 Y9.759 Z-1.250 I-3.642 J3.275 K0.000 F30.000
G3 X12.678 Y9.464 Z-1.250 I17.090 J-61.409 K0.000 F30.000
G2 X12.311 Y9.824 Z-1.250 I0.594 J0.973 K0.000 F30.000
G2 X12.230 Y10.211 Z-1.250 I0.161 J0.236 K0.000 F30.000
G3 X12.715 Y11.017 Z-1.250 I-3.937 J2.914 K0.000 F30.000
G3 X11.721 Y10.626 Z-1.250 I22.850 J-59.505 K0.000 F30.000
G2 X11.321 Y10.949 Z-1.250 I0.499 J1.025 K0.000 F30.000
G2 X11.204 Y11.327 Z-1.250 I0.138 J0.250 K0.000 F30.000
G3 X11.610 Y12.176 Z-1.250 I-4.196 J2.527 K0.000 F30.000
G1 X11.610 Y12.176 Z-1.500 F30.000
G3 X10.658 Y11.692 Z-1.500 I28.404 J-57.067 K0.000 F30.000
G2 X10.229 Y11.976 Z-1.500 I0.399 J1.068 K0.000 F30.000
G2 X10.077 Y12.341 Z-1.500 I0.114 J0.262 K0.000 F30.000
G3 X10.400 Y13.224 Z-1.500 I-4.417 J2.117 K0.000 F30.000
G3 X9.498 Y12.652 Z-1.500 I33.699 J-54.108 K0.000 F30.000
G2 X9.045 Y12.894 Z-1.500 I0.296 J1.101 K0.000 F30.000
G2 X8.858 Y13.243 Z-1.500 I0.088 J0.272 K0.000 F30.000
G3 X9.096 Y14.153 Z-1.500 I-4.598 J1.687 K0.000 F30.000
G3 X8.253 Y13.498 Z-1.500 I38.692 J-50.661 K0.000 F30.000
G2 X7.778 Y13.695 Z-1.500 I0.190 J1.124 K0.000 F30.000
G2 X7.559 Y14.025 Z-1.500 I0.062 J0.279 K0.000 F30.000
G3 X7.709 Y14.954 Z-1.500 I-4.738 J1.243 K0.000 F30.000
G3 X6.932 Y14.221 Z-1.500 I43.332 J-46.755 K0.000 F30.000
G2 X6.441 Y14.373 Z-1.500 I0.082 J1.137 K0.000 F30.000
G2 X6.192 Y14.680 Z-1.500 I0.035 J0.284 K0.000 F30.000
G3 X6.253 Y15.619 Z-1.500 I-4.834 J0.787 K0.000 F30.000
G3 X5.549 Y14.816 Z-1.500 I47.584 J-42.427 K0.000 F30.000
G2 X5.046 Y14.920 Z-1.500 I-0.027 J1.140 K0.000 F30.000
G2 X4.768 Y15.202 Z-1.500 I0.008 J0.286 K0.000 F30.000
G3 X4.740 Y16.142 Z-1.500 I-4.887 J0.323 K0.000 F30.000
G3 X4.115 Y15.276 Z-1.500 I51.399 J-37.710 K0.000 F30.000
G2 X3.604 Y15.332 Z-1.500 I-0.135 J1.132 K0.000 F30.000
G2 X3.301 Y15.587 Z-1.500 I-0.019 J0.285 K0.000 F30.000
G3 X3.184 Y16.520 Z-1.500 I-4.896 J-0.143 K0.000 F30.000
G3 X2.645 Y15.598 Z-1.500 I54.752 J-32.654 K0.000 F30.000
G2 X2.131 Y15.605 Z-1.500 I-0.242 J1.114 K0.000 F30.000
G2 X1.805 Y15.830 Z-1.500 I-0.046 J0.282 K0.000 F30.000
G3 X1.599 Y16.748 Z-1.500 I-4.860 J-0.607 K0.000 F30.000
G3 X1.150 Y15.779 Z-1.500 I57.605 J-27.300 K0.000 F30.000
G2 X0.638 Y15.737 Z-1.500 I-0.347 J1.086 K0.000 F30.000
G2 X0.292 Y15.930 Z-1.500 I-0.072 J0.276 K0.000 F30.000
G3 X0.000 Y16.824 Z-1.500 I-4.781 J-1.067 K0.000 F30.000
G3 X-0.355 Y15.817 Z-1.500 I59.932 J-21.698 K0.000 F30.000
G2 X-0.861 Y15.726 Z-1.500 I-0.448 J1.048 K0.000 F30.000
G2 X-1.224 Y15.885 Z-1.500 I-0.098 J0.268 K0.000 F30.000
G3 X-1.599 Y16.748 Z-1.500 I-4.657 J-1.516 K0.000 F30.000
G3 X-1.857 Y15.711 Z-1.500 I61.728 J-15.904 K0.000 F30.000
G2 X-2.352 Y15.573 Z-1.500 I-0.546 J1.001 K0.000 F30.000
G2 X-2.728 Y15.697 Z-1.500 I-0.124 J0.258 K0.000 F30.000
G3 X-3.184 Y16.520 Z-1.500 I-4.492 J-1.952 K0.000 F30.000
G3 X-3.342 Y15.464 Z-1.500 I62.959 J-9.965 K0.000 F30.000
G2 X-3.822 Y15.279 Z-1.500 I-0.639 J0.944 K0.000 F30.000
G2 X-4.208 Y15.367 Z-1.500 I-0.147 J0.245 K0.000 F30.000
G3 X-4.740 Y16.142 Z-1.500 I-4.286 J-2.370 K0.000 F30.000
G3 X-4.797 Y15.076 Z-1.500 I63.629 J-3.935 K0.000 F30.000
G2 X-5.257 Y14.847 Z-1.500 I-0.726 J0.880 K0.000 F30.000
G2 X-5.649 Y14.897 Z-1.500 I-0.170 J0.230 K0.000 F30.000
G3 X-6.253 Y15.619 Z-1.500 I-4.042 J-2.767 K0.000 F30.000
G3 X-6.208 Y14.552 Z-1.500 I63.712 J2.131 K0.000 F30.000
G2 X-6.644 Y14.280 Z-1.500 I-0.806 J0.807 K0.000 F30.000
G2 X-7.040 Y14.293 Z-1.500 I-0.191 J0.213 K0.000 F30.000
G3 X-7.709 Y14.954 Z-1.500 I-3.760 J-3.139 K0.000 F30.000
G3 X-7.563 Y13.896 Z-1.500 I63.218 J8.177 K0.000 F30.000
G2 X-7.972 Y13.584 Z-1.500 I-0.879 J0.726 K0.000 F30.000
G2 X-8.367 Y13.559 Z-1.500 I-0.210 J0.193 K0.000 F30.000
G3 X-9.096 Y14.153 Z-1.500 I-3.445 J-3.482 K0.000 F30.000
G3 X-8.850 Y13.114 Z-1.500 I62.155 J14.149 K0.000 F30.000
G2 X-9.227 Y12.764 Z-1.500 I-0.944 J0.639 K0.000 F30.000
G2 X-9.618 Y12.702 Z-1.500 I-0.228 J0.173 K0.000 F30.000
G3 X-10.400 Y13.224 Z-1.500 I-3.098 J-3.794 K0.000 F30.000
G3 X-10.056 Y12.213 Z-1.500 I60.527 J19.993 K0.000 F30.000
G2 X-10.398 Y11.830 Z-1.500 I-1.000 J0.547 K0.000 F30.000
G2 X-10.782 Y11.730 Z-1.500 I-0.243 J0.150 K0.000 F30.000
G3 X-11.610 Y12.176 Z-1.500 I-2.724 J-4.071 K0.000 F30.000
G3 X-11.172 Y11.202 Z-1.500 I58.361 J25.660 K0.000 F30.000
G2 X-11.476 Y10.788 Z-1.500 I-1.048 J0.449 K0.000 F30.000
G2 X-11.848 Y10.652 Z-1.500 I-0.256 J0.126 K0.000 F30.000
G3 X-12.715 Y11.017 Z-1.500 I-2.324 J-4.311 K0.000 F30.000
G3 X-12.186 Y10.090 Z-1.500 I55.654 J31.089 K0.000 F30.000
G2 X-12.449 Y9.648 Z-1.500 I-1.086 J0.348 K0.000 F30.000
G2 X-12.807 Y9.478 Z-1.500 I-0.267 J0.101 K0.000 F30.000
G3 X-13.704 Y9.759 Z-1.500 I-1.904 J-4.513 K0.000 F30.000
G3 X-13.090 Y8.885 Z-1.500 I52.440 J36.234 K0.000 F30.000
G2 X-13.310 Y8.421 Z-1.500 I-1.114 J0.243 K0.000 F30.000
G2 X-13.650 Y8.218 Z-1.500 I-0.276 J0.075 K0.000 F30.000
G3 X-14.570 Y8.412 Z-1.500 I-1.467 J-4.673 K0.000 F30.000
G3 X-13.875 Y7.601 Z-1.500 I48.764 J41.059 K0.000 F30.000
G2 X-14.050 Y7.117 Z-1.500 I-1.132 J0.136 K0.000 F30.000
G2 X-14.369 Y6.883 Z-1.500 I-0.282 J0.049 K0.000 F30.000
G3 X-15.303 Y6.989 Z-1.500 I-1.016 J-4.792 K0.000 F30.000
G3 X-14.535 Y6.248 Z-1.500 I44.639 J45.508 K0.000 F30.000
G2 X-14.663 Y5.750 Z-1.500 I-1.140 J0.028 K0.000 F30.000
G2 X-14.958 Y5.486 Z-1.500 I-0.285 J0.022 K0.000 F30.000
G3 X-15.898 Y5.503 Z-1.500 I-0.556 J-4.866 K0.000 F30.000
G3 X-15.063 Y4.838 Z-1.500 I40.107 J49.539 K0.000 F30.000
G2 X-15.143 Y4.330 Z-1.500 I-1.137 J-0.081 K0.000 F30.000
G2 X-15.412 Y4.039 Z-1.500 I-0.286 J-0.005 K0.000 F30.000
G3 X-16.349 Y3.966 Z-1.500 I-0.091 J-4.897 K0.000 F30.000
G3 X-15.455 Y3.384 Z-1.500 I35.220 J53.132 K0.000 F30.000
G2 X-15.486 Y2.871 Z-1.500 I-1.124 J-0.189 K0.000 F30.000
G2 X-15.726 Y2.556 Z-1.500 I-0.284 J-0.032 K0.000 F30.000
G3 X-16.652 Y2.394 Z-1.500 I0.375 J-4.884 K0.000 F30.000
G3 X-15.706 Y1.900 Z-1.500 I30.010 J56.240 K0.000 F30.000
G2 X-15.689 Y1.386 Z-1.500 I-1.101 J-0.295 K0.000 F30.000
G2 X-15.898 Y1.050 Z-1.500 I-0.280 J-0.059 K0.000 F30.000
G3 X-16.805 Y0.801 Z-1.500 I0.838 J-4.826 K0.000 F30.000
G3 X-15.816 Y0.398 Z-1.500 I24.531 J58.844 K0.000 F30.000
G2 X-15.750 Y-0.112 Z-1.500 I-1.068 J-0.398 K0.000 F30.000
G2 X-15.926 Y-0.466 Z-1.500 I-0.273 J-0.086 K0.000 F30.000
G3 X-16.805 Y-0.801 Z-1.500 I1.293 J-4.724 K0.000 F30.000
G3 X-15.782 Y-1.107 Z-1.500 I18.824 J60.904 K0.000 F30.000
G2 X-15.668 Y-1.608 Z-1.500 I-1.026 J-0.498 K0.000 F30.000
G2 X-15.809 Y-1.978 Z-1.500 I-0.263 J-0.111 K0.000 F30.000
G3 X-16.652 Y-2.394 Z-1.500 I1.736 J-4.580 K0.000 F30.000
G3 X-15.605 Y-2.602 Z-1.500 I12.950 J62.417 K0.000 F30.000
G2 X-15.444 Y-3.090 Z-1.500 I-0.974 J-0.593 K0.000 F30.000
G2 X-15.550 Y-3.472 Z-1.500 I-0.252 J-0.136 K0.000 F30.000
G3 X-16.349 Y-3.966 Z-1.500 I2.164 J-4.394 K0.000 F30.000
G3 X-15.287 Y-4.074 Z-1.500 I6.958 J63.364 K0.000 F30.000
G2 X-15.080 Y-4.544 Z-1.500 I-0.913 J-0.683 K0.000 F30.000
G2 X-15.149 Y-4.934 Z-1.500 I-0.238 J-0.159 K0.000 F30.000
G3 X-15.898 Y-5.503 Z-1.500 I2.571 J-4.169 K0.000 F30.000
G3 X-14.831 Y-5.509 Z-1.500 I0.903 J63.735 K0.000 F30.000
G2 X-14.580 Y-5.957 Z-1.500 I-0.844 J-0.767 K0.000 F30.000
G2 X-14.612 Y-6.352 Z-1.500 I-0.221 J-0.181 K0.000 F30.000
G3 X-15.303 Y-6.989 Z-1.500 I2.956 J-3.905 K0.000 F30.000
G3 X-14.240 Y-6.894 Z-1.500 I-5.159 J63.531 K0.000 F30.000
G2 X-13.948 Y-7.316 Z-1.500 I-0.767 J-0.843 K0.000 F30.000
G2 X-13.942 Y-7.712 Z-1.500 I-0.203 J-0.201 K0.000 F30.000
G3 X-14.570 Y-8.412 Z-1.500 I3.314 J-3.607 K0.000 F30.000
G3 X-13.520 Y-8.216 Z-1.500 I-11.176 J62.760 K0.000 F30.000
G2 X-13.189 Y-8.609 Z-1.500 I-0.684 J-0.912 K0.000 F30.000
G2 X-13.145 Y-9.002 Z-1.500 I-0.183 J-0.219 K0.000 F30.000
G3 X-13.704 Y-9.759 Z-1.500 I3.642 J-3.275 K0.000 F30.000
G3 X-12.678 Y-9.464 Z-1.500 I-17.090 J61.409 K0.000 F30.000
G2 X-12.311 Y-9.824 Z-1.500 I-0.594 J-0.973 K0.000 F30.000
G2 X-12.230 Y-10.211 Z-1.500 I-0.161 J-0.236 K0.000 F30.000
G3 X-12.715 Y-11.017 Z-1.500 I3.937 J-2.914 K0.000 F30.000
G3 X-11.721 Y-10.626 Z-1.500 I-22.854 J59.516 K0.000 F30.000
G2 X-11.321 Y-10.949 Z-1.500 I-0.499 J-1.025 K0.000 F30.000
G2 X-11.204 Y-11.327 Z-1.500 I-0.138 J-0.250 K0.000 F30.000
G3 X-11.610 Y-12.176 Z-1.500 I4.196 J-2.527 K0.000 F30.000
G3 X-10.658 Y-11.692 Z-1.500 I-28.405 J57.069 K0.000 F30.000
G2 X-10.229 Y-11.976 Z-1.500 I-0.399 J-1.068 K0.000 F30.000
G2 X-10.077 Y-12.341 Z-1.500 I-0.114 J-0.262 K0.000 F30.000
G3 X-10.400 Y-13.224 Z-1.500 I4.417 J-2.117 K0.000 F30.000
G3 X-9.498 Y-12.652 Z-1.500 I-33.700 J54.108 K0.000 F30.000
G2 X-9.045 Y-12.894 Z-1.500 I-0.296 J-1.101 K0.000 F30.000
G2 X-8.858 Y-13.243 Z-1.500 I-0.088 J-0.272 K0.000 F30.000
G3 X-9.096 Y-14.153 Z-1.500 I4.598 J-1.687 K0.000 F30.000
G3 X-8.253 Y-13.498 Z-1.500 I-38.693 J50.663 K0.000 F30.000
G2 X-7.778 Y-13.695 Z-1.500 I-0.190 J-1.124 K0.000 F30.000
G2 X-7.559 Y-14.025 Z-1.500 I-0.062 J-0.279 K0.000 F30.000
G3 X-7.709 Y-14.954 Z-1.500 I4.738 J-1.243 K0.000 F30.000
G3 X-6.932 Y-14.221 Z-1.500 I-43.333 J46.756 K0.000 F30.000
G2 X-6.441 Y-14.373 Z-1.500 I-0.082 J-1.137 K0.000 F30.000
G2 X-6.192 Y-14.680 Z-1.500 I-0.035 J-0.284 K0.000 F30.000
G3 X-6.253 Y-15.619 Z-1.500 I4.834 J-0.787 K0.000 F30.000
G3 X-5.549 Y-14.816 Z-1.500 I-47.584 J42.427 K0.000 F30.000
G2 X-5.046 Y-14.920 Z-1.500 I0.027 J-1.140 K0.000 F30.000
G2 X-4.768 Y-15.202 Z-1.500 I-0.008 J-0.286 K0.000 F30.000
G3 X-4.740 Y-16.142 Z-1.500 I4.887 J-0.323 K0.000 F30.000
G3 X-4.115 Y-15.276 Z-1.500 I-51.399 J37.710 K0.000 F30.000
G2 X-3.604 Y-15.332 Z-1.500 I0.135 J-1.132 K0.000 F30.000
G2 X-3.301 Y-15.587 Z-1.500 I0.019 J-0.285 K0.000 F30.000
G3 X-3.184 Y-16.520 Z-1.500 I4.896 J0.143 K0.000 F30.000
G3 X-2.645 Y-15.598 Z-1.500 I-54.746 J32.651 K0.000 F30.000
G2 X-2.131 Y-15.605 Z-1.500 I0.242 J-1.114 K0.000 F30.000
G2 X-1.805 Y-15.830 Z-1.500 I0.046 J-0.282 K0.000 F30.000
G3 X-1.599 Y-16.748 Z-1.500 I4.860 J0.607 K0.000 F30.000
G3 X-1.150 Y-15.779 Z-1.500 I-57.609 J27.302 K0.000 F30.000
G2 X-0.638 Y-15.737 Z-1.500 I0.347 J-1.086 K0.000 F30.000
G2 X-0.292 Y-15.930 Z-1.500 I0.072 J-0.276 K0.000 F30.000
G3 X-0.000 Y-16.824 Z-1.500 I4.781 J1.067 K0.000 F30.000
G3 X0.355 Y-15.817 Z-1.500 I-59.937 J21.700 K0.000 F30.000
G2 X0.861 Y-15.726 Z-1.500 I0.448 J-1.048 K0.000 F30.000
G2 X1.224 Y-15.885 Z-1.500 I0.098 J-0.268 K0.000 F30.000
G3 X1.599 Y-16.748 Z-1.500 I4.657 J1.516 K0.000 F30.000
G3 X1.857 Y-15.711 Z-1.500 I-61.729 J15.905 K0.000 F30.000
G2 X2.352 Y-15.573 Z-1.500 I0.546 J-1.001 K0.000 F30.000
G2 X2.728 Y-15.697 Z-1.500 I0.124 J-0.258 K0.000 F30.000
G3 X3.184 Y-16.520 Z-1.500 I4.492 J1.952 K0.000 F30.000
G3 X3.342 Y-15.464 Z-1.500 I-62.963 J9.965 K0.000 F30.000
G2 X3.822 Y-15.279 Z-1.500 I0.639 J-0.944 K0.000 F30.000
G2 X4.208 Y-15.367 Z-1.500 I0.147 J-0.245 K0.000 F30.000
G3 X4.740 Y-16.142 Z-1.500 I4.286 J2.370 K0.000 F30.000
G3 X4.797 Y-15.076 Z-1.500 I-63.628 J3.935 K0.000 F30.000
G2 X5.257 Y-14.847 Z-1.500 I0.726 J-0.880 K0.000 F30.000
G2 X5.649 Y-14.897 Z-1.500 I0.170 J-0.230 K0.000 F30.000
G3 X6.253 Y-15.619 Z-1.500 I4.042 J2.767 K0.000 F30.000
G3 X6.208 Y-14.552 Z-1.500 I-63.712 J-2.131 K0.000 F30.000
G2 X6.644 Y-14.280 Z-1.500 I0.806 J-0.807 K0.000 F30.000
G2 X7.040 Y-14.293 Z-1.500 I0.191 J-0.213 K0.000 F30.000
G3 X7.709 Y-14.954 Z-1.500 I3.760 J3.139 K0.000 F30.000
G3 X7.563 Y-13.896 Z-1.500 I-63.218 J-8.177 K0.000 F30.000
G2 X7.972 Y-13.584 Z-1.500 I0.879 J-0.726 K0.000 F30.000
G2 X8.367 Y-13.559 Z-1.500 I0.210 J-0.193 K0.000 F30.000
G3 X9.096 Y-14.153 Z-1.500 I3.445 J3.482 K0.000 F30.000
G3 X8.850 Y-13.114 Z-1.500 I-62.154 J-14.149 K0.000 F30.000
G2 X9.227 Y-12.764 Z-1.500 I0.944 J-0.639 K0.000 F30.000
G2 X9.618 Y-12.702 Z-1.500 I0.228 J-0.173 K0.000 F30.000
G3 X10.400 Y-13.224 Z-1.500 I3.098 J3.794 K0.000 F30.000
G3 X10.056 Y-12.213 Z-1.500 I-60.527 J-19.993 K0.000 F30.000
G2 X10.398 Y-11.830 Z-1.500 I1.000 J-0.547 K0.000 F30.000
G2 X10.782 Y-11.730 Z-1.500 I0.243 J-0.150 K0.000 F30.000
G3 X11.610 Y-12.176 Z-1.500 I2.724 J4.071 K0.000 F30.000
G3 X11.172 Y-11.202 Z-1.500 I-58.361 J-25.659 K0.000 F30.000
G2 X11.476 Y-10.788 Z-1.500 I1.048 J-0.449 K0.000 F30.000
G2 X11.848 Y-10.652 Z-1.500 I0.256 J-0.126 K0.000 F30.000
G3 X12.715 Y-11.017 Z-1.500 I2.324 J4.311 K0.000 F30.000
G3 X12.186 Y-10.090 Z-1.500 I-55.654 J-31.089 K0.000 F30.000
G2 X12.449 Y-9.648 Z-1.500 I1.086 J-0.348 K0.000 F30.000
G2 X12.807 Y-9.478 Z-1.500 I0.267 J-0.101 K0.000 F30.000
G3 X13.704 Y-9.759 Z-1.500 I1.904 J4.513 K0.000 F30.000
G3 X13.090 Y-8.885 Z-1.500 I-52.445 J-36.237 K0.000 F30.000
G2 X13.310 Y-8.421 Z-1.500 I1.114 J-0.243 K0.000 F30.000
G2 X13.650 Y-8.218 Z-1.500 I0.276 J-0.075 K0.000 F30.000
G3 X14.570 Y-8.412 Z-1.500 I1.467 J4.673 K0.000 F30.000
G3 X13.875 Y-7.601 Z-1.500 I-48.764 J-41.059 K0.000 F30.000
G2 X14.050 Y-7.117 Z-1.500 I1.132 J-0.136 K0.000 F30.000
G2 X14.369 Y-6.883 Z-1.500 I0.282 J-0.049 K0.000 F30.000
G3 X15.303 Y-6.989 Z-1.500 I1.016 J4.792 K0.000 F30.000
G3 X14.535 Y-6.248 Z-1.500 I-44.637 J-45.505 K0.000 F30.000
G2 X14.663 Y-5.750 Z-1.500 I1.140 J-0.028 K0.000 F30.000
G2 X14.958 Y-5.486 Z-1.500 I0.285 J-0.022 K0.000 F30.000
G3 X15.898 Y-5.503 Z-1.500 I0.556 J4.866 K0.000 F30.000
G3 X15.063 Y-4.838 Z-1.500 I-40.108 J-49.540 K0.000 F30.000
G2 X15.143 Y-4.330 Z-1.500 I1.137 J0.081 K0.000 F30.000
G2 X15.412 Y-4.039 Z-1.500 I0.286 J0.005 K0.000 F30.000
G3 X16.349 Y-3.966 Z-1.500 I0.091 J4.897 K0.000 F30.000
G3 X15.455 Y-3.384 Z-1.500 I-35.222 J-53.136 K0.000 F30.000
G2 X15.486 Y-2.871 Z-1.500 I1.124 J0.189 K0.000 F30.000
G2 X15.726 Y-2.556 Z-1.500 I0.284 J0.032 K0.000 F30.000
G3 X16.652 Y-2.394 Z-1.500 I-0.375 J4.884 K0.000 F30.000
G3 X15.706 Y-1.900 Z-1.500 I-30.011 J-56.241 K0.000 F30.000
G2 X15.689 Y-1.386 Z-1.500 I1.101 J0.295 K0.000 F30.000
G2 X15.898 Y-1.050 Z-1.500 I0.280 J0.059 K0.000 F30.000
G3 X16.805 Y-0.801 Z-1.500 I-0.838 J4.826 K0.000 F30.000
G3 X15.816 Y-0.398 Z-1.500 I-24.529 J-58.839 K0.000 F30.000
G2 X15.750 Y0.112 Z-1.500 I1.068 J0.398 K0.000 F30.000
G2 X15.926 Y0.466 Z-1.500 I0.273 J0.086 K0.000 F30.000
G3 X16.805 Y0.801 Z-1.500 I-1.293 J4.724 K0.000 F30.000
G3 X15.782 Y1.107 Z-1.500 I-18.823 J-60.900 K0.000 F30.000
G2 X15.668 Y1.608 Z-1.500 I1.026 J0.498 K0.000 F30.000
G2 X15.809 Y1.978 Z-1.500 I0.263 J0.111 K0.000 F30.000
G3 X16.652 Y2.394 Z-1.500 I-1.736 J4.580 K0.000 F30.000
G3 X15.605 Y2.602 Z-1.500 I-12.950 J-62.418 K0.000 F30.000
G2 X15.444 Y3.090 Z-1.500 I0.974 J0.593 K0.000 F30.000
G2 X15.550 Y3.472 Z-1.500 I0.252 J0.136 K0.000 F30.000
G3 X16.349 Y3.966 Z-1.500 I-2.164 J4.394 K0.000 F30.000
G3 X15.287 Y4.074 Z-1.500 I-6.957 J-63.360 K0.000 F30.000
G2 X15.080 Y4.544 Z-1.500 I0.913 J0.683 K0.000 F30.000
G2 X15.149 Y4.934 Z-1.500 I0.238 J0.159 K0.000 F30.000
G3 X15.898 Y5.503 Z-1.500 I-2.571 J4.169 K0.000 F30.000
G3 X14.831 Y5.509 Z-1.500 I-0.903 J-63.737 K0.000 F30.000
G2 X14.580 Y5.957 Z-1.500 I0.844 J0.767 K0.000 F30.000
G2 X14.612 Y6.352 Z-1.500 I0.221 J0.181 K0.000 F30.000
G3 X15.303 Y6.989 Z-1.500 I-2.956 J3.905 K0.000 F30.000
G3 X14.240 Y6.894 Z-1.500 I5.159 J-63.530 K0.000 F30.000
G2 X13.948 Y7.316 Z-1.500 I0.767 J0.843 K0.000 F30.000
G2 X13.942 Y7.712 Z-1.500 I0.203 J0.201 K0.000 F30.000
G3 X14.570 Y8.412 Z-1.500 I-3.314 J3.607 K0.000 F30.000
G3 X13.520 Y8.216 Z-1.500 I11.176 J-62.760 K0.000 F30.000
G2 X13.189 Y8.609 Z-1.500 I0.684 J0.912 K0.000 F30.000
G2 X13.145 Y9.002 Z-1.500 I0.183 J0.219 K0.000 F30.000
G3 X13.704 Y9.759 Z-1.500 I-3.642 J3.275 K0.000 F30.000
G3 X12.678 Y9.464 Z-1.500 I17.090 J-61.409 K0.000 F30.000
G2 X12.311 Y9.824 Z-1.500 I0.594 J0.973 K0.000 F30.000
G2 X12.230 Y10.211 Z-1.500 I0.161 J0.236 K0.000 F30.000
G3 X12.715 Y11.017 Z-1.500 I-3.937 J2.914 K0.000 F30.000
G3 X11.721 Y10.626 Z-1.500 I22.850 J-59.505 K0.000 F30.000
G2 X11.321 Y10.949 Z-1.500 I0.499 J1.025 K0.000 F30.000
G2 X11.204 Y11.327 Z-1.500 I0.138 J0.250 K0.000 F30.000
G3 X11.610 Y12.176 Z-1.500 I-4.196 J2.527 K0.000 F30.000
G1 X11.610 Y12.176 Z-1.750 F30.000
G3 X10.658 Y11.692 Z-1.750 I28.404 J-57.067 K0.000 F30.000
G2 X10.229 Y11.976 Z-1.750 I0.399 J1.068 K0.000 F30.000
G2 X10.077 Y12.341 Z-1.750 I0.114 J0.262 K0.000 F30.000
G3 X10.400 Y13.224 Z-1.750 I-4.417 J2.117 K0.000 F30.000
G3 X9.498 Y12.652 Z-1.750 I33.699 J-54.108 K0.000 F30.000
G2 X9.045 Y12.894 Z-1.750 I0.296 J1.101 K0.000 F30.000
G2 X8.858 Y13.243 Z-1.750 I0.088 J0.272 K0.000 F30.000
G3 X9.096 Y14.153 Z-1.750 I-4.598 J1.687 K0.000 F30.000
G3 X8.253 Y13.498 Z-1.750 I38.692 J-50.661 K0.000 F30.000
G2 X7.778 Y13.695 Z-1.750 I0.190 J1.124 K0.000 F30.000
G2 X7.559 Y14.025 Z-1.750 I0.062 J0.279 K0.000 F30.000
G3 X7.709 Y14.954 Z-1.750 I-4.738 J1.243 K0.000 F30.000
G3 X6.932 Y14.221 Z-1.750 I43.332 J-46.755 K0.000 F30.000
G2 X6.441 Y14.373 Z-1.750 I0.082 J1.137 K0.000 F30.000
G2 X6.192 Y14.680 Z-1.750 I0.035 J0.284 K0.000 F30.000
G3 X6.253 Y15.619 Z-1.750 I-4.834 J0.787 K0.000 F30.000
G3 X5.549 Y14.816 Z-1.750 I47.584 J-42.427 K0.000 F30.000
G2 X5.046 Y14.920 Z-1.750 I-0.027 J1.140 K0.000 F30.000
G2 X4.768 Y15.202 Z-1.750 I0.008 J0.286 K0.000 F30.000
G3 X4.740 Y16.142 Z-1.750 I-4.887 J0.323 K0.000 F30.000
G3 X4.115 Y15.276 Z-1.750 I51.399 J-37.710 K0.000 F30.000
G2 X3.604 Y15.332 Z-1.750 I-0.135 J1.132 K0.000 F30.000
G2 X3.301 Y15.587 Z-1.750 I-0.019 J0.285 K0.000 F30.000
G3 X3.184 Y16.520 Z-1.750 I-4.896 J-0.143 K0.000 F30.000
G3 X2.645 Y15.598 Z-1.750 I54.752 J-32.654 K0.000 F30.000
G2 X2.131 Y15.605 Z-1.750 I-0.242 J1.114 K0.000 F30.000
G2 X1.805 Y15.830 Z-1.750 I-0.046 J0.282 K0.000 F30.000
G3 X1.599 Y16.748 Z-1.750 I-4.860 J-0.607 K0.000 F30.000
G3 X1.150 Y15.779 Z-1.750 I57.605 J-27.300 K0.000 F30.000
G2 X0.638 Y15.737 Z-1.750 I-0.347 J1.086 K0.000 F30.000
G2 X0.292 Y15.930 Z-1.750 I-0.072 J0.276 K0.000 F30.000
G3 X0.000 Y16.824 Z-1.750 I-4.781 J-1.067 K0.000 F30.000
G3 X-0.355 Y15.817 Z-1.750 I59.932 J-21.698 K0.000 F30.000
G2 X-0.861 Y15.726 Z-1.750 I-0.448 J1.048 K0.000 F30.000
G2 X-1.224 Y15.885 Z-1.750 I-0.098 J0.268 K0.000 F30.000
G3 X-1.599 Y16.748 Z-1.750 I-4.657 J-1.516 K0.000 F30.000
G3 X-1.857 Y15.711 Z-1.750 I61.728 J-15.904 K0.000 F30.000
G2 X-2.352 Y15.573 Z-1.750 I-0.546 J1.001 K0.000 F30.000
G2 X-2.728 Y15.697 Z-1.750 I-0.124 J0.258 K0.000 F30.000
G3 X-3.184 Y16.520 Z-1.750 I-4.492 J-1.952 K0.000 F30.000
G3 X-3.342 Y15.464 Z-1.750 I62.959 J-9.965 K0.000 F30.000
G2 X-3.822 Y15.279 Z-1.750 I-0.639 J0.944 K0.000 F30.000
G2 X-4.208 Y15.367 Z-1.750 I-0.147 J0.245 K0.000 F30.000
G3 X-4.740 Y16.142 Z-1.750 I-4.286 J-2.370 K0.000 F30.000
G3 X-4.797 Y15.076 Z-1.750 I63.629 J-3.935 K0.000 F30.000
G2 X-5.257 Y14.847 Z-1.750 I-0.726 J0.880 K0.000 F30.000
G2 X-5.649 Y14.897 Z-1.750 I-0.170 J0.230 K0.000 F30.000
G3 X-6.253 Y15.619 Z-1.750 I-4.042 J-2.767 K0.000 F30.000
G3 X-6.208 Y14.552 Z-1.750 I63.712 J2.131 K0.000 F30.000
G2 X-6.644 Y14.280 Z-1.750 I-0.806 J0.807 K0.000 F30.000
G2 X-7.040 Y14.293 Z-1.750 I-0.191 J0.213 K0.000 F30.000
G3 X-7.709 Y14.954 Z-1.750 I-3.760 J-3.139 K0.000 F30.000
G3 X-7.563 Y13.896 Z-1.750 I63.218 J8.177 K0.000 F30.000
G2 X-7.972 Y13.584 Z-1.750 I-0.879 J0.726 K0.000 F30.000
G2 X-8.367 Y13.559 Z-1.750 I-0.210 J0.193 K0.000 F30.000
G3 X-9.096 Y14.153 Z-1.750 I-3.445 J-3.482 K0.000 F30.000
G3 X-8.850 Y13.114 Z-1.750 I62.155 J14.149 K0.000 F30.000
G2 X-9.227 Y12.764 Z-1.750 I-0.944 J0.639 K0.000 F30.000
G2 X-9.618 Y12.702 Z-1.750 I-0.228 J0.173 K0.000 F30.000
G3 X-10.400 Y13.224 Z-1.750 I-3.098 J-3.794 K0.000 F30.000
G3 X-10.056 Y12.213 Z-1.750 I60.527 J19.993 K0.000 F30.000
G2 X-10.398 Y11.830 Z-1.750 I-1.000 J0.547 K0.000 F30.000
G2 X-10.782 Y11.730 Z-1.750 I-0.243 J0.150 K0.000 F30.000
G3 X-11.610 Y12.176 Z-1.750 I-2.724 J-4.071 K0.000 F30.000
G3 X-11.172 Y11.202 Z-1.750 I58.361 J25.660 K0.000 F30.000
G2 X-11.476 Y10.788 Z-1.750 I-1.048 J0.449 K0.000 F30.000
G2 X-11.848 Y10.652 Z-1.750 I-0.256 J0.126 K0.000 F30.000
G3 X-12.715 Y11.017 Z-1.750 I-2.324 J-4.311 K0.000 F30.000
G3 X-12.186 Y10.090 Z-1.750 I55.654 J31.089 K0.000 F30.000
G2 X-12.449 Y9.648 Z-1.750 I-1.086 J0.348 K0.000 F30.000
G2 X-12.807 Y9.478 Z-1.750 I-0.267 J0.101 K0.000 F30.000
G3 X-13.704 Y9.759 Z-1.750 I-1.904 J-4.513 K0.000 F30.000
G3 X-13.090 Y8.885 Z-1.750 I52.440 J36.234 K0.000 F30.000
G2 X-13.310 Y8.421 Z-1.750 I-1.114 J0.243 K0.000 F30.000
G2 X-13.650 Y8.218 Z-1.750 I-0.276 J0.075 K0.000 F30.000
G3 X-14.570 Y8.412 Z-1.750 I-1.467 J-4.673 K0.000 F30.000
G3 X-13.875 Y7.601 Z-1.750 I48.764 J41.059 K0.000 F30.000
G2 X-14.050 Y7.117 Z-1.750 I-1.132 J0.136 K0.000 F30.000
G2 X-14.369 Y6.883 Z-1.750 I-0.282 J0.049 K0.000 F30.000
G3 X-15.303 Y6.989 Z-1.750 I-1.016 J-4.792 K0.000 F30.000
G3 X-14.535 Y6.248 Z-1.750 I44.639 J45.508 K0.000 F30.000
G2 X-14.663 Y5.750 Z-1.750 I-1.140 J0.028 K0.000 F30.000
G2 X-14.958 Y5.486 Z-1.750 I-0.285 J0.022 K0.000 F30.000
G3 X-15.898 Y5.503 Z-1.750 I-0.556 J-4.866 K0.000 F30.000
G3 X-15.063 Y4.838 Z-1.750 I40.107 J49.539 K0.000 F30.000
G2 X-15.143 Y4.330 Z-1.750 I-1.137 J-0.081 K0.000 F30.000
G2 X-15.412 Y4.039 Z-1.750 I-0.286 J-0.005 K0.000 F30.000
G3 X-16.349 Y3.966 Z-1.750 I-0.091 J-4.897 K0.000 F30.000
G3 X-15.455 Y3.384 Z-1.750 I35.220 J53.132 K0.000 F30.000
G2 X-15.486 Y2.871 Z-1.750 I-1.124 J-0.189 K0.000 F30.000
G2 X-15.726 Y2.556 Z-1.750 I-0.284 J-0.032 K0.000 F30.000
G3 X-16.652 Y2.394 Z-1.750 I0.375 J-4.884 K0.000 F30.000
G3 X-15.706 Y1.900 Z-1.750 I30.010 J56.240 K0.000 F30.000
G2 X-15.689 Y1.386 Z-1.750 I-1.101 J-0.295 K0.000 F30.000
G2 X-15.898 Y1.050 Z-1.750 I-0.280 J-0.059 K0.000 F30.000
G3 X-16.805 Y0.801 Z-1.750 I0.838 J-4.826 K0.000 F30.000
G3 X-15.816 Y0.398 Z-1.750 I24.531 J58.844 K0.000 F30.000
G2 X-15.750 Y-0.112 Z-1.750 I-1.068 J-0.398 K0.000 F30.000
G2 X-15.926 Y-0.466 Z-1.750 I-0.273 J-0.086 K0.000 F30.000
G3 X-16.805 Y-0.801 Z-1.750 I1.293 J-4.724 K0.000 F30.000
G3 X-15.782 Y-1.107 Z-1.750 I18.824 J60.904 K0.000 F30.000
G2 X-15.668 Y-1.608 Z-1.750 I-1.026 J-0.498 K0.000 F30.000
G2 X-15.809 Y-1.978 Z-1.750 I-0.263 J-0.111 K0.000 F30.000
G3 X-16.652 Y-2.394 Z-1.750 I1.736 J-4.580 K0.000 F30.000
G3 X-15.605 Y-2.602 Z-1.750 I12.950 J62.417 K0.000 F30.000
G2 X-15.444 Y-3.090 Z-1.750 I-0.974 J-0.593 K0.000 F30.000
G2 X-15.550 Y-3.472 Z-1.750 I-0.252 J-0.136 K0.000 F30.000
G3 X-16.349 Y-3.966 Z-1.750 I2.164 J-4.394 K0.000 F30.000
G3 X-15.287 Y-4.074 Z-1.750 I6.958 J63.364 K0.000 F30.000
G2 X-15.080 Y-4.544 Z-1.750 I-0.913 J-0.683 K0.000 F30.000
G2 X-15.149 Y-4.934 Z-1.750 I-0.238 J-0.159 K0.000 F30.000
G3 X-15.898 Y-5.503 Z-1.750 I2.571 J-4.169 K0.000 F30.000
G3 X-14.831 Y-5.509 Z-1.750 I0.903 J63.735 K0.000 F30.000
G2 X-14.580 Y-5.957 Z-1.750 I-0.844 J-0.767 K0.000 F30.000
G2 X-14.612 Y-6.352 Z-1.750 I-0.221 J-0.181 K0.000 F30.000
G3 X-15.303 Y-6.989 Z-1.750 I2.956 J-3.905 K0.000 F30.000
G3 X-14.240 Y-6.894 Z-1.750 I-5.159 J63.531 K0.000 F30.000
G2 X-13.948 Y-7.316 Z-1.750 I-0.767 J-0.843 K0.000 F30.000
G2 X-13.942 Y-7.712 Z-1.750 I-0.203 J-0.201 K0.000 F30.000
G3 X-14.570 Y-8.412 Z-1.750 I3.314 J-3.607 K0.000 F30.000
G3 X-13.520 Y-8.216 Z-1.750 I-11.176 J62.760 K0.000 F30.000
G2 X-13.189 Y-8.609 Z-1.750 I-0.684 J-0.912 K0.000 F30.000
G2 X-13.145 Y-9.002 Z-1.750 I-0.183 J-0.219 K0.000 F30.000
G3 X-13.704 Y-9.759 Z-1.750 I3.642 J-3.275 K0.000 F30.000
G3 X-12.678 Y-9.464 Z-1.750 I-17.090 J61.409 K0.000 F30.000
G2 X-12.311 Y-9.824 Z-1.750 I-0.594 J-0.973 K0.000 F30.000
G2 X-12.230 Y-10.211 Z-1.750 I-0.161 J-0.236 K0.000 F30.000
G3 X-12.715 Y-11.017 Z-1.750 I3.937 J-2.914 K0.000 F30.000
G3 X-11.721 Y-10.626 Z-1.750 I-22.854 J59.516 K0.000 F30.000
G2 X-11.321 Y-10.949 Z-1.750 I-0.499 J-1.025 K0.000 F30.000
G2 X-11.204 Y-11.327 Z-1.750 I-0.138 J-0.250 K0.000 F30.000
G3 X-11.610 Y-12.176 Z-1.750 I4.196 J-2.527 K0.000 F30.000
G3 X-10.658 Y-11.692 Z-1.750 I-28.405 J57.069 K0.000 F30.000
G2 X-10.229 Y-11.976 Z-1.750 I-0.399 J-1.068 K0.000 F30.000
G2 X-10.077 Y-12.341 Z-1.750 I-0.114 J-0.262 K0.000 F30.000
G3 X-10.400 Y-13.224 Z-1.750 I4.417 J-2.117 K0.000 F30.000
G3 X-9.498 Y-12.652 Z-1.750 I-33.700 J54.108 K0.000 F30.000
G2 X-9.045 Y-12.894 Z-1.750 I-0.296 J-1.101 K0.000 F30.000
G2 X-8.858 Y-13.243 Z-1.750 I-0.088 J-0.272 K0.000 F30.000
