(Exported by FreeCAD)
(Post Processor: grbl_post)
(Output Time:2025-07-25 20:26:31.598061)
(Begin preamble)
G17 G90
G21
(Begin operation: Fixture)
(Path: Fixture)
G54
(Finish operation: Fixture)
(Begin operation: 1mm-10-Endmill001)
(Path: 1mm-10-Endmill001)
(1mm-10-Endmill001)
(Begin toolchange)
( M6 T5 )
(Finish operation: 1mm-10-Endmill001)
(Begin operation: 1mm-gear)
(Path: 1mm-gear)
(1mm-gear)
(Compensated Tool Path. Diameter: 1.0)
G0 Z5.000
G0 X11.086 Y11.627
G0 Z3.000
G1 X11.086 Y11.627 Z-0.500 F30.000
G2 X10.150 Y11.714 Z-0.500 I-0.433 J0.419 K0.000 F30.000
G2 X9.930 Y12.628 Z-0.500 I0.262 J0.546 K0.000 F30.000
G2 X8.991 Y12.626 Z-0.500 I-0.471 J0.376 K0.000 F30.000
G2 X8.685 Y13.514 Z-0.500 I0.209 J0.569 K0.000 F30.000
G2 X7.750 Y13.423 Z-0.500 I-0.504 J0.330 K0.000 F30.000
G2 X7.361 Y14.279 Z-0.500 I0.154 J0.586 K0.000 F30.000
G2 X6.439 Y14.099 Z-0.500 I-0.533 J0.280 K0.000 F30.000
G2 X5.971 Y14.914 Z-0.500 I0.098 J0.598 K0.000 F30.000
G2 X5.070 Y14.648 Z-0.500 I-0.557 J0.228 K0.000 F30.000
G2 X4.526 Y15.414 Z-0.500 I0.040 J0.605 K0.000 F30.000
G2 X3.654 Y15.063 Z-0.500 I-0.577 J0.174 K0.000 F30.000
G2 X3.040 Y15.774 Z-0.500 I-0.017 J0.606 K0.000 F30.000
G2 X2.206 Y15.342 Z-0.500 I-0.590 J0.119 K0.000 F30.000
G2 X1.527 Y15.992 Z-0.500 I-0.075 J0.601 K0.000 F30.000
G2 X0.738 Y15.482 Z-0.500 I-0.599 J0.062 K0.000 F30.000
G2 X0.000 Y16.065 Z-0.500 I-0.132 J0.592 K0.000 F30.000
G2 X-0.738 Y15.482 Z-0.500 I-0.602 J0.005 K0.000 F30.000
G2 X-1.527 Y15.992 Z-0.500 I-0.187 J0.576 K0.000 F30.000
G2 X-2.206 Y15.342 Z-0.500 I-0.600 J-0.053 K0.000 F30.000
G2 X-3.040 Y15.774 Z-0.500 I-0.241 J0.556 K0.000 F30.000
G2 X-3.654 Y15.063 Z-0.500 I-0.592 J-0.109 K0.000 F30.000
G2 X-4.526 Y15.414 Z-0.500 I-0.293 J0.531 K0.000 F30.000
G2 X-5.070 Y14.648 Z-0.500 I-0.579 J-0.165 K0.000 F30.000
G2 X-5.971 Y14.914 Z-0.500 I-0.342 J0.500 K0.000 F30.000
G2 X-6.439 Y14.099 Z-0.500 I-0.561 J-0.219 K0.000 F30.000
G2 X-7.361 Y14.279 Z-0.500 I-0.388 J0.466 K0.000 F30.000
G2 X-7.750 Y13.423 Z-0.500 I-0.537 J-0.272 K0.000 F30.000
G2 X-8.685 Y13.514 Z-0.500 I-0.431 J0.427 K0.000 F30.000
G2 X-8.991 Y12.626 Z-0.500 I-0.509 J-0.322 K0.000 F30.000
G2 X-9.930 Y12.628 Z-0.500 I-0.469 J0.384 K0.000 F30.000
G2 X-10.150 Y11.714 Z-0.500 I-0.476 J-0.369 K0.000 F30.000
G2 X-11.086 Y11.627 Z-0.500 I-0.503 J0.337 K0.000 F30.000
G2 X-11.218 Y10.696 Z-0.500 I-0.439 J-0.412 K0.000 F30.000
G2 X-12.141 Y10.520 Z-0.500 I-0.533 J0.288 K0.000 F30.000
G2 X-12.184 Y9.581 Z-0.500 I-0.398 J-0.452 K0.000 F30.000
G2 X-13.086 Y9.318 Z-0.500 I-0.558 J0.236 K0.000 F30.000
G2 X-13.039 Y8.380 Z-0.500 I-0.353 J-0.488 K0.000 F30.000
G2 X-13.912 Y8.032 Z-0.500 I-0.578 J0.182 K0.000 F30.000
G2 X-13.777 Y7.103 Z-0.500 I-0.305 J-0.519 K0.000 F30.000
G2 X-14.613 Y6.673 Z-0.500 I-0.593 J0.126 K0.000 F30.000
G2 X-14.390 Y5.761 Z-0.500 I-0.254 J-0.546 K0.000 F30.000
G2 X-15.181 Y5.254 Z-0.500 I-0.602 J0.069 K0.000 F30.000
G2 X-14.872 Y4.367 Z-0.500 I-0.201 J-0.568 K0.000 F30.000
G2 X-15.612 Y3.787 Z-0.500 I-0.606 J0.012 K0.000 F30.000
G2 X-15.220 Y2.933 Z-0.500 I-0.147 J-0.584 K0.000 F30.000
G2 X-15.901 Y2.286 Z-0.500 I-0.604 J-0.046 K0.000 F30.000
G2 X-15.430 Y1.473 Z-0.500 I-0.090 J-0.595 K0.000 F30.000
G2 X-16.046 Y0.764 Z-0.500 I-0.597 J-0.103 K0.000 F30.000
G2 X-15.500 Y-0.000 Z-0.500 I-0.033 J-0.601 K0.000 F30.000
G2 X-16.046 Y-0.764 Z-0.500 I-0.585 J-0.160 K0.000 F30.000
G2 X-15.430 Y-1.473 Z-0.500 I0.024 J-0.602 K0.000 F30.000
G2 X-15.901 Y-2.286 Z-0.500 I-0.567 J-0.214 K0.000 F30.000
G2 X-15.220 Y-2.933 Z-0.500 I0.081 J-0.597 K0.000 F30.000
G2 X-15.612 Y-3.787 Z-0.500 I-0.544 J-0.267 K0.000 F30.000
G2 X-14.872 Y-4.367 Z-0.500 I0.137 J-0.586 K0.000 F30.000
G2 X-15.181 Y-5.254 Z-0.500 I-0.516 J-0.318 K0.000 F30.000
G2 X-14.390 Y-5.761 Z-0.500 I0.193 J-0.571 K0.000 F30.000
G2 X-14.613 Y-6.673 Z-0.500 I-0.483 J-0.365 K0.000 F30.000
G2 X-13.777 Y-7.103 Z-0.500 I0.246 J-0.550 K0.000 F30.000
G2 X-13.912 Y-8.032 Z-0.500 I-0.447 J-0.410 K0.000 F30.000
G2 X-13.039 Y-8.380 Z-0.500 I0.297 J-0.524 K0.000 F30.000
G2 X-13.086 Y-9.318 Z-0.500 I-0.406 J-0.450 K0.000 F30.000
G2 X-12.184 Y-9.581 Z-0.500 I0.346 J-0.493 K0.000 F30.000
G2 X-12.141 Y-10.520 Z-0.500 I-0.361 J-0.487 K0.000 F30.000
G2 X-11.218 Y-10.696 Z-0.500 I0.391 J-0.458 K0.000 F30.000
G2 X-11.086 Y-11.627 Z-0.500 I-0.313 J-0.519 K0.000 F30.000
G2 X-10.150 Y-11.714 Z-0.500 I0.433 J-0.419 K0.000 F30.000
G2 X-9.930 Y-12.628 Z-0.500 I-0.262 J-0.546 K0.000 F30.000
G2 X-8.991 Y-12.626 Z-0.500 I0.471 J-0.376 K0.000 F30.000
G2 X-8.685 Y-13.514 Z-0.500 I-0.209 J-0.569 K0.000 F30.000
G2 X-7.750 Y-13.423 Z-0.500 I0.504 J-0.330 K0.000 F30.000
G2 X-7.361 Y-14.279 Z-0.500 I-0.154 J-0.586 K0.000 F30.000
G2 X-6.439 Y-14.099 Z-0.500 I0.533 J-0.280 K0.000 F30.000
G2 X-5.971 Y-14.914 Z-0.500 I-0.098 J-0.598 K0.000 F30.000
G2 X-5.070 Y-14.648 Z-0.500 I0.557 J-0.228 K0.000 F30.000
G2 X-4.526 Y-15.414 Z-0.500 I-0.040 J-0.605 K0.000 F30.000
G2 X-3.654 Y-15.063 Z-0.500 I0.577 J-0.174 K0.000 F30.000
G2 X-3.040 Y-15.774 Z-0.500 I0.017 J-0.606 K0.000 F30.000
G2 X-2.206 Y-15.342 Z-0.500 I0.590 J-0.119 K0.000 F30.000
G2 X-1.527 Y-15.992 Z-0.500 I0.075 J-0.601 K0.000 F30.000
G2 X-0.738 Y-15.482 Z-0.500 I0.599 J-0.062 K0.000 F30.000
G2 X0.000 Y-16.065 Z-0.500 I0.132 J-0.592 K0.000 F30.000
G2 X0.738 Y-15.482 Z-0.500 I0.602 J-0.005 K0.000 F30.000
G2 X1.527 Y-15.992 Z-0.500 I0.187 J-0.576 K0.000 F30.000
G2 X2.206 Y-15.342 Z-0.500 I0.600 J0.053 K0.000 F30.000
G2 X3.040 Y-15.774 Z-0.500 I0.241 J-0.556 K0.000 F30.000
G2 X3.654 Y-15.063 Z-0.500 I0.592 J0.109 K0.000 F30.000
G2 X4.526 Y-15.414 Z-0.500 I0.293 J-0.531 K0.000 F30.000
G2 X5.070 Y-14.648 Z-0.500 I0.579 J0.165 K0.000 F30.000
G2 X5.971 Y-14.914 Z-0.500 I0.342 J-0.500 K0.000 F30.000
G2 X6.439 Y-14.099 Z-0.500 I0.561 J0.219 K0.000 F30.000
G2 X7.361 Y-14.279 Z-0.500 I0.388 J-0.466 K0.000 F30.000
G2 X7.750 Y-13.423 Z-0.500 I0.537 J0.272 K0.000 F30.000
G2 X8.685 Y-13.514 Z-0.500 I0.431 J-0.427 K0.000 F30.000
G2 X8.991 Y-12.626 Z-0.500 I0.509 J0.322 K0.000 F30.000
G2 X9.930 Y-12.628 Z-0.500 I0.469 J-0.384 K0.000 F30.000
G2 X10.150 Y-11.714 Z-0.500 I0.476 J0.369 K0.000 F30.000
G2 X11.086 Y-11.627 Z-0.500 I0.503 J-0.337 K0.000 F30.000
G2 X11.218 Y-10.696 Z-0.500 I0.439 J0.412 K0.000 F30.000
G2 X12.141 Y-10.520 Z-0.500 I0.533 J-0.288 K0.000 F30.000
G2 X12.184 Y-9.581 Z-0.500 I0.398 J0.452 K0.000 F30.000
G2 X13.086 Y-9.318 Z-0.500 I0.558 J-0.236 K0.000 F30.000
G2 X13.039 Y-8.380 Z-0.500 I0.353 J0.488 K0.000 F30.000
G2 X13.912 Y-8.032 Z-0.500 I0.578 J-0.182 K0.000 F30.000
G2 X13.777 Y-7.103 Z-0.500 I0.305 J0.519 K0.000 F30.000
G2 X14.613 Y-6.673 Z-0.500 I0.593 J-0.126 K0.000 F30.000
G2 X14.390 Y-5.761 Z-0.500 I0.254 J0.546 K0.000 F30.000
G2 X15.181 Y-5.254 Z-0.500 I0.602 J-0.069 K0.000 F30.000
G2 X14.872 Y-4.367 Z-0.500 I0.201 J0.568 K0.000 F30.000
G2 X15.612 Y-3.787 Z-0.500 I0.606 J-0.012 K0.000 F30.000
G2 X15.220 Y-2.933 Z-0.500 I0.147 J0.584 K0.000 F30.000
G2 X15.901 Y-2.286 Z-0.500 I0.604 J0.046 K0.000 F30.000
G2 X15.430 Y-1.473 Z-0.500 I0.090 J0.595 K0.000 F30.000
G2 X16.046 Y-0.764 Z-0.500 I0.597 J0.103 K0.000 F30.000
G2 X15.500 Y0.000 Z-0.500 I0.033 J0.601 K0.000 F30.000
G2 X16.046 Y0.764 Z-0.500 I0.585 J0.160 K0.000 F30.000
G2 X15.430 Y1.473 Z-0.500 I-0.024 J0.602 K0.000 F30.000
G2 X15.901 Y2.286 Z-0.500 I0.567 J0.214 K0.000 F30.000
G2 X15.220 Y2.933 Z-0.500 I-0.081 J0.597 K0.000 F30.000
G2 X15.612 Y3.787 Z-0.500 I0.544 J0.267 K0.000 F30.000
G2 X14.872 Y4.367 Z-0.500 I-0.137 J0.586 K0.000 F30.000
G2 X15.181 Y5.254 Z-0.500 I0.516 J0.318 K0.000 F30.000
G2 X14.390 Y5.761 Z-0.500 I-0.193 J0.571 K0.000 F30.000
G2 X14.613 Y6.673 Z-0.500 I0.483 J0.365 K0.000 F30.000
G2 X13.777 Y7.103 Z-0.500 I-0.246 J0.550 K0.000 F30.000
G2 X13.912 Y8.032 Z-0.500 I0.447 J0.410 K0.000 F30.000
G2 X13.039 Y8.380 Z-0.500 I-0.297 J0.524 K0.000 F30.000
G2 X13.086 Y9.318 Z-0.500 I0.406 J0.450 K0.000 F30.000
G2 X12.184 Y9.581 Z-0.500 I-0.346 J0.493 K0.000 F30.000
G2 X12.141 Y10.520 Z-0.500 I0.361 J0.487 K0.000 F30.000
G2 X11.218 Y10.696 Z-0.500 I-0.391 J0.458 K0.000 F30.000
G2 X11.086 Y11.627 Z-0.500 I0.313 J0.519 K0.000 F30.000
G1 X11.086 Y11.627 Z-1.000 F30.000
G2 X10.150 Y11.714 Z-1.000 I-0.433 J0.419 K0.000 F30.000
G2 X9.930 Y12.628 Z-1.000 I0.262 J0.546 K0.000 F30.000
G2 X8.991 Y12.626 Z-1.000 I-0.471 J0.376 K0.000 F30.000
G2 X8.685 Y13.514 Z-1.000 I0.209 J0.569 K0.000 F30.000
G2 X7.750 Y13.423 Z-1.000 I-0.504 J0.330 K0.000 F30.000
G2 X7.361 Y14.279 Z-1.000 I0.154 J0.586 K0.000 F30.000
G2 X6.439 Y14.099 Z-1.000 I-0.533 J0.280 K0.000 F30.000
G2 X5.971 Y14.914 Z-1.000 I0.098 J0.598 K0.000 F30.000
G2 X5.070 Y14.648 Z-1.000 I-0.557 J0.228 K0.000 F30.000
G2 X4.526 Y15.414 Z-1.000 I0.040 J0.605 K0.000 F30.000
G2 X3.654 Y15.063 Z-1.000 I-0.577 J0.174 K0.000 F30.000
G2 X3.040 Y15.774 Z-1.000 I-0.017 J0.606 K0.000 F30.000
G2 X2.206 Y15.342 Z-1.000 I-0.590 J0.119 K0.000 F30.000
G2 X1.527 Y15.992 Z-1.000 I-0.075 J0.601 K0.000 F30.000
G2 X0.738 Y15.482 Z-1.000 I-0.599 J0.062 K0.000 F30.000
G2 X0.000 Y16.065 Z-1.000 I-0.132 J0.592 K0.000 F30.000
G2 X-0.738 Y15.482 Z-1.000 I-0.602 J0.005 K0.000 F30.000
G2 X-1.527 Y15.992 Z-1.000 I-0.187 J0.576 K0.000 F30.000
G2 X-2.206 Y15.342 Z-1.000 I-0.600 J-0.053 K0.000 F30.000
G2 X-3.040 Y15.774 Z-1.000 I-0.241 J0.556 K0.000 F30.000
G2 X-3.654 Y15.063 Z-1.000 I-0.592 J-0.109 K0.000 F30.000
G2 X-4.526 Y15.414 Z-1.000 I-0.293 J0.531 K0.000 F30.000
G2 X-5.070 Y14.648 Z-1.000 I-0.579 J-0.165 K0.000 F30.000
G2 X-5.971 Y14.914 Z-1.000 I-0.342 J0.500 K0.000 F30.000
G2 X-6.439 Y14.099 Z-1.000 I-0.561 J-0.219 K0.000 F30.000
G2 X-7.361 Y14.279 Z-1.000 I-0.388 J0.466 K0.000 F30.000
G2 X-7.750 Y13.423 Z-1.000 I-0.537 J-0.272 K0.000 F30.000
G2 X-8.685 Y13.514 Z-1.000 I-0.431 J0.427 K0.000 F30.000
G2 X-8.991 Y12.626 Z-1.000 I-0.509 J-0.322 K0.000 F30.000
G2 X-9.930 Y12.628 Z-1.000 I-0.469 J0.384 K0.000 F30.000
G2 X-10.150 Y11.714 Z-1.000 I-0.476 J-0.369 K0.000 F30.000
G2 X-11.086 Y11.627 Z-1.000 I-0.503 J0.337 K0.000 F30.000
G2 X-11.218 Y10.696 Z-1.000 I-0.439 J-0.412 K0.000 F30.000
G2 X-12.141 Y10.520 Z-1.000 I-0.533 J0.288 K0.000 F30.000
G2 X-12.184 Y9.581 Z-1.000 I-0.398 J-0.452 K0.000 F30.000
G2 X-13.086 Y9.318 Z-1.000 I-0.558 J0.236 K0.000 F30.000
G2 X-13.039 Y8.380 Z-1.000 I-0.353 J-0.488 K0.000 F30.000
G2 X-13.912 Y8.032 Z-1.000 I-0.578 J0.182 K0.000 F30.000
G2 X-13.777 Y7.103 Z-1.000 I-0.305 J-0.519 K0.000 F30.000
G2 X-14.613 Y6.673 Z-1.000 I-0.593 J0.126 K0.000 F30.000
G2 X-14.390 Y5.761 Z-1.000 I-0.254 J-0.546 K0.000 F30.000
G2 X-15.181 Y5.254 Z-1.000 I-0.602 J0.069 K0.000 F30.000
G2 X-14.872 Y4.367 Z-1.000 I-0.201 J-0.568 K0.000 F30.000
G2 X-15.612 Y3.787 Z-1.000 I-0.606 J0.012 K0.000 F30.000
G2 X-15.220 Y2.933 Z-1.000 I-0.147 J-0.584 K0.000 F30.000
G2 X-15.901 Y2.286 Z-1.000 I-0.604 J-0.046 K0.000 F30.000
G2 X-15.430 Y1.473 Z-1.000 I-0.090 J-0.595 K0.000 F30.000
G2 X-16.046 Y0.764 Z-1.000 I-0.597 J-0.103 K0.000 F30.000
G2 X-15.500 Y-0.000 Z-1.000 I-0.033 J-0.601 K0.000 F30.000
G2 X-16.046 Y-0.764 Z-1.000 I-0.585 J-0.160 K0.000 F30.000
G2 X-15.430 Y-1.473 Z-1.000 I0.024 J-0.602 K0.000 F30.000
G2 X-15.901 Y-2.286 Z-1.000 I-0.567 J-0.214 K0.000 F30.000
G2 X-15.220 Y-2.933 Z-1.000 I0.081 J-0.597 K0.000 F30.000
G2 X-15.612 Y-3.787 Z-1.000 I-0.544 J-0.267 K0.000 F30.000
G2 X-14.872 Y-4.367 Z-1.000 I0.137 J-0.586 K0.000 F30.000
G2 X-15.181 Y-5.254 Z-1.000 I-0.516 J-0.318 K0.000 F30.000
G2 X-14.390 Y-5.761 Z-1.000 I0.193 J-0.571 K0.000 F30.000
G2 X-14.613 Y-6.673 Z-1.000 I-0.483 J-0.365 K0.000 F30.000
G2 X-13.777 Y-7.103 Z-1.000 I0.246 J-0.550 K0.000 F30.000
G2 X-13.912 Y-8.032 Z-1.000 I-0.447 J-0.410 K0.000 F30.000
G2 X-13.039 Y-8.380 Z-1.000 I0.297 J-0.524 K0.000 F30.000
G2 X-13.086 Y-9.318 Z-1.000 I-0.406 J-0.450 K0.000 F30.000
G2 X-12.184 Y-9.581 Z-1.000 I0.346 J-0.493 K0.000 F30.000
G2 X-12.141 Y-10.520 Z-1.000 I-0.361 J-0.487 K0.000 F30.000
G2 X-11.218 Y-10.696 Z-1.000 I0.391 J-0.458 K0.000 F30.000
G2 X-11.086 Y-11.627 Z-1.000 I-0.313 J-0.519 K0.000 F30.000
G2 X-10.150 Y-11.714 Z-1.000 I0.433 J-0.419 K0.000 F30.000
G2 X-9.930 Y-12.628 Z-1.000 I-0.262 J-0.546 K0.000 F30.000
G2 X-8.991 Y-12.626 Z-1.000 I0.471 J-0.376 K0.000 F30.000
G2 X-8.685 Y-13.514 Z-1.000 I-0.209 J-0.569 K0.000 F30.000
G2 X-7.750 Y-13.423 Z-1.000 I0.504 J-0.330 K0.000 F30.000
G2 X-7.361 Y-14.279 Z-1.000 I-0.154 J-0.586 K0.000 F30.000
G2 X-6.439 Y-14.099 Z-1.000 I0.533 J-0.280 K0.000 F30.000
G2 X-5.971 Y-14.914 Z-1.000 I-0.098 J-0.598 K0.000 F30.000
G2 X-5.070 Y-14.648 Z-1.000 I0.557 J-0.228 K0.000 F30.000
G2 X-4.526 Y-15.414 Z-1.000 I-0.040 J-0.605 K0.000 F30.000
G2 X-3.654 Y-15.063 Z-1.000 I0.577 J-0.174 K0.000 F30.000
G2 X-3.040 Y-15.774 Z-1.000 I0.017 J-0.606 K0.000 F30.000
G2 X-2.206 Y-15.342 Z-1.000 I0.590 J-0.119 K0.000 F30.000
G2 X-1.527 Y-15.992 Z-1.000 I0.075 J-0.601 K0.000 F30.000
G2 X-0.738 Y-15.482 Z-1.000 I0.599 J-0.062 K0.000 F30.000
G2 X0.000 Y-16.065 Z-1.000 I0.132 J-0.592 K0.000 F30.000
G2 X0.738 Y-15.482 Z-1.000 I0.602 J-0.005 K0.000 F30.000
G2 X1.527 Y-15.992 Z-1.000 I0.187 J-0.576 K0.000 F30.000
G2 X2.206 Y-15.342 Z-1.000 I0.600 J0.053 K0.000 F30.000
G2 X3.040 Y-15.774 Z-1.000 I0.241 J-0.556 K0.000 F30.000
G2 X3.654 Y-15.063 Z-1.000 I0.592 J0.109 K0.000 F30.000
G2 X4.526 Y-15.414 Z-1.000 I0.293 J-0.531 K0.000 F30.000
G2 X5.070 Y-14.648 Z-1.000 I0.579 J0.165 K0.000 F30.000
G2 X5.971 Y-14.914 Z-1.000 I0.342 J-0.500 K0.000 F30.000
G2 X6.439 Y-14.099 Z-1.000 I0.561 J0.219 K0.000 F30.000
G2 X7.361 Y-14.279 Z-1.000 I0.388 J-0.466 K0.000 F30.000
G2 X7.750 Y-13.423 Z-1.000 I0.537 J0.272 K0.000 F30.000
G2 X8.685 Y-13.514 Z-1.000 I0.431 J-0.427 K0.000 F30.000
G2 X8.991 Y-12.626 Z-1.000 I0.509 J0.322 K0.000 F30.000
G2 X9.930 Y-12.628 Z-1.000 I0.469 J-0.384 K0.000 F30.000
G2 X10.150 Y-11.714 Z-1.000 I0.476 J0.369 K0.000 F30.000
G2 X11.086 Y-11.627 Z-1.000 I0.503 J-0.337 K0.000 F30.000
G2 X11.218 Y-10.696 Z-1.000 I0.439 J0.412 K0.000 F30.000
G2 X12.141 Y-10.520 Z-1.000 I0.533 J-0.288 K0.000 F30.000
G2 X12.184 Y-9.581 Z-1.000 I0.398 J0.452 K0.000 F30.000
G2 X13.086 Y-9.318 Z-1.000 I0.558 J-0.236 K0.000 F30.000
G2 X13.039 Y-8.380 Z-1.000 I0.353 J0.488 K0.000 F30.000
G2 X13.912 Y-8.032 Z-1.000 I0.578 J-0.182 K0.000 F30.000
G2 X13.777 Y-7.103 Z-1.000 I0.305 J0.519 K0.000 F30.000
G2 X14.613 Y-6.673 Z-1.000 I0.593 J-0.126 K0.000 F30.000
G2 X14.390 Y-5.761 Z-1.000 I0.254 J0.546 K0.000 F30.000
G2 X15.181 Y-5.254 Z-1.000 I0.602 J-0.069 K0.000 F30.000
G2 X14.872 Y-4.367 Z-1.000 I0.201 J0.568 K0.000 F30.000
G2 X15.612 Y-3.787 Z-1.000 I0.606 J-0.012 K0.000 F30.000
G2 X15.220 Y-2.933 Z-1.000 I0.147 J0.584 K0.000 F30.000
G2 X15.901 Y-2.286 Z-1.000 I0.604 J0.046 K0.000 F30.000
G2 X15.430 Y-1.473 Z-1.000 I0.090 J0.595 K0.000 F30.000
G2 X16.046 Y-0.764 Z-1.000 I0.597 J0.103 K0.000 F30.000
G2 X15.500 Y0.000 Z-1.000 I0.033 J0.601 K0.000 F30.000
G2 X16.046 Y0.764 Z-1.000 I0.585 J0.160 K0.000 F30.000
G2 X15.430 Y1.473 Z-1.000 I-0.024 J0.602 K0.000 F30.000
G2 X15.901 Y2.286 Z-1.000 I0.567 J0.214 K0.000 F30.000
G2 X15.220 Y2.933 Z-1.000 I-0.081 J0.597 K0.000 F30.000
G2 X15.612 Y3.787 Z-1.000 I0.544 J0.267 K0.000 F30.000
G2 X14.872 Y4.367 Z-1.000 I-0.137 J0.586 K0.000 F30.000
G2 X15.181 Y5.254 Z-1.000 I0.516 J0.318 K0.000 F30.000
G2 X14.390 Y5.761 Z-1.000 I-0.193 J0.571 K0.000 F30.000
G2 X14.613 Y6.673 Z-1.000 I0.483 J0.365 K0.000 F30.000
G2 X13.777 Y7.103 Z-1.000 I-0.246 J0.550 K0.000 F30.000
G2 X13.912 Y8.032 Z-1.000 I0.447 J0.410 K0.000 F30.000
G2 X13.039 Y8.380 Z-1.000 I-0.297 J0.524 K0.000 F30.000
G2 X13.086 Y9.318 Z-1.000 I0.406 J0.450 K0.000 F30.000
G2 X12.184 Y9.581 Z-1.000 I-0.346 J0.493 K0.000 F30.000
G2 X12.141 Y10.520 Z-1.000 I0.361 J0.487 K0.000 F30.000
G2 X11.218 Y10.696 Z-1.000 I-0.391 J0.458 K0.000 F30.000
G2 X11.086 Y11.627 Z-1.000 I0.313 J0.519 K0.000 F30.000
G1 X11.086 Y11.627 Z-1.500 F30.000
G2 X10.150 Y11.714 Z-1.500 I-0.433 J0.419 K0.000 F30.000
G2 X9.930 Y12.628 Z-1.500 I0.262 J0.546 K0.000 F30.000
G2 X8.991 Y12.626 Z-1.500 I-0.471 J0.376 K0.000 F30.000
G2 X8.685 Y13.514 Z-1.500 I0.209 J0.569 K0.000 F30.000
G2 X7.750 Y13.423 Z-1.500 I-0.504 J0.330 K0.000 F30.000
G2 X7.361 Y14.279 Z-1.500 I0.154 J0.586 K0.000 F30.000
G2 X6.439 Y14.099 Z-1.500 I-0.533 J0.280 K0.000 F30.000
G2 X5.971 Y14.914 Z-1.500 I0.098 J0.598 K0.000 F30.000
G2 X5.070 Y14.648 Z-1.500 I-0.557 J0.228 K0.000 F30.000
G2 X4.526 Y15.414 Z-1.500 I0.040 J0.605 K0.000 F30.000
G2 X3.654 Y15.063 Z-1.500 I-0.577 J0.174 K0.000 F30.000
G2 X3.040 Y15.774 Z-1.500 I-0.017 J0.606 K0.000 F30.000
G2 X2.206 Y15.342 Z-1.500 I-0.590 J0.119 K0.000 F30.000
G2 X1.527 Y15.992 Z-1.500 I-0.075 J0.601 K0.000 F30.000
G2 X0.738 Y15.482 Z-1.500 I-0.599 J0.062 K0.000 F30.000
G2 X0.000 Y16.065 Z-1.500 I-0.132 J0.592 K0.000 F30.000
G2 X-0.738 Y15.482 Z-1.500 I-0.602 J0.005 K0.000 F30.000
G2 X-1.527 Y15.992 Z-1.500 I-0.187 J0.576 K0.000 F30.000
G2 X-2.206 Y15.342 Z-1.500 I-0.600 J-0.053 K0.000 F30.000
G2 X-3.040 Y15.774 Z-1.500 I-0.241 J0.556 K0.000 F30.000
G2 X-3.654 Y15.063 Z-1.500 I-0.592 J-0.109 K0.000 F30.000
G2 X-4.526 Y15.414 Z-1.500 I-0.293 J0.531 K0.000 F30.000
G2 X-5.070 Y14.648 Z-1.500 I-0.579 J-0.165 K0.000 F30.000
G2 X-5.971 Y14.914 Z-1.500 I-0.342 J0.500 K0.000 F30.000
G2 X-6.439 Y14.099 Z-1.500 I-0.561 J-0.219 K0.000 F30.000
G2 X-7.361 Y14.279 Z-1.500 I-0.388 J0.466 K0.000 F30.000
G2 X-7.750 Y13.423 Z-1.500 I-0.537 J-0.272 K0.000 F30.000
G2 X-8.685 Y13.514 Z-1.500 I-0.431 J0.427 K0.000 F30.000
G2 X-8.991 Y12.626 Z-1.500 I-0.509 J-0.322 K0.000 F30.000
G2 X-9.930 Y12.628 Z-1.500 I-0.469 J0.384 K0.000 F30.000
G2 X-10.150 Y11.714 Z-1.500 I-0.476 J-0.369 K0.000 F30.000
G2 X-11.086 Y11.627 Z-1.500 I-0.503 J0.337 K0.000 F30.000
G2 X-11.218 Y10.696 Z-1.500 I-0.439 J-0.412 K0.000 F30.000
G2 X-12.141 Y10.520 Z-1.500 I-0.533 J0.288 K0.000 F30.000
G2 X-12.184 Y9.581 Z-1.500 I-0.398 J-0.452 K0.000 F30.000
G2 X-13.086 Y9.318 Z-1.500 I-0.558 J0.236 K0.000 F30.000
G2 X-13.039 Y8.380 Z-1.500 I-0.353 J-0.488 K0.000 F30.000
G2 X-13.912 Y8.032 Z-1.500 I-0.578 J0.182 K0.000 F30.000
G2 X-13.777 Y7.103 Z-1.500 I-0.305 J-0.519 K0.000 F30.000
G2 X-14.613 Y6.673 Z-1.500 I-0.593 J0.126 K0.000 F30.000
G2 X-14.390 Y5.761 Z-1.500 I-0.254 J-0.546 K0.000 F30.000
G2 X-15.181 Y5.254 Z-1.500 I-0.602 J0.069 K0.000 F30.000
G2 X-14.872 Y4.367 Z-1.500 I-0.201 J-0.568 K0.000 F30.000
G2 X-15.612 Y3.787 Z-1.500 I-0.606 J0.012 K0.000 F30.000
G2 X-15.220 Y2.933 Z-1.500 I-0.147 J-0.584 K0.000 F30.000
G2 X-15.901 Y2.286 Z-1.500 I-0.604 J-0.046 K0.000 F30.000
G2 X-15.430 Y1.473 Z-1.500 I-0.090 J-0.595 K0.000 F30.000
G2 X-16.046 Y0.764 Z-1.500 I-0.597 J-0.103 K0.000 F30.000
G2 X-15.500 Y-0.000 Z-1.500 I-0.033 J-0.601 K0.000 F30.000
G2 X-16.046 Y-0.764 Z-1.500 I-0.585 J-0.160 K0.000 F30.000
G2 X-15.430 Y-1.473 Z-1.500 I0.024 J-0.602 K0.000 F30.000
G2 X-15.901 Y-2.286 Z-1.500 I-0.567 J-0.214 K0.000 F30.000
G2 X-15.220 Y-2.933 Z-1.500 I0.081 J-0.597 K0.000 F30.000
G2 X-15.612 Y-3.787 Z-1.500 I-0.544 J-0.267 K0.000 F30.000
G2 X-14.872 Y-4.367 Z-1.500 I0.137 J-0.586 K0.000 F30.000
G2 X-15.181 Y-5.254 Z-1.500 I-0.516 J-0.318 K0.000 F30.000
G2 X-14.390 Y-5.761 Z-1.500 I0.193 J-0.571 K0.000 F30.000
G2 X-14.613 Y-6.673 Z-1.500 I-0.483 J-0.365 K0.000 F30.000
G2 X-13.777 Y-7.103 Z-1.500 I0.246 J-0.550 K0.000 F30.000
G2 X-13.912 Y-8.032 Z-1.500 I-0.447 J-0.410 K0.000 F30.000
G2 X-13.039 Y-8.380 Z-1.500 I0.297 J-0.524 K0.000 F30.000
G2 X-13.086 Y-9.318 Z-1.500 I-0.406 J-0.450 K0.000 F30.000
G2 X-12.184 Y-9.581 Z-1.500 I0.346 J-0.493 K0.000 F30.000
G2 X-12.141 Y-10.520 Z-1.500 I-0.361 J-0.487 K0.000 F30.000
G2 X-11.218 Y-10.696 Z-1.500 I0.391 J-0.458 K0.000 F30.000
G2 X-11.086 Y-11.627 Z-1.500 I-0.313 J-0.519 K0.000 F30.000
G2 X-10.150 Y-11.714 Z-1.500 I0.433 J-0.419 K0.000 F30.000
G2 X-9.930 Y-12.628 Z-1.500 I-0.262 J-0.546 K0.000 F30.000
G2 X-8.991 Y-12.626 Z-1.500 I0.471 J-0.376 K0.000 F30.000
G2 X-8.685 Y-13.514 Z-1.500 I-0.209 J-0.569 K0.000 F30.000
G2 X-7.750 Y-13.423 Z-1.500 I0.504 J-0.330 K0.000 F30.000
G2 X-7.361 Y-14.279 Z-1.500 I-0.154 J-0.586 K0.000 F30.000
G2 X-6.439 Y-14.099 Z-1.500 I0.533 J-0.280 K0.000 F30.000
G2 X-5.971 Y-14.914 Z-1.500 I-0.098 J-0.598 K0.000 F30.000
G2 X-5.070 Y-14.648 Z-1.500 I0.557 J-0.228 K0.000 F30.000
G2 X-4.526 Y-15.414 Z-1.500 I-0.040 J-0.605 K0.000 F30.000
G2 X-3.654 Y-15.063 Z-1.500 I0.577 J-0.174 K0.000 F30.000
G2 X-3.040 Y-15.774 Z-1.500 I0.017 J-0.606 K0.000 F30.000
G2 X-2.206 Y-15.342 Z-1.500 I0.590 J-0.119 K0.000 F30.000
G2 X-1.527 Y-15.992 Z-1.500 I0.075 J-0.601 K0.000 F30.000
G2 X-0.738 Y-15.482 Z-1.500 I0.599 J-0.062 K0.000 F30.000
G2 X0.000 Y-16.065 Z-1.500 I0.132 J-0.592 K0.000 F30.000
G2 X0.738 Y-15.482 Z-1.500 I0.602 J-0.005 K0.000 F30.000
G2 X1.527 Y-15.992 Z-1.500 I0.187 J-0.576 K0.000 F30.000
G2 X2.206 Y-15.342 Z-1.500 I0.600 J0.053 K0.000 F30.000
G2 X3.040 Y-15.774 Z-1.500 I0.241 J-0.556 K0.000 F30.000
G2 X3.654 Y-15.063 Z-1.500 I0.592 J0.109 K0.000 F30.000
G2 X4.526 Y-15.414 Z-1.500 I0.293 J-0.531 K0.000 F30.000
G2 X5.070 Y-14.648 Z-1.500 I0.579 J0.165 K0.000 F30.000
G2 X5.971 Y-14.914 Z-1.500 I0.342 J-0.500 K0.000 F30.000
G2 X6.439 Y-14.099 Z-1.500 I0.561 J0.219 K0.000 F30.000
G2 X7.361 Y-14.279 Z-1.500 I0.388 J-0.466 K0.000 F30.000
G2 X7.750 Y-13.423 Z-1.500 I0.537 J0.272 K0.000 F30.000
G2 X8.685 Y-13.514 Z-1.500 I0.431 J-0.427 K0.000 F30.000
G2 X8.991 Y-12.626 Z-1.500 I0.509 J0.322 K0.000 F30.000
G2 X9.930 Y-12.628 Z-1.500 I0.469 J-0.384 K0.000 F30.000
G2 X10.150 Y-11.714 Z-1.500 I0.476 J0.369 K0.000 F30.000
G2 X11.086 Y-11.627 Z-1.500 I0.503 J-0.337 K0.000 F30.000
G2 X11.218 Y-10.696 Z-1.500 I0.439 J0.412 K0.000 F30.000
G2 X12.141 Y-10.520 Z-1.500 I0.533 J-0.288 K0.000 F30.000
G2 X12.184 Y-9.581 Z-1.500 I0.398 J0.452 K0.000 F30.000
G2 X13.086 Y-9.318 Z-1.500 I0.558 J-0.236 K0.000 F30.000
G2 X13.039 Y-8.380 Z-1.500 I0.353 J0.488 K0.000 F30.000
G2 X13.912 Y-8.032 Z-1.500 I0.578 J-0.182 K0.000 F30.000
G2 X13.777 Y-7.103 Z-1.500 I0.305 J0.519 K0.000 F30.000
G2 X14.613 Y-6.673 Z-1.500 I0.593 J-0.126 K0.000 F30.000
G2 X14.390 Y-5.761 Z-1.500 I0.254 J0.546 K0.000 F30.000
G2 X15.181 Y-5.254 Z-1.500 I0.602 J-0.069 K0.000 F30.000
G2 X14.872 Y-4.367 Z-1.500 I0.201 J0.568 K0.000 F30.000
G2 X15.612 Y-3.787 Z-1.500 I0.606 J-0.012 K0.000 F30.000
G2 X15.220 Y-2.933 Z-1.500 I0.147 J0.584 K0.000 F30.000
G2 X15.901 Y-2.286 Z-1.500 I0.604 J0.046 K0.000 F30.000
G2 X15.430 Y-1.473 Z-1.500 I0.090 J0.595 K0.000 F30.000
G2 X16.046 Y-0.764 Z-1.500 I0.597 J0.103 K0.000 F30.000
G2 X15.500 Y0.000 Z-1.500 I0.033 J0.601 K0.000 F30.000
G2 X16.046 Y0.764 Z-1.500 I0.585 J0.160 K0.000 F30.000
G2 X15.430 Y1.473 Z-1.500 I-0.024 J0.602 K0.000 F30.000
G2 X15.901 Y2.286 Z-1.500 I0.567 J0.214 K0.000 F30.000
G2 X15.220 Y2.933 Z-1.500 I-0.081 J0.597 K0.000 F30.000
G2 X15.612 Y3.787 Z-1.500 I0.544 J0.267 K0.000 F30.000
G2 X14.872 Y4.367 Z-1.500 I-0.137 J0.586 K0.000 F30.000
G2 X15.181 Y5.254 Z-1.500 I0.516 J0.318 K0.000 F30.000
G2 X14.390 Y5.761 Z-1.500 I-0.193 J0.571 K0.000 F30.000
G2 X14.613 Y6.673 Z-1.500 I0.483 J0.365 K0.000 F30.000
G2 X13.777 Y7.103 Z-1.500 I-0.246 J0.550 K0.000 F30.000
G2 X13.912 Y8.032 Z-1.500 I0.447 J0.410 K0.000 F30.000
G2 X13.039 Y8.380 Z-1.500 I-0.297 J0.524 K0.000 F30.000
G2 X13.086 Y9.318 Z-1.500 I0.406 J0.450 K0.000 F30.000
G2 X12.184 Y9.581 Z-1.500 I-0.346 J0.493 K0.000 F30.000
G2 X12.141 Y10.520 Z-1.500 I0.361 J0.487 K0.000 F30.000
G2 X11.218 Y10.696 Z-1.500 I-0.391 J0.458 K0.000 F30.000
G2 X11.086 Y11.627 Z-1.500 I0.313 J0.519 K0.000 F30.000
G1 X11.086 Y11.627 Z-2.000 F30.000
G2 X10.150 Y11.714 Z-2.000 I-0.433 J0.419 K0.000 F30.000
G2 X9.930 Y12.628 Z-2.000 I0.262 J0.546 K0.000 F30.000
G2 X8.991 Y12.626 Z-2.000 I-0.471 J0.376 K0.000 F30.000
G2 X8.685 Y13.514 Z-2.000 I0.209 J0.569 K0.000 F30.000
G2 X7.750 Y13.423 Z-2.000 I-0.504 J0.330 K0.000 F30.000
G2 X7.361 Y14.279 Z-2.000 I0.154 J0.586 K0.000 F30.000
G2 X6.439 Y14.099 Z-2.000 I-0.533 J0.280 K0.000 F30.000
G2 X5.971 Y14.914 Z-2.000 I0.098 J0.598 K0.000 F30.000
G2 X5.070 Y14.648 Z-2.000 I-0.557 J0.228 K0.000 F30.000
G2 X4.526 Y15.414 Z-2.000 I0.040 J0.605 K0.000 F30.000
G2 X3.654 Y15.063 Z-2.000 I-0.577 J0.174 K0.000 F30.000
G2 X3.040 Y15.774 Z-2.000 I-0.017 J0.606 K0.000 F30.000
G2 X2.206 Y15.342 Z-2.000 I-0.590 J0.119 K0.000 F30.000
G2 X1.527 Y15.992 Z-2.000 I-0.075 J0.601 K0.000 F30.000
G2 X0.738 Y15.482 Z-2.000 I-0.599 J0.062 K0.000 F30.000
G2 X0.000 Y16.065 Z-2.000 I-0.132 J0.592 K0.000 F30.000
G2 X-0.738 Y15.482 Z-2.000 I-0.602 J0.005 K0.000 F30.000
G2 X-1.527 Y15.992 Z-2.000 I-0.187 J0.576 K0.000 F30.000
G2 X-2.206 Y15.342 Z-2.000 I-0.600 J-0.053 K0.000 F30.000
G2 X-3.040 Y15.774 Z-2.000 I-0.241 J0.556 K0.000 F30.000
G2 X-3.654 Y15.063 Z-2.000 I-0.592 J-0.109 K0.000 F30.000
G2 X-4.526 Y15.414 Z-2.000 I-0.293 J0.531 K0.000 F30.000
G2 X-5.070 Y14.648 Z-2.000 I-0.579 J-0.165 K0.000 F30.000
G2 X-5.971 Y14.914 Z-2.000 I-0.342 J0.500 K0.000 F30.000
G2 X-6.439 Y14.099 Z-2.000 I-0.561 J-0.219 K0.000 F30.000
G2 X-7.361 Y14.279 Z-2.000 I-0.388 J0.466 K0.000 F30.000
G2 X-7.750 Y13.423 Z-2.000 I-0.537 J-0.272 K0.000 F30.000
G2 X-8.685 Y13.514 Z-2.000 I-0.431 J0.427 K0.000 F30.000
G2 X-8.991 Y12.626 Z-2.000 I-0.509 J-0.322 K0.000 F30.000
G2 X-9.930 Y12.628 Z-2.000 I-0.469 J0.384 K0.000 F30.000
G2 X-10.150 Y11.714 Z-2.000 I-0.476 J-0.369 K0.000 F30.000
G2 X-11.086 Y11.627 Z-2.000 I-0.503 J0.337 K0.000 F30.000
G2 X-11.218 Y10.696 Z-2.000 I-0.439 J-0.412 K0.000 F30.000
G2 X-12.141 Y10.520 Z-2.000 I-0.533 J0.288 K0.000 F30.000
G2 X-12.184 Y9.581 Z-2.000 I-0.398 J-0.452 K0.000 F30.000
G2 X-13.086 Y9.318 Z-2.000 I-0.558 J0.236 K0.000 F30.000
G2 X-13.039 Y8.380 Z-2.000 I-0.353 J-0.488 K0.000 F30.000
G2 X-13.912 Y8.032 Z-2.000 I-0.578 J0.182 K0.000 F30.000
G2 X-13.777 Y7.103 Z-2.000 I-0.305 J-0.519 K0.000 F30.000
G2 X-14.613 Y6.673 Z-2.000 I-0.593 J0.126 K0.000 F30.000
G2 X-14.390 Y5.761 Z-2.000 I-0.254 J-0.546 K0.000 F30.000
G2 X-15.181 Y5.254 Z-2.000 I-0.602 J0.069 K0.000 F30.000
G2 X-14.872 Y4.367 Z-2.000 I-0.201 J-0.568 K0.000 F30.000
G2 X-15.612 Y3.787 Z-2.000 I-0.606 J0.012 K0.000 F30.000
G2 X-15.220 Y2.933 Z-2.000 I-0.147 J-0.584 K0.000 F30.000
G2 X-15.901 Y2.286 Z-2.000 I-0.604 J-0.046 K0.000 F30.000
G2 X-15.430 Y1.473 Z-2.000 I-0.090 J-0.595 K0.000 F30.000
G2 X-16.046 Y0.764 Z-2.000 I-0.597 J-0.103 K0.000 F30.000
G2 X-15.500 Y-0.000 Z-2.000 I-0.033 J-0.601 K0.000 F30.000
G2 X-16.046 Y-0.764 Z-2.000 I-0.585 J-0.160 K0.000 F30.000
G2 X-15.430 Y-1.473 Z-2.000 I0.024 J-0.602 K0.000 F30.000
G2 X-15.901 Y-2.286 Z-2.000 I-0.567 J-0.214 K0.000 F30.000
G2 X-15.220 Y-2.933 Z-2.000 I0.081 J-0.597 K0.000 F30.000
G2 X-15.612 Y-3.787 Z-2.000 I-0.544 J-0.267 K0.000 F30.000
G2 X-14.872 Y-4.367 Z-2.000 I0.137 J-0.586 K0.000 F30.000
G2 X-15.181 Y-5.254 Z-2.000 I-0.516 J-0.318 K0.000 F30.000
G2 X-14.390 Y-5.761 Z-2.000 I0.193 J-0.571 K0.000 F30.000
G2 X-14.613 Y-6.673 Z-2.000 I-0.483 J-0.365 K0.000 F30.000
G2 X-13.777 Y-7.103 Z-2.000 I0.246 J-0.550 K0.000 F30.000
G2 X-13.912 Y-8.032 Z-2.000 I-0.447 J-0.410 K0.000 F30.000
G2 X-13.039 Y-8.380 Z-2.000 I0.297 J-0.524 K0.000 F30.000
G2 X-13.086 Y-9.318 Z-2.000 I-0.406 J-0.450 K0.000 F30.000
G2 X-12.184 Y-9.581 Z-2.000 I0.346 J-0.493 K0.000 F30.000
G2 X-12.141 Y-10.520 Z-2.000 I-0.361 J-0.487 K0.000 F30.000
G2 X-11.218 Y-10.696 Z-2.000 I0.391 J-0.458 K0.000 F30.000
G2 X-11.086 Y-11.627 Z-2.000 I-0.313 J-0.519 K0.000 F30.000
G2 X-10.150 Y-11.714 Z-2.000 I0.433 J-0.419 K0.000 F30.000
G2 X-9.930 Y-12.628 Z-2.000 I-0.262 J-0.546 K0.000 F30.000
G2 X-8.991 Y-12.626 Z-2.000 I0.471 J-0.376 K0.000 F30.000
G2 X-8.685 Y-13.514 Z-2.000 I-0.209 J-0.569 K0.000 F30.000
G2 X-7.750 Y-13.423 Z-2.000 I0.504 J-0.330 K0.000 F30.000
G2 X-7.361 Y-14.279 Z-2.000 I-0.154 J-0.586 K0.000 F30.000
G2 X-6.439 Y-14.099 Z-2.000 I0.533 J-0.280 K0.000 F30.000
G2 X-5.971 Y-14.914 Z-2.000 I-0.098 J-0.598 K0.000 F30.000
G2 X-5.070 Y-14.648 Z-2.000 I0.557 J-0.228 K0.000 F30.000
G2 X-4.526 Y-15.414 Z-2.000 I-0.040 J-0.605 K0.000 F30.000
G2 X-3.654 Y-15.063 Z-2.000 I0.577 J-0.174 K0.000 F30.000
G2 X-3.040 Y-15.774 Z-2.000 I0.017 J-0.606 K0.000 F30.000
G2 X-2.206 Y-15.342 Z-2.000 I0.590 J-0.119 K0.000 F30.000
G2 X-1.527 Y-15.992 Z-2.000 I0.075 J-0.601 K0.000 F30.000
G2 X-0.738 Y-15.482 Z-2.000 I0.599 J-0.062 K0.000 F30.000
G2 X0.000 Y-16.065 Z-2.000 I0.132 J-0.592 K0.000 F30.000
G2 X0.738 Y-15.482 Z-2.000 I0.602 J-0.005 K0.000 F30.000
G2 X1.527 Y-15.992 Z-2.000 I0.187 J-0.576 K0.000 F30.000
G2 X2.206 Y-15.342 Z-2.000 I0.600 J0.053 K0.000 F30.000
G2 X3.040 Y-15.774 Z-2.000 I0.241 J-0.556 K0.000 F30.000
G2 X3.654 Y-15.063 Z-2.000 I0.592 J0.109 K0.000 F30.000
G2 X4.526 Y-15.414 Z-2.000 I0.293 J-0.531 K0.000 F30.000
G2 X5.070 Y-14.648 Z-2.000 I0.579 J0.165 K0.000 F30.000
G2 X5.971 Y-14.914 Z-2.000 I0.342 J-0.500 K0.000 F30.000
G2 X6.439 Y-14.099 Z-2.000 I0.561 J0.219 K0.000 F30.000
G2 X7.361 Y-14.279 Z-2.000 I0.388 J-0.466 K0.000 F30.000
G2 X7.750 Y-13.423 Z-2.000 I0.537 J0.272 K0.000 F30.000
G2 X8.685 Y-13.514 Z-2.000 I0.431 J-0.427 K0.000 F30.000
G2 X8.991 Y-12.626 Z-2.000 I0.509 J0.322 K0.000 F30.000
G2 X9.930 Y-12.628 Z-2.000 I0.469 J-0.384 K0.000 F30.000
G2 X10.150 Y-11.714 Z-2.000 I0.476 J0.369 K0.000 F30.000
G2 X11.086 Y-11.627 Z-2.000 I0.503 J-0.337 K0.000 F30.000
G2 X11.218 Y-10.696 Z-2.000 I0.439 J0.412 K0.000 F30.000
G2 X12.141 Y-10.520 Z-2.000 I0.533 J-0.288 K0.000 F30.000
G2 X12.184 Y-9.581 Z-2.000 I0.398 J0.452 K0.000 F30.000
G2 X13.086 Y-9.318 Z-2.000 I0.558 J-0.236 K0.000 F30.000
G2 X13.039 Y-8.380 Z-2.000 I0.353 J0.488 K0.000 F30.000
G2 X13.912 Y-8.032 Z-2.000 I0.578 J-0.182 K0.000 F30.000
G2 X13.777 Y-7.103 Z-2.000 I0.305 J0.519 K0.000 F30.000
G2 X14.613 Y-6.673 Z-2.000 I0.593 J-0.126 K0.000 F30.000
G2 X14.390 Y-5.761 Z-2.000 I0.254 J0.546 K0.000 F30.000
G2 X15.181 Y-5.254 Z-2.000 I0.602 J-0.069 K0.000 F30.000
G2 X14.872 Y-4.367 Z-2.000 I0.201 J0.568 K0.000 F30.000
G2 X15.612 Y-3.787 Z-2.000 I0.606 J-0.012 K0.000 F30.000
G2 X15.220 Y-2.933 Z-2.000 I0.147 J0.584 K0.000 F30.000
G2 X15.901 Y-2.286 Z-2.000 I0.604 J0.046 K0.000 F30.000
G2 X15.430 Y-1.473 Z-2.000 I0.090 J0.595 K0.000 F30.000
G2 X16.046 Y-0.764 Z-2.000 I0.597 J0.103 K0.000 F30.000
G2 X15.500 Y0.000 Z-2.000 I0.033 J0.601 K0.000 F30.000
G2 X16.046 Y0.764 Z-2.000 I0.585 J0.160 K0.000 F30.000
G2 X15.430 Y1.473 Z-2.000 I-0.024 J0.602 K0.000 F30.000
G2 X15.901 Y2.286 Z-2.000 I0.567 J0.214 K0.000 F30.000
G2 X15.220 Y2.933 Z-2.000 I-0.081 J0.597 K0.000 F30.000
G2 X15.612 Y3.787 Z-2.000 I0.544 J0.267 K0.000 F30.000
G2 X14.872 Y4.367 Z-2.000 I-0.137 J0.586 K0.000 F30.000
G2 X15.181 Y5.254 Z-2.000 I0.516 J0.318 K0.000 F30.000
G2 X14.390 Y5.761 Z-2.000 I-0.193 J0.571 K0.000 F30.000
G2 X14.613 Y6.673 Z-2.000 I0.483 J0.365 K0.000 F30.000
G2 X13.777 Y7.103 Z-2.000 I-0.246 J0.550 K0.000 F30.000
G2 X13.912 Y8.032 Z-2.000 I0.447 J0.410 K0.000 F30.000
G2 X13.039 Y8.380 Z-2.000 I-0.297 J0.524 K0.000 F30.000
G2 X13.086 Y9.318 Z-2.000 I0.406 J0.450 K0.000 F30.000
G2 X12.184 Y9.581 Z-2.000 I-0.346 J0.493 K0.000 F30.000
G2 X12.141 Y10.520 Z-2.000 I0.361 J0.487 K0.000 F30.000
G2 X11.218 Y10.696 Z-2.000 I-0.391 J0.458 K0.000 F30.000
G2 X11.086 Y11.627 Z-2.000 I0.313 J0.519 K0.000 F30.000
G1 X11.086 Y11.627 Z-2.500 F30.000
G2 X10.150 Y11.714 Z-2.500 I-0.433 J0.419 K0.000 F30.000
G2 X9.930 Y12.628 Z-2.500 I0.262 J0.546 K0.000 F30.000
G2 X8.991 Y12.626 Z-2.500 I-0.471 J0.376 K0.000 F30.000
G2 X8.685 Y13.514 Z-2.500 I0.209 J0.569 K0.000 F30.000
G2 X7.750 Y13.423 Z-2.500 I-0.504 J0.330 K0.000 F30.000
G2 X7.361 Y14.279 Z-2.500 I0.154 J0.586 K0.000 F30.000
G2 X6.439 Y14.099 Z-2.500 I-0.533 J0.280 K0.000 F30.000
G2 X5.971 Y14.914 Z-2.500 I0.098 J0.598 K0.000 F30.000
G2 X5.070 Y14.648 Z-2.500 I-0.557 J0.228 K0.000 F30.000
G2 X4.526 Y15.414 Z-2.500 I0.040 J0.605 K0.000 F30.000
G2 X3.654 Y15.063 Z-2.500 I-0.577 J0.174 K0.000 F30.000
G2 X3.040 Y15.774 Z-2.500 I-0.017 J0.606 K0.000 F30.000
G2 X2.206 Y15.342 Z-2.500 I-0.590 J0.119 K0.000 F30.000
G2 X1.527 Y15.992 Z-2.500 I-0.075 J0.601 K0.000 F30.000
G2 X0.738 Y15.482 Z-2.500 I-0.599 J0.062 K0.000 F30.000
G2 X0.000 Y16.065 Z-2.500 I-0.132 J0.592 K0.000 F30.000
G2 X-0.738 Y15.482 Z-2.500 I-0.602 J0.005 K0.000 F30.000
G2 X-1.527 Y15.992 Z-2.500 I-0.187 J0.576 K0.000 F30.000
G2 X-2.206 Y15.342 Z-2.500 I-0.600 J-0.053 K0.000 F30.000
G2 X-3.040 Y15.774 Z-2.500 I-0.241 J0.556 K0.000 F30.000
G2 X-3.654 Y15.063 Z-2.500 I-0.592 J-0.109 K0.000 F30.000
G2 X-4.526 Y15.414 Z-2.500 I-0.293 J0.531 K0.000 F30.000
G2 X-5.070 Y14.648 Z-2.500 I-0.579 J-0.165 K0.000 F30.000
G2 X-5.971 Y14.914 Z-2.500 I-0.342 J0.500 K0.000 F30.000
G2 X-6.439 Y14.099 Z-2.500 I-0.561 J-0.219 K0.000 F30.000
G2 X-7.361 Y14.279 Z-2.500 I-0.388 J0.466 K0.000 F30.000
G2 X-7.750 Y13.423 Z-2.500 I-0.537 J-0.272 K0.000 F30.000
G2 X-8.685 Y13.514 Z-2.500 I-0.431 J0.427 K0.000 F30.000
G2 X-8.991 Y12.626 Z-2.500 I-0.509 J-0.322 K0.000 F30.000
G2 X-9.930 Y12.628 Z-2.500 I-0.469 J0.384 K0.000 F30.000
G2 X-10.150 Y11.714 Z-2.500 I-0.476 J-0.369 K0.000 F30.000
G2 X-11.086 Y11.627 Z-2.500 I-0.503 J0.337 K0.000 F30.000
G2 X-11.218 Y10.696 Z-2.500 I-0.439 J-0.412 K0.000 F30.000
G2 X-12.141 Y10.520 Z-2.500 I-0.533 J0.288 K0.000 F30.000
G2 X-12.184 Y9.581 Z-2.500 I-0.398 J-0.452 K0.000 F30.000
G2 X-13.086 Y9.318 Z-2.500 I-0.558 J0.236 K0.000 F30.000
G2 X-13.039 Y8.380 Z-2.500 I-0.353 J-0.488 K0.000 F30.000
G2 X-13.912 Y8.032 Z-2.500 I-0.578 J0.182 K0.000 F30.000
G2 X-13.777 Y7.103 Z-2.500 I-0.305 J-0.519 K0.000 F30.000
G2 X-14.613 Y6.673 Z-2.500 I-0.593 J0.126 K0.000 F30.000
G2 X-14.390 Y5.761 Z-2.500 I-0.254 J-0.546 K0.000 F30.000
G2 X-15.181 Y5.254 Z-2.500 I-0.602 J0.069 K0.000 F30.000
G2 X-14.872 Y4.367 Z-2.500 I-0.201 J-0.568 K0.000 F30.000
G2 X-15.612 Y3.787 Z-2.500 I-0.606 J0.012 K0.000 F30.000
G2 X-15.220 Y2.933 Z-2.500 I-0.147 J-0.584 K0.000 F30.000
G2 X-15.901 Y2.286 Z-2.500 I-0.604 J-0.046 K0.000 F30.000
G2 X-15.430 Y1.473 Z-2.500 I-0.090 J-0.595 K0.000 F30.000
G2 X-16.046 Y0.764 Z-2.500 I-0.597 J-0.103 K0.000 F30.000
G2 X-15.500 Y-0.000 Z-2.500 I-0.033 J-0.601 K0.000 F30.000
G2 X-16.046 Y-0.764 Z-2.500 I-0.585 J-0.160 K0.000 F30.000
G2 X-15.430 Y-1.473 Z-2.500 I0.024 J-0.602 K0.000 F30.000
G2 X-15.901 Y-2.286 Z-2.500 I-0.567 J-0.214 K0.000 F30.000
G2 X-15.220 Y-2.933 Z-2.500 I0.081 J-0.597 K0.000 F30.000
G2 X-15.612 Y-3.787 Z-2.500 I-0.544 J-0.267 K0.000 F30.000
G2 X-14.872 Y-4.367 Z-2.500 I0.137 J-0.586 K0.000 F30.000
G2 X-15.181 Y-5.254 Z-2.500 I-0.516 J-0.318 K0.000 F30.000
G2 X-14.390 Y-5.761 Z-2.500 I0.193 J-0.571 K0.000 F30.000
G2 X-14.613 Y-6.673 Z-2.500 I-0.483 J-0.365 K0.000 F30.000
G2 X-13.777 Y-7.103 Z-2.500 I0.246 J-0.550 K0.000 F30.000
G2 X-13.912 Y-8.032 Z-2.500 I-0.447 J-0.410 K0.000 F30.000
G2 X-13.039 Y-8.380 Z-2.500 I0.297 J-0.524 K0.000 F30.000
G2 X-13.086 Y-9.318 Z-2.500 I-0.406 J-0.450 K0.000 F30.000
G2 X-12.184 Y-9.581 Z-2.500 I0.346 J-0.493 K0.000 F30.000
G2 X-12.141 Y-10.520 Z-2.500 I-0.361 J-0.487 K0.000 F30.000
G2 X-11.218 Y-10.696 Z-2.500 I0.391 J-0.458 K0.000 F30.000
G2 X-11.086 Y-11.627 Z-2.500 I-0.313 J-0.519 K0.000 F30.000
G2 X-10.150 Y-11.714 Z-2.500 I0.433 J-0.419 K0.000 F30.000
G2 X-9.930 Y-12.628 Z-2.500 I-0.262 J-0.546 K0.000 F30.000
G2 X-8.991 Y-12.626 Z-2.500 I0.471 J-0.376 K0.000 F30.000
G2 X-8.685 Y-13.514 Z-2.500 I-0.209 J-0.569 K0.000 F30.000
G2 X-7.750 Y-13.423 Z-2.500 I0.504 J-0.330 K0.000 F30.000
G2 X-7.361 Y-14.279 Z-2.500 I-0.154 J-0.586 K0.000 F30.000
G2 X-6.439 Y-14.099 Z-2.500 I0.533 J-0.280 K0.000 F30.000
G2 X-5.971 Y-14.914 Z-2.500 I-0.098 J-0.598 K0.000 F30.000
G2 X-5.070 Y-14.648 Z-2.500 I0.557 J-0.228 K0.000 F30.000
G2 X-4.526 Y-15.414 Z-2.500 I-0.040 J-0.605 K0.000 F30.000
G2 X-3.654 Y-15.063 Z-2.500 I0.577 J-0.174 K0.000 F30.000
G2 X-3.040 Y-15.774 Z-2.500 I0.017 J-0.606 K0.000 F30.000
G2 X-2.206 Y-15.342 Z-2.500 I0.590 J-0.119 K0.000 F30.000
G2 X-1.527 Y-15.992 Z-2.500 I0.075 J-0.601 K0.000 F30.000
G2 X-0.738 Y-15.482 Z-2.500 I0.599 J-0.062 K0.000 F30.000
G2 X0.000 Y-16.065 Z-2.500 I0.132 J-0.592 K0.000 F30.000
G2 X0.738 Y-15.482 Z-2.500 I0.602 J-0.005 K0.000 F30.000
G2 X1.527 Y-15.992 Z-2.500 I0.187 J-0.576 K0.000 F30.000
G2 X2.206 Y-15.342 Z-2.500 I0.600 J0.053 K0.000 F30.000
G2 X3.040 Y-15.774 Z-2.500 I0.241 J-0.556 K0.000 F30.000
G2 X3.654 Y-15.063 Z-2.500 I0.592 J0.109 K0.000 F30.000
G2 X4.526 Y-15.414 Z-2.500 I0.293 J-0.531 K0.000 F30.000
G2 X5.070 Y-14.648 Z-2.500 I0.579 J0.165 K0.000 F30.000
G2 X5.971 Y-14.914 Z-2.500 I0.342 J-0.500 K0.000 F30.000
G2 X6.439 Y-14.099 Z-2.500 I0.561 J0.219 K0.000 F30.000
G2 X7.361 Y-14.279 Z-2.500 I0.388 J-0.466 K0.000 F30.000
G2 X7.750 Y-13.423 Z-2.500 I0.537 J0.272 K0.000 F30.000
G2 X8.685 Y-13.514 Z-2.500 I0.431 J-0.427 K0.000 F30.000
G2 X8.991 Y-12.626 Z-2.500 I0.509 J0.322 K0.000 F30.000
G2 X9.930 Y-12.628 Z-2.500 I0.469 J-0.384 K0.000 F30.000
G2 X10.150 Y-11.714 Z-2.500 I0.476 J0.369 K0.000 F30.000
G2 X11.086 Y-11.627 Z-2.500 I0.503 J-0.337 K0.000 F30.000
G2 X11.218 Y-10.696 Z-2.500 I0.439 J0.412 K0.000 F30.000
G2 X12.141 Y-10.520 Z-2.500 I0.533 J-0.288 K0.000 F30.000
G2 X12.184 Y-9.581 Z-2.500 I0.398 J0.452 K0.000 F30.000
G2 X13.086 Y-9.318 Z-2.500 I0.558 J-0.236 K0.000 F30.000
G2 X13.039 Y-8.380 Z-2.500 I0.353 J0.488 K0.000 F30.000
G2 X13.912 Y-8.032 Z-2.500 I0.578 J-0.182 K0.000 F30.000
G2 X13.777 Y-7.103 Z-2.500 I0.305 J0.519 K0.000 F30.000
G2 X14.613 Y-6.673 Z-2.500 I0.593 J-0.126 K0.000 F30.000
G2 X14.390 Y-5.761 Z-2.500 I0.254 J0.546 K0.000 F30.000
G2 X15.181 Y-5.254 Z-2.500 I0.602 J-0.069 K0.000 F30.000
G2 X14.872 Y-4.367 Z-2.500 I0.201 J0.568 K0.000 F30.000
G2 X15.612 Y-3.787 Z-2.500 I0.606 J-0.012 K0.000 F30.000
G2 X15.220 Y-2.933 Z-2.500 I0.147 J0.584 K0.000 F30.000
G2 X15.901 Y-2.286 Z-2.500 I0.604 J0.046 K0.000 F30.000
G2 X15.430 Y-1.473 Z-2.500 I0.090 J0.595 K0.000 F30.000
G2 X16.046 Y-0.764 Z-2.500 I0.597 J0.103 K0.000 F30.000
G2 X15.500 Y0.000 Z-2.500 I0.033 J0.601 K0.000 F30.000
G2 X16.046 Y0.764 Z-2.500 I0.585 J0.160 K0.000 F30.000
G2 X15.430 Y1.473 Z-2.500 I-0.024 J0.602 K0.000 F30.000
G2 X15.901 Y2.286 Z-2.500 I0.567 J0.214 K0.000 F30.000
G2 X15.220 Y2.933 Z-2.500 I-0.081 J0.597 K0.000 F30.000
G2 X15.612 Y3.787 Z-2.500 I0.544 J0.267 K0.000 F30.000
G2 X14.872 Y4.367 Z-2.500 I-0.137 J0.586 K0.000 F30.000
G2 X15.181 Y5.254 Z-2.500 I0.516 J0.318 K0.000 F30.000
G2 X14.390 Y5.761 Z-2.500 I-0.193 J0.571 K0.000 F30.000
G2 X14.613 Y6.673 Z-2.500 I0.483 J0.365 K0.000 F30.000
G2 X13.777 Y7.103 Z-2.500 I-0.246 J0.550 K0.000 F30.000
G2 X13.912 Y8.032 Z-2.500 I0.447 J0.410 K0.000 F30.000
G2 X13.039 Y8.380 Z-2.500 I-0.297 J0.524 K0.000 F30.000
G2 X13.086 Y9.318 Z-2.500 I0.406 J0.450 K0.000 F30.000
G2 X12.184 Y9.581 Z-2.500 I-0.346 J0.493 K0.000 F30.000
G2 X12.141 Y10.520 Z-2.500 I0.361 J0.487 K0.000 F30.000
G2 X11.218 Y10.696 Z-2.500 I-0.391 J0.458 K0.000 F30.000
G2 X11.086 Y11.627 Z-2.500 I0.313 J0.519 K0.000 F30.000
G1 X11.086 Y11.627 Z-3.000 F30.000
G2 X10.150 Y11.714 Z-3.000 I-0.433 J0.419 K0.000 F30.000
G2 X9.930 Y12.628 Z-3.000 I0.262 J0.546 K0.000 F30.000
G2 X8.991 Y12.626 Z-3.000 I-0.471 J0.376 K0.000 F30.000
G2 X8.685 Y13.514 Z-3.000 I0.209 J0.569 K0.000 F30.000
G2 X7.750 Y13.423 Z-3.000 I-0.504 J0.330 K0.000 F30.000
G2 X7.361 Y14.279 Z-3.000 I0.154 J0.586 K0.000 F30.000
G2 X6.439 Y14.099 Z-3.000 I-0.533 J0.280 K0.000 F30.000
G2 X5.971 Y14.914 Z-3.000 I0.098 J0.598 K0.000 F30.000
G2 X5.070 Y14.648 Z-3.000 I-0.557 J0.228 K0.000 F30.000
G2 X4.526 Y15.414 Z-3.000 I0.040 J0.605 K0.000 F30.000
G2 X3.654 Y15.063 Z-3.000 I-0.577 J0.174 K0.000 F30.000
G2 X3.040 Y15.774 Z-3.000 I-0.017 J0.606 K0.000 F30.000
G2 X2.206 Y15.342 Z-3.000 I-0.590 J0.119 K0.000 F30.000
G2 X1.527 Y15.992 Z-3.000 I-0.075 J0.601 K0.000 F30.000
G2 X0.738 Y15.482 Z-3.000 I-0.599 J0.062 K0.000 F30.000
G2 X0.000 Y16.065 Z-3.000 I-0.132 J0.592 K0.000 F30.000
G2 X-0.738 Y15.482 Z-3.000 I-0.602 J0.005 K0.000 F30.000
G2 X-1.527 Y15.992 Z-3.000 I-0.187 J0.576 K0.000 F30.000
G2 X-2.206 Y15.342 Z-3.000 I-0.600 J-0.053 K0.000 F30.000
G2 X-3.040 Y15.774 Z-3.000 I-0.241 J0.556 K0.000 F30.000
G2 X-3.654 Y15.063 Z-3.000 I-0.592 J-0.109 K0.000 F30.000
G2 X-4.526 Y15.414 Z-3.000 I-0.293 J0.531 K0.000 F30.000
G2 X-5.070 Y14.648 Z-3.000 I-0.579 J-0.165 K0.000 F30.000
G2 X-5.971 Y14.914 Z-3.000 I-0.342 J0.500 K0.000 F30.000
G2 X-6.439 Y14.099 Z-3.000 I-0.561 J-0.219 K0.000 F30.000
G2 X-7.361 Y14.279 Z-3.000 I-0.388 J0.466 K0.000 F30.000
G2 X-7.750 Y13.423 Z-3.000 I-0.537 J-0.272 K0.000 F30.000
G2 X-8.685 Y13.514 Z-3.000 I-0.431 J0.427 K0.000 F30.000
G2 X-8.991 Y12.626 Z-3.000 I-0.509 J-0.322 K0.000 F30.000
G2 X-9.930 Y12.628 Z-3.000 I-0.469 J0.384 K0.000 F30.000
G2 X-10.150 Y11.714 Z-3.000 I-0.476 J-0.369 K0.000 F30.000
G2 X-11.086 Y11.627 Z-3.000 I-0.503 J0.337 K0.000 F30.000
G2 X-11.218 Y10.696 Z-3.000 I-0.439 J-0.412 K0.000 F30.000
G2 X-12.141 Y10.520 Z-3.000 I-0.533 J0.288 K0.000 F30.000
G2 X-12.184 Y9.581 Z-3.000 I-0.398 J-0.452 K0.000 F30.000
G2 X-13.086 Y9.318 Z-3.000 I-0.558 J0.236 K0.000 F30.000
G2 X-13.039 Y8.380 Z-3.000 I-0.353 J-0.488 K0.000 F30.000
G2 X-13.912 Y8.032 Z-3.000 I-0.578 J0.182 K0.000 F30.000
G2 X-13.777 Y7.103 Z-3.000 I-0.305 J-0.519 K0.000 F30.000
G2 X-14.613 Y6.673 Z-3.000 I-0.593 J0.126 K0.000 F30.000
G2 X-14.390 Y5.761 Z-3.000 I-0.254 J-0.546 K0.000 F30.000
G2 X-15.181 Y5.254 Z-3.000 I-0.602 J0.069 K0.000 F30.000
G2 X-14.872 Y4.367 Z-3.000 I-0.201 J-0.568 K0.000 F30.000
G2 X-15.612 Y3.787 Z-3.000 I-0.606 J0.012 K0.000 F30.000
G2 X-15.220 Y2.933 Z-3.000 I-0.147 J-0.584 K0.000 F30.000
G2 X-15.901 Y2.286 Z-3.000 I-0.604 J-0.046 K0.000 F30.000
G2 X-15.430 Y1.473 Z-3.000 I-0.090 J-0.595 K0.000 F30.000
G2 X-16.046 Y0.764 Z-3.000 I-0.597 J-0.103 K0.000 F30.000
G2 X-15.500 Y-0.000 Z-3.000 I-0.033 J-0.601 K0.000 F30.000
G2 X-16.046 Y-0.764 Z-3.000 I-0.585 J-0.160 K0.000 F30.000
G2 X-15.430 Y-1.473 Z-3.000 I0.024 J-0.602 K0.000 F30.000
G2 X-15.901 Y-2.286 Z-3.000 I-0.567 J-0.214 K0.000 F30.000
G2 X-15.220 Y-2.933 Z-3.000 I0.081 J-0.597 K0.000 F30.000
G2 X-15.612 Y-3.787 Z-3.000 I-0.544 J-0.267 K0.000 F30.000
G2 X-14.872 Y-4.367 Z-3.000 I0.137 J-0.586 K0.000 F30.000
G2 X-15.181 Y-5.254 Z-3.000 I-0.516 J-0.318 K0.000 F30.000
G2 X-14.390 Y-5.761 Z-3.000 I0.193 J-0.571 K0.000 F30.000
G2 X-14.613 Y-6.673 Z-3.000 I-0.483 J-0.365 K0.000 F30.000
G2 X-13.777 Y-7.103 Z-3.000 I0.246 J-0.550 K0.000 F30.000
G2 X-13.912 Y-8.032 Z-3.000 I-0.447 J-0.410 K0.000 F30.000
G2 X-13.039 Y-8.380 Z-3.000 I0.297 J-0.524 K0.000 F30.000
G2 X-13.086 Y-9.318 Z-3.000 I-0.406 J-0.450 K0.000 F30.000
G2 X-12.184 Y-9.581 Z-3.000 I0.346 J-0.493 K0.000 F30.000
G2 X-12.141 Y-10.520 Z-3.000 I-0.361 J-0.487 K0.000 F30.000
G2 X-11.218 Y-10.696 Z-3.000 I0.391 J-0.458 K0.000 F30.000
G2 X-11.086 Y-11.627 Z-3.000 I-0.313 J-0.519 K0.000 F30.000
G2 X-10.150 Y-11.714 Z-3.000 I0.433 J-0.419 K0.000 F30.000
G2 X-9.930 Y-12.628 Z-3.000 I-0.262 J-0.546 K0.000 F30.000
G2 X-8.991 Y-12.626 Z-3.000 I0.471 J-0.376 K0.000 F30.000
G2 X-8.685 Y-13.514 Z-3.000 I-0.209 J-0.569 K0.000 F30.000
G2 X-7.750 Y-13.423 Z-3.000 I0.504 J-0.330 K0.000 F30.000
G2 X-7.361 Y-14.279 Z-3.000 I-0.154 J-0.586 K0.000 F30.000
G2 X-6.439 Y-14.099 Z-3.000 I0.533 J-0.280 K0.000 F30.000
G2 X-5.971 Y-14.914 Z-3.000 I-0.098 J-0.598 K0.000 F30.000
G2 X-5.070 Y-14.648 Z-3.000 I0.557 J-0.228 K0.000 F30.000
G2 X-4.526 Y-15.414 Z-3.000 I-0.040 J-0.605 K0.000 F30.000
G2 X-3.654 Y-15.063 Z-3.000 I0.577 J-0.174 K0.000 F30.000
G2 X-3.040 Y-15.774 Z-3.000 I0.017 J-0.606 K0.000 F30.000
G2 X-2.206 Y-15.342 Z-3.000 I0.590 J-0.119 K0.000 F30.000
G2 X-1.527 Y-15.992 Z-3.000 I0.075 J-0.601 K0.000 F30.000
G2 X-0.738 Y-15.482 Z-3.000 I0.599 J-0.062 K0.000 F30.000
G2 X0.000 Y-16.065 Z-3.000 I0.132 J-0.592 K0.000 F30.000
G2 X0.738 Y-15.482 Z-3.000 I0.602 J-0.005 K0.000 F30.000
G2 X1.527 Y-15.992 Z-3.000 I0.187 J-0.576 K0.000 F30.000
G2 X2.206 Y-15.342 Z-3.000 I0.600 J0.053 K0.000 F30.000
G2 X3.040 Y-15.774 Z-3.000 I0.241 J-0.556 K0.000 F30.000
G2 X3.654 Y-15.063 Z-3.000 I0.592 J0.109 K0.000 F30.000
G2 X4.526 Y-15.414 Z-3.000 I0.293 J-0.531 K0.000 F30.000
G2 X5.070 Y-14.648 Z-3.000 I0.579 J0.165 K0.000 F30.000
G2 X5.971 Y-14.914 Z-3.000 I0.342 J-0.500 K0.000 F30.000
G2 X6.439 Y-14.099 Z-3.000 I0.561 J0.219 K0.000 F30.000
G2 X7.361 Y-14.279 Z-3.000 I0.388 J-0.466 K0.000 F30.000
G2 X7.750 Y-13.423 Z-3.000 I0.537 J0.272 K0.000 F30.000
G2 X8.685 Y-13.514 Z-3.000 I0.431 J-0.427 K0.000 F30.000
G2 X8.991 Y-12.626 Z-3.000 I0.509 J0.322 K0.000 F30.000
G2 X9.930 Y-12.628 Z-3.000 I0.469 J-0.384 K0.000 F30.000
G2 X10.150 Y-11.714 Z-3.000 I0.476 J0.369 K0.000 F30.000
G2 X11.086 Y-11.627 Z-3.000 I0.503 J-0.337 K0.000 F30.000
G2 X11.218 Y-10.696 Z-3.000 I0.439 J0.412 K0.000 F30.000
G2 X12.141 Y-10.520 Z-3.000 I0.533 J-0.288 K0.000 F30.000
G2 X12.184 Y-9.581 Z-3.000 I0.398 J0.452 K0.000 F30.000
G2 X13.086 Y-9.318 Z-3.000 I0.558 J-0.236 K0.000 F30.000
G2 X13.039 Y-8.380 Z-3.000 I0.353 J0.488 K0.000 F30.000
G2 X13.912 Y-8.032 Z-3.000 I0.578 J-0.182 K0.000 F30.000
G2 X13.777 Y-7.103 Z-3.000 I0.305 J0.519 K0.000 F30.000
G2 X14.613 Y-6.673 Z-3.000 I0.593 J-0.126 K0.000 F30.000
G2 X14.390 Y-5.761 Z-3.000 I0.254 J0.546 K0.000 F30.000
G2 X15.181 Y-5.254 Z-3.000 I0.602 J-0.069 K0.000 F30.000
G2 X14.872 Y-4.367 Z-3.000 I0.201 J0.568 K0.000 F30.000
G2 X15.612 Y-3.787 Z-3.000 I0.606 J-0.012 K0.000 F30.000
G2 X15.220 Y-2.933 Z-3.000 I0.147 J0.584 K0.000 F30.000
G2 X15.901 Y-2.286 Z-3.000 I0.604 J0.046 K0.000 F30.000
G2 X15.430 Y-1.473 Z-3.000 I0.090 J0.595 K0.000 F30.000
G2 X16.046 Y-0.764 Z-3.000 I0.597 J0.103 K0.000 F30.000
G2 X15.500 Y0.000 Z-3.000 I0.033 J0.601 K0.000 F30.000
G2 X16.046 Y0.764 Z-3.000 I0.585 J0.160 K0.000 F30.000
G2 X15.430 Y1.473 Z-3.000 I-0.024 J0.602 K0.000 F30.000
G2 X15.901 Y2.286 Z-3.000 I0.567 J0.214 K0.000 F30.000
G2 X15.220 Y2.933 Z-3.000 I-0.081 J0.597 K0.000 F30.000
G2 X15.612 Y3.787 Z-3.000 I0.544 J0.267 K0.000 F30.000
G2 X14.872 Y4.367 Z-3.000 I-0.137 J0.586 K0.000 F30.000
G2 X15.181 Y5.254 Z-3.000 I0.516 J0.318 K0.000 F30.000
G2 X14.390 Y5.761 Z-3.000 I-0.193 J0.571 K0.000 F30.000
G2 X14.613 Y6.673 Z-3.000 I0.483 J0.365 K0.000 F30.000
G2 X13.777 Y7.103 Z-3.000 I-0.246 J0.550 K0.000 F30.000
G2 X13.912 Y8.032 Z-3.000 I0.447 J0.410 K0.000 F30.000
G2 X13.039 Y8.380 Z-3.000 I-0.297 J0.524 K0.000 F30.000
G2 X13.086 Y9.318 Z-3.000 I0.406 J0.450 K0.000 F30.000
G2 X12.184 Y9.581 Z-3.000 I-0.346 J0.493 K0.000 F30.000
G2 X12.141 Y10.520 Z-3.000 I0.361 J0.487 K0.000 F30.000
G2 X11.218 Y10.696 Z-3.000 I-0.391 J0.458 K0.000 F30.000
G2 X11.086 Y11.627 Z-3.000 I0.313 J0.519 K0.000 F30.000
G1 X11.086 Y11.627 Z-3.500 F30.000
G2 X10.150 Y11.714 Z-3.500 I-0.433 J0.419 K0.000 F30.000
G2 X9.930 Y12.628 Z-3.500 I0.262 J0.546 K0.000 F30.000
G2 X8.991 Y12.626 Z-3.500 I-0.471 J0.376 K0.000 F30.000
G2 X8.685 Y13.514 Z-3.500 I0.209 J0.569 K0.000 F30.000
G2 X7.750 Y13.423 Z-3.500 I-0.504 J0.330 K0.000 F30.000
G2 X7.361 Y14.279 Z-3.500 I0.154 J0.586 K0.000 F30.000
G2 X6.439 Y14.099 Z-3.500 I-0.533 J0.280 K0.000 F30.000
G2 X5.971 Y14.914 Z-3.500 I0.098 J0.598 K0.000 F30.000
G2 X5.070 Y14.648 Z-3.500 I-0.557 J0.228 K0.000 F30.000
G2 X4.526 Y15.414 Z-3.500 I0.040 J0.605 K0.000 F30.000
G2 X3.654 Y15.063 Z-3.500 I-0.577 J0.174 K0.000 F30.000
G2 X3.040 Y15.774 Z-3.500 I-0.017 J0.606 K0.000 F30.000
G2 X2.206 Y15.342 Z-3.500 I-0.590 J0.119 K0.000 F30.000
G2 X1.527 Y15.992 Z-3.500 I-0.075 J0.601 K0.000 F30.000
G2 X0.738 Y15.482 Z-3.500 I-0.599 J0.062 K0.000 F30.000
G2 X0.000 Y16.065 Z-3.500 I-0.132 J0.592 K0.000 F30.000
G2 X-0.738 Y15.482 Z-3.500 I-0.602 J0.005 K0.000 F30.000
G2 X-1.527 Y15.992 Z-3.500 I-0.187 J0.576 K0.000 F30.000
G2 X-2.206 Y15.342 Z-3.500 I-0.600 J-0.053 K0.000 F30.000
G2 X-3.040 Y15.774 Z-3.500 I-0.241 J0.556 K0.000 F30.000
G2 X-3.654 Y15.063 Z-3.500 I-0.592 J-0.109 K0.000 F30.000
G2 X-4.526 Y15.414 Z-3.500 I-0.293 J0.531 K0.000 F30.000
G2 X-5.070 Y14.648 Z-3.500 I-0.579 J-0.165 K0.000 F30.000
G2 X-5.971 Y14.914 Z-3.500 I-0.342 J0.500 K0.000 F30.000
G2 X-6.439 Y14.099 Z-3.500 I-0.561 J-0.219 K0.000 F30.000
G2 X-7.361 Y14.279 Z-3.500 I-0.388 J0.466 K0.000 F30.000
G2 X-7.750 Y13.423 Z-3.500 I-0.537 J-0.272 K0.000 F30.000
G2 X-8.685 Y13.514 Z-3.500 I-0.431 J0.427 K0.000 F30.000
G2 X-8.991 Y12.626 Z-3.500 I-0.509 J-0.322 K0.000 F30.000
G2 X-9.930 Y12.628 Z-3.500 I-0.469 J0.384 K0.000 F30.000
G2 X-10.150 Y11.714 Z-3.500 I-0.476 J-0.369 K0.000 F30.000
G2 X-11.086 Y11.627 Z-3.500 I-0.503 J0.337 K0.000 F30.000
G2 X-11.218 Y10.696 Z-3.500 I-0.439 J-0.412 K0.000 F30.000
G2 X-12.141 Y10.520 Z-3.500 I-0.533 J0.288 K0.000 F30.000
G2 X-12.184 Y9.581 Z-3.500 I-0.398 J-0.452 K0.000 F30.000
G2 X-13.086 Y9.318 Z-3.500 I-0.558 J0.236 K0.000 F30.000
G2 X-13.039 Y8.380 Z-3.500 I-0.353 J-0.488 K0.000 F30.000
G2 X-13.912 Y8.032 Z-3.500 I-0.578 J0.182 K0.000 F30.000
G2 X-13.777 Y7.103 Z-3.500 I-0.305 J-0.519 K0.000 F30.000
G2 X-14.613 Y6.673 Z-3.500 I-0.593 J0.126 K0.000 F30.000
G2 X-14.390 Y5.761 Z-3.500 I-0.254 J-0.546 K0.000 F30.000
G2 X-15.181 Y5.254 Z-3.500 I-0.602 J0.069 K0.000 F30.000
G2 X-14.872 Y4.367 Z-3.500 I-0.201 J-0.568 K0.000 F30.000
G2 X-15.612 Y3.787 Z-3.500 I-0.606 J0.012 K0.000 F30.000
G2 X-15.220 Y2.933 Z-3.500 I-0.147 J-0.584 K0.000 F30.000
G2 X-15.901 Y2.286 Z-3.500 I-0.604 J-0.046 K0.000 F30.000
G2 X-15.430 Y1.473 Z-3.500 I-0.090 J-0.595 K0.000 F30.000
G2 X-16.046 Y0.764 Z-3.500 I-0.597 J-0.103 K0.000 F30.000
G2 X-15.500 Y-0.000 Z-3.500 I-0.033 J-0.601 K0.000 F30.000
G2 X-16.046 Y-0.764 Z-3.500 I-0.585 J-0.160 K0.000 F30.000
G2 X-15.430 Y-1.473 Z-3.500 I0.024 J-0.602 K0.000 F30.000
G2 X-15.901 Y-2.286 Z-3.500 I-0.567 J-0.214 K0.000 F30.000
G2 X-15.220 Y-2.933 Z-3.500 I0.081 J-0.597 K0.000 F30.000
G2 X-15.612 Y-3.787 Z-3.500 I-0.544 J-0.267 K0.000 F30.000
G2 X-14.872 Y-4.367 Z-3.500 I0.137 J-0.586 K0.000 F30.000
G2 X-15.181 Y-5.254 Z-3.500 I-0.516 J-0.318 K0.000 F30.000
G2 X-14.390 Y-5.761 Z-3.500 I0.193 J-0.571 K0.000 F30.000
G2 X-14.613 Y-6.673 Z-3.500 I-0.483 J-0.365 K0.000 F30.000
G2 X-13.777 Y-7.103 Z-3.500 I0.246 J-0.550 K0.000 F30.000
G2 X-13.912 Y-8.032 Z-3.500 I-0.447 J-0.410 K0.000 F30.000
G2 X-13.039 Y-8.380 Z-3.500 I0.297 J-0.524 K0.000 F30.000
G2 X-13.086 Y-9.318 Z-3.500 I-0.406 J-0.450 K0.000 F30.000
G2 X-12.184 Y-9.581 Z-3.500 I0.346 J-0.493 K0.000 F30.000
G2 X-12.141 Y-10.520 Z-3.500 I-0.361 J-0.487 K0.000 F30.000
G2 X-11.218 Y-10.696 Z-3.500 I0.391 J-0.458 K0.000 F30.000
G2 X-11.086 Y-11.627 Z-3.500 I-0.313 J-0.519 K0.000 F30.000
G2 X-10.150 Y-11.714 Z-3.500 I0.433 J-0.419 K0.000 F30.000
G2 X-9.930 Y-12.628 Z-3.500 I-0.262 J-0.546 K0.000 F30.000
G2 X-8.991 Y-12.626 Z-3.500 I0.471 J-0.376 K0.000 F30.000
G2 X-8.685 Y-13.514 Z-3.500 I-0.209 J-0.569 K0.000 F30.000
G2 X-7.750 Y-13.423 Z-3.500 I0.504 J-0.330 K0.000 F30.000
G2 X-7.361 Y-14.279 Z-3.500 I-0.154 J-0.586 K0.000 F30.000
G2 X-6.439 Y-14.099 Z-3.500 I0.533 J-0.280 K0.000 F30.000
G2 X-5.971 Y-14.914 Z-3.500 I-0.098 J-0.598 K0.000 F30.000
G2 X-5.070 Y-14.648 Z-3.500 I0.557 J-0.228 K0.000 F30.000
G2 X-4.526 Y-15.414 Z-3.500 I-0.040 J-0.605 K0.000 F30.000
G2 X-3.654 Y-15.063 Z-3.500 I0.577 J-0.174 K0.000 F30.000
G2 X-3.040 Y-15.774 Z-3.500 I0.017 J-0.606 K0.000 F30.000
G2 X-2.206 Y-15.342 Z-3.500 I0.590 J-0.119 K0.000 F30.000
G2 X-1.527 Y-15.992 Z-3.500 I0.075 J-0.601 K0.000 F30.000
G2 X-0.738 Y-15.482 Z-3.500 I0.599 J-0.062 K0.000 F30.000
G2 X0.000 Y-16.065 Z-3.500 I0.132 J-0.592 K0.000 F30.000
G2 X0.738 Y-15.482 Z-3.500 I0.602 J-0.005 K0.000 F30.000
G2 X1.527 Y-15.992 Z-3.500 I0.187 J-0.576 K0.000 F30.000
G2 X2.206 Y-15.342 Z-3.500 I0.600 J0.053 K0.000 F30.000
G2 X3.040 Y-15.774 Z-3.500 I0.241 J-0.556 K0.000 F30.000
G2 X3.654 Y-15.063 Z-3.500 I0.592 J0.109 K0.000 F30.000
G2 X4.526 Y-15.414 Z-3.500 I0.293 J-0.531 K0.000 F30.000
G2 X5.070 Y-14.648 Z-3.500 I0.579 J0.165 K0.000 F30.000
G2 X5.971 Y-14.914 Z-3.500 I0.342 J-0.500 K0.000 F30.000
G2 X6.439 Y-14.099 Z-3.500 I0.561 J0.219 K0.000 F30.000
G2 X7.361 Y-14.279 Z-3.500 I0.388 J-0.466 K0.000 F30.000
G2 X7.750 Y-13.423 Z-3.500 I0.537 J0.272 K0.000 F30.000
G2 X8.685 Y-13.514 Z-3.500 I0.431 J-0.427 K0.000 F30.000
G2 X8.991 Y-12.626 Z-3.500 I0.509 J0.322 K0.000 F30.000
G2 X9.930 Y-12.628 Z-3.500 I0.469 J-0.384 K0.000 F30.000
G2 X10.150 Y-11.714 Z-3.500 I0.476 J0.369 K0.000 F30.000
G2 X11.086 Y-11.627 Z-3.500 I0.503 J-0.337 K0.000 F30.000
G2 X11.218 Y-10.696 Z-3.500 I0.439 J0.412 K0.000 F30.000
G2 X12.141 Y-10.520 Z-3.500 I0.533 J-0.288 K0.000 F30.000
G2 X12.184 Y-9.581 Z-3.500 I0.398 J0.452 K0.000 F30.000
G2 X13.086 Y-9.318 Z-3.500 I0.558 J-0.236 K0.000 F30.000
G2 X13.039 Y-8.380 Z-3.500 I0.353 J0.488 K0.000 F30.000
G2 X13.912 Y-8.032 Z-3.500 I0.578 J-0.182 K0.000 F30.000
G2 X13.777 Y-7.103 Z-3.500 I0.305 J0.519 K0.000 F30.000
G2 X14.613 Y-6.673 Z-3.500 I0.593 J-0.126 K0.000 F30.000
G2 X14.390 Y-5.761 Z-3.500 I0.254 J0.546 K0.000 F30.000
G2 X15.181 Y-5.254 Z-3.500 I0.602 J-0.069 K0.000 F30.000
G2 X14.872 Y-4.367 Z-3.500 I0.201 J0.568 K0.000 F30.000
G2 X15.612 Y-3.787 Z-3.500 I0.606 J-0.012 K0.000 F30.000
G2 X15.220 Y-2.933 Z-3.500 I0.147 J0.584 K0.000 F30.000
G2 X15.901 Y-2.286 Z-3.500 I0.604 J0.046 K0.000 F30.000
G2 X15.430 Y-1.473 Z-3.500 I0.090 J0.595 K0.000 F30.000
G2 X16.046 Y-0.764 Z-3.500 I0.597 J0.103 K0.000 F30.000
G2 X15.500 Y0.000 Z-3.500 I0.033 J0.601 K0.000 F30.000
G2 X16.046 Y0.764 Z-3.500 I0.585 J0.160 K0.000 F30.000
G2 X15.430 Y1.473 Z-3.500 I-0.024 J0.602 K0.000 F30.000
G2 X15.901 Y2.286 Z-3.500 I0.567 J0.214 K0.000 F30.000
G2 X15.220 Y2.933 Z-3.500 I-0.081 J0.597 K0.000 F30.000
G2 X15.612 Y3.787 Z-3.500 I0.544 J0.267 K0.000 F30.000
G2 X14.872 Y4.367 Z-3.500 I-0.137 J0.586 K0.000 F30.000
G2 X15.181 Y5.254 Z-3.500 I0.516 J0.318 K0.000 F30.000
G2 X14.390 Y5.761 Z-3.500 I-0.193 J0.571 K0.000 F30.000
G2 X14.613 Y6.673 Z-3.500 I0.483 J0.365 K0.000 F30.000
G2 X13.777 Y7.103 Z-3.500 I-0.246 J0.550 K0.000 F30.000
G2 X13.912 Y8.032 Z-3.500 I0.447 J0.410 K0.000 F30.000
G2 X13.039 Y8.380 Z-3.500 I-0.297 J0.524 K0.000 F30.000
G2 X13.086 Y9.318 Z-3.500 I0.406 J0.450 K0.000 F30.000
G2 X12.184 Y9.581 Z-3.500 I-0.346 J0.493 K0.000 F30.000
G2 X12.141 Y10.520 Z-3.500 I0.361 J0.487 K0.000 F30.000
G2 X11.218 Y10.696 Z-3.500 I-0.391 J0.458 K0.000 F30.000
G2 X11.086 Y11.627 Z-3.500 I0.313 J0.519 K0.000 F30.000
G1 X11.086 Y11.627 Z-4.000 F30.000
G2 X10.150 Y11.714 Z-4.000 I-0.433 J0.419 K0.000 F30.000
G2 X9.930 Y12.628 Z-4.000 I0.262 J0.546 K0.000 F30.000
G2 X8.991 Y12.626 Z-4.000 I-0.471 J0.376 K0.000 F30.000
G2 X8.685 Y13.514 Z-4.000 I0.209 J0.569 K0.000 F30.000
G2 X7.750 Y13.423 Z-4.000 I-0.504 J0.330 K0.000 F30.000
G2 X7.361 Y14.279 Z-4.000 I0.154 J0.586 K0.000 F30.000
G2 X6.439 Y14.099 Z-4.000 I-0.533 J0.280 K0.000 F30.000
G2 X5.971 Y14.914 Z-4.000 I0.098 J0.598 K0.000 F30.000
G2 X5.070 Y14.648 Z-4.000 I-0.557 J0.228 K0.000 F30.000
G2 X4.526 Y15.414 Z-4.000 I0.040 J0.605 K0.000 F30.000
G2 X3.654 Y15.063 Z-4.000 I-0.577 J0.174 K0.000 F30.000
G2 X3.040 Y15.774 Z-4.000 I-0.017 J0.606 K0.000 F30.000
G2 X2.206 Y15.342 Z-4.000 I-0.590 J0.119 K0.000 F30.000
G2 X1.527 Y15.992 Z-4.000 I-0.075 J0.601 K0.000 F30.000
G2 X0.738 Y15.482 Z-4.000 I-0.599 J0.062 K0.000 F30.000
G2 X0.000 Y16.065 Z-4.000 I-0.132 J0.592 K0.000 F30.000
G2 X-0.738 Y15.482 Z-4.000 I-0.602 J0.005 K0.000 F30.000
G2 X-1.527 Y15.992 Z-4.000 I-0.187 J0.576 K0.000 F30.000
G2 X-2.206 Y15.342 Z-4.000 I-0.600 J-0.053 K0.000 F30.000
G2 X-3.040 Y15.774 Z-4.000 I-0.241 J0.556 K0.000 F30.000
G2 X-3.654 Y15.063 Z-4.000 I-0.592 J-0.109 K0.000 F30.000
G2 X-4.526 Y15.414 Z-4.000 I-0.293 J0.531 K0.000 F30.000
G2 X-5.070 Y14.648 Z-4.000 I-0.579 J-0.165 K0.000 F30.000
G2 X-5.971 Y14.914 Z-4.000 I-0.342 J0.500 K0.000 F30.000
G2 X-6.439 Y14.099 Z-4.000 I-0.561 J-0.219 K0.000 F30.000
G2 X-7.361 Y14.279 Z-4.000 I-0.388 J0.466 K0.000 F30.000
G2 X-7.750 Y13.423 Z-4.000 I-0.537 J-0.272 K0.000 F30.000
G2 X-8.685 Y13.514 Z-4.000 I-0.431 J0.427 K0.000 F30.000
G2 X-8.991 Y12.626 Z-4.000 I-0.509 J-0.322 K0.000 F30.000
G2 X-9.930 Y12.628 Z-4.000 I-0.469 J0.384 K0.000 F30.000
G2 X-10.150 Y11.714 Z-4.000 I-0.476 J-0.369 K0.000 F30.000
G2 X-11.086 Y11.627 Z-4.000 I-0.503 J0.337 K0.000 F30.000
G2 X-11.218 Y10.696 Z-4.000 I-0.439 J-0.412 K0.000 F30.000
G2 X-12.141 Y10.520 Z-4.000 I-0.533 J0.288 K0.000 F30.000
G2 X-12.184 Y9.581 Z-4.000 I-0.398 J-0.452 K0.000 F30.000
G2 X-13.086 Y9.318 Z-4.000 I-0.558 J0.236 K0.000 F30.000
G2 X-13.039 Y8.380 Z-4.000 I-0.353 J-0.488 K0.000 F30.000
G2 X-13.912 Y8.032 Z-4.000 I-0.578 J0.182 K0.000 F30.000
G2 X-13.777 Y7.103 Z-4.000 I-0.305 J-0.519 K0.000 F30.000
G2 X-14.613 Y6.673 Z-4.000 I-0.593 J0.126 K0.000 F30.000
G2 X-14.390 Y5.761 Z-4.000 I-0.254 J-0.546 K0.000 F30.000
G2 X-15.181 Y5.254 Z-4.000 I-0.602 J0.069 K0.000 F30.000
G2 X-14.872 Y4.367 Z-4.000 I-0.201 J-0.568 K0.000 F30.000
G2 X-15.612 Y3.787 Z-4.000 I-0.606 J0.012 K0.000 F30.000
G2 X-15.220 Y2.933 Z-4.000 I-0.147 J-0.584 K0.000 F30.000
G2 X-15.901 Y2.286 Z-4.000 I-0.604 J-0.046 K0.000 F30.000
G2 X-15.430 Y1.473 Z-4.000 I-0.090 J-0.595 K0.000 F30.000
G2 X-16.046 Y0.764 Z-4.000 I-0.597 J-0.103 K0.000 F30.000
G2 X-15.500 Y-0.000 Z-4.000 I-0.033 J-0.601 K0.000 F30.000
G2 X-16.046 Y-0.764 Z-4.000 I-0.585 J-0.160 K0.000 F30.000
G2 X-15.430 Y-1.473 Z-4.000 I0.024 J-0.602 K0.000 F30.000
G2 X-15.901 Y-2.286 Z-4.000 I-0.567 J-0.214 K0.000 F30.000
G2 X-15.220 Y-2.933 Z-4.000 I0.081 J-0.597 K0.000 F30.000
G2 X-15.612 Y-3.787 Z-4.000 I-0.544 J-0.267 K0.000 F30.000
G2 X-14.872 Y-4.367 Z-4.000 I0.137 J-0.586 K0.000 F30.000
G2 X-15.181 Y-5.254 Z-4.000 I-0.516 J-0.318 K0.000 F30.000
G2 X-14.390 Y-5.761 Z-4.000 I0.193 J-0.571 K0.000 F30.000
G2 X-14.613 Y-6.673 Z-4.000 I-0.483 J-0.365 K0.000 F30.000
G2 X-13.777 Y-7.103 Z-4.000 I0.246 J-0.550 K0.000 F30.000
G2 X-13.912 Y-8.032 Z-4.000 I-0.447 J-0.410 K0.000 F30.000
G2 X-13.039 Y-8.380 Z-4.000 I0.297 J-0.524 K0.000 F30.000
G2 X-13.086 Y-9.318 Z-4.000 I-0.406 J-0.450 K0.000 F30.000
G2 X-12.184 Y-9.581 Z-4.000 I0.346 J-0.493 K0.000 F30.000
G2 X-12.141 Y-10.520 Z-4.000 I-0.361 J-0.487 K0.000 F30.000
G2 X-11.218 Y-10.696 Z-4.000 I0.391 J-0.458 K0.000 F30.000
G2 X-11.086 Y-11.627 Z-4.000 I-0.313 J-0.519 K0.000 F30.000
G2 X-10.150 Y-11.714 Z-4.000 I0.433 J-0.419 K0.000 F30.000
G2 X-9.930 Y-12.628 Z-4.000 I-0.262 J-0.546 K0.000 F30.000
G2 X-8.991 Y-12.626 Z-4.000 I0.471 J-0.376 K0.000 F30.000
G2 X-8.685 Y-13.514 Z-4.000 I-0.209 J-0.569 K0.000 F30.000
G2 X-7.750 Y-13.423 Z-4.000 I0.504 J-0.330 K0.000 F30.000
G2 X-7.361 Y-14.279 Z-4.000 I-0.154 J-0.586 K0.000 F30.000
G2 X-6.439 Y-14.099 Z-4.000 I0.533 J-0.280 K0.000 F30.000
G2 X-5.971 Y-14.914 Z-4.000 I-0.098 J-0.598 K0.000 F30.000
G2 X-5.070 Y-14.648 Z-4.000 I0.557 J-0.228 K0.000 F30.000
G2 X-4.526 Y-15.414 Z-4.000 I-0.040 J-0.605 K0.000 F30.000
G2 X-3.654 Y-15.063 Z-4.000 I0.577 J-0.174 K0.000 F30.000
G2 X-3.040 Y-15.774 Z-4.000 I0.017 J-0.606 K0.000 F30.000
G2 X-2.206 Y-15.342 Z-4.000 I0.590 J-0.119 K0.000 F30.000
G2 X-1.527 Y-15.992 Z-4.000 I0.075 J-0.601 K0.000 F30.000
G2 X-0.738 Y-15.482 Z-4.000 I0.599 J-0.062 K0.000 F30.000
G2 X0.000 Y-16.065 Z-4.000 I0.132 J-0.592 K0.000 F30.000
G2 X0.738 Y-15.482 Z-4.000 I0.602 J-0.005 K0.000 F30.000
G2 X1.527 Y-15.992 Z-4.000 I0.187 J-0.576 K0.000 F30.000
G2 X2.206 Y-15.342 Z-4.000 I0.600 J0.053 K0.000 F30.000
G2 X3.040 Y-15.774 Z-4.000 I0.241 J-0.556 K0.000 F30.000
G2 X3.654 Y-15.063 Z-4.000 I0.592 J0.109 K0.000 F30.000
G2 X4.526 Y-15.414 Z-4.000 I0.293 J-0.531 K0.000 F30.000
G2 X5.070 Y-14.648 Z-4.000 I0.579 J0.165 K0.000 F30.000
G2 X5.971 Y-14.914 Z-4.000 I0.342 J-0.500 K0.000 F30.000
G2 X6.439 Y-14.099 Z-4.000 I0.561 J0.219 K0.000 F30.000
G2 X7.361 Y-14.279 Z-4.000 I0.388 J-0.466 K0.000 F30.000
G2 X7.750 Y-13.423 Z-4.000 I0.537 J0.272 K0.000 F30.000
G2 X8.685 Y-13.514 Z-4.000 I0.431 J-0.427 K0.000 F30.000
G2 X8.991 Y-12.626 Z-4.000 I0.509 J0.322 K0.000 F30.000
G2 X9.930 Y-12.628 Z-4.000 I0.469 J-0.384 K0.000 F30.000
G2 X10.150 Y-11.714 Z-4.000 I0.476 J0.369 K0.000 F30.000
G2 X11.086 Y-11.627 Z-4.000 I0.503 J-0.337 K0.000 F30.000
G2 X11.218 Y-10.696 Z-4.000 I0.439 J0.412 K0.000 F30.000
G2 X12.141 Y-10.520 Z-4.000 I0.533 J-0.288 K0.000 F30.000
G2 X12.184 Y-9.581 Z-4.000 I0.398 J0.452 K0.000 F30.000
G2 X13.086 Y-9.318 Z-4.000 I0.558 J-0.236 K0.000 F30.000
G2 X13.039 Y-8.380 Z-4.000 I0.353 J0.488 K0.000 F30.000
G2 X13.912 Y-8.032 Z-4.000 I0.578 J-0.182 K0.000 F30.000
G2 X13.777 Y-7.103 Z-4.000 I0.305 J0.519 K0.000 F30.000
G2 X14.613 Y-6.673 Z-4.000 I0.593 J-0.126 K0.000 F30.000
G2 X14.390 Y-5.761 Z-4.000 I0.254 J0.546 K0.000 F30.000
G2 X15.181 Y-5.254 Z-4.000 I0.602 J-0.069 K0.000 F30.000
G2 X14.872 Y-4.367 Z-4.000 I0.201 J0.568 K0.000 F30.000
G2 X15.612 Y-3.787 Z-4.000 I0.606 J-0.012 K0.000 F30.000
G2 X15.220 Y-2.933 Z-4.000 I0.147 J0.584 K0.000 F30.000
G2 X15.901 Y-2.286 Z-4.000 I0.604 J0.046 K0.000 F30.000
G2 X15.430 Y-1.473 Z-4.000 I0.090 J0.595 K0.000 F30.000
G2 X16.046 Y-0.764 Z-4.000 I0.597 J0.103 K0.000 F30.000
G2 X15.500 Y0.000 Z-4.000 I0.033 J0.601 K0.000 F30.000
G2 X16.046 Y0.764 Z-4.000 I0.585 J0.160 K0.000 F30.000
G2 X15.430 Y1.473 Z-4.000 I-0.024 J0.602 K0.000 F30.000
G2 X15.901 Y2.286 Z-4.000 I0.567 J0.214 K0.000 F30.000
G2 X15.220 Y2.933 Z-4.000 I-0.081 J0.597 K0.000 F30.000
G2 X15.612 Y3.787 Z-4.000 I0.544 J0.267 K0.000 F30.000
G2 X14.872 Y4.367 Z-4.000 I-0.137 J0.586 K0.000 F30.000
G2 X15.181 Y5.254 Z-4.000 I0.516 J0.318 K0.000 F30.000
G2 X14.390 Y5.761 Z-4.000 I-0.193 J0.571 K0.000 F30.000
G2 X14.613 Y6.673 Z-4.000 I0.483 J0.365 K0.000 F30.000
G2 X13.777 Y7.103 Z-4.000 I-0.246 J0.550 K0.000 F30.000
G2 X13.912 Y8.032 Z-4.000 I0.447 J0.410 K0.000 F30.000
G2 X13.039 Y8.380 Z-4.000 I-0.297 J0.524 K0.000 F30.000
G2 X13.086 Y9.318 Z-4.000 I0.406 J0.450 K0.000 F30.000
G2 X12.184 Y9.581 Z-4.000 I-0.346 J0.493 K0.000 F30.000
G2 X12.141 Y10.520 Z-4.000 I0.361 J0.487 K0.000 F30.000
G2 X11.218 Y10.696 Z-4.000 I-0.391 J0.458 K0.000 F30.000
G2 X11.086 Y11.627 Z-4.000 I0.313 J0.519 K0.000 F30.000
G1 X11.086 Y11.627 Z-4.500 F30.000
G2 X10.150 Y11.714 Z-4.500 I-0.433 J0.419 K0.000 F30.000
G2 X9.930 Y12.628 Z-4.500 I0.262 J0.546 K0.000 F30.000
G2 X8.991 Y12.626 Z-4.500 I-0.471 J0.376 K0.000 F30.000
G2 X8.685 Y13.514 Z-4.500 I0.209 J0.569 K0.000 F30.000
G2 X7.750 Y13.423 Z-4.500 I-0.504 J0.330 K0.000 F30.000
G2 X7.361 Y14.279 Z-4.500 I0.154 J0.586 K0.000 F30.000
G2 X6.439 Y14.099 Z-4.500 I-0.533 J0.280 K0.000 F30.000
G2 X5.971 Y14.914 Z-4.500 I0.098 J0.598 K0.000 F30.000
G2 X5.070 Y14.648 Z-4.500 I-0.557 J0.228 K0.000 F30.000
G2 X4.526 Y15.414 Z-4.500 I0.040 J0.605 K0.000 F30.000
G2 X3.654 Y15.063 Z-4.500 I-0.577 J0.174 K0.000 F30.000
G2 X3.040 Y15.774 Z-4.500 I-0.017 J0.606 K0.000 F30.000
G2 X2.206 Y15.342 Z-4.500 I-0.590 J0.119 K0.000 F30.000
G2 X1.527 Y15.992 Z-4.500 I-0.075 J0.601 K0.000 F30.000
G2 X0.738 Y15.482 Z-4.500 I-0.599 J0.062 K0.000 F30.000
G2 X0.000 Y16.065 Z-4.500 I-0.132 J0.592 K0.000 F30.000
G2 X-0.738 Y15.482 Z-4.500 I-0.602 J0.005 K0.000 F30.000
G2 X-1.527 Y15.992 Z-4.500 I-0.187 J0.576 K0.000 F30.000
G2 X-2.206 Y15.342 Z-4.500 I-0.600 J-0.053 K0.000 F30.000
G2 X-3.040 Y15.774 Z-4.500 I-0.241 J0.556 K0.000 F30.000
G2 X-3.654 Y15.063 Z-4.500 I-0.592 J-0.109 K0.000 F30.000
G2 X-4.526 Y15.414 Z-4.500 I-0.293 J0.531 K0.000 F30.000
G2 X-5.070 Y14.648 Z-4.500 I-0.579 J-0.165 K0.000 F30.000
G2 X-5.971 Y14.914 Z-4.500 I-0.342 J0.500 K0.000 F30.000
G2 X-6.439 Y14.099 Z-4.500 I-0.561 J-0.219 K0.000 F30.000
G2 X-7.361 Y14.279 Z-4.500 I-0.388 J0.466 K0.000 F30.000
G2 X-7.750 Y13.423 Z-4.500 I-0.537 J-0.272 K0.000 F30.000
G2 X-8.685 Y13.514 Z-4.500 I-0.431 J0.427 K0.000 F30.000
G2 X-8.991 Y12.626 Z-4.500 I-0.509 J-0.322 K0.000 F30.000
G2 X-9.930 Y12.628 Z-4.500 I-0.469 J0.384 K0.000 F30.000
G2 X-10.150 Y11.714 Z-4.500 I-0.476 J-0.369 K0.000 F30.000
G2 X-11.086 Y11.627 Z-4.500 I-0.503 J0.337 K0.000 F30.000
G2 X-11.218 Y10.696 Z-4.500 I-0.439 J-0.412 K0.000 F30.000
G2 X-12.141 Y10.520 Z-4.500 I-0.533 J0.288 K0.000 F30.000
G2 X-12.184 Y9.581 Z-4.500 I-0.398 J-0.452 K0.000 F30.000
G2 X-13.086 Y9.318 Z-4.500 I-0.558 J0.236 K0.000 F30.000
G2 X-13.039 Y8.380 Z-4.500 I-0.353 J-0.488 K0.000 F30.000
G2 X-13.912 Y8.032 Z-4.500 I-0.578 J0.182 K0.000 F30.000
G2 X-13.777 Y7.103 Z-4.500 I-0.305 J-0.519 K0.000 F30.000
G2 X-14.613 Y6.673 Z-4.500 I-0.593 J0.126 K0.000 F30.000
G2 X-14.390 Y5.761 Z-4.500 I-0.254 J-0.546 K0.000 F30.000
G2 X-15.181 Y5.254 Z-4.500 I-0.602 J0.069 K0.000 F30.000
G2 X-14.872 Y4.367 Z-4.500 I-0.201 J-0.568 K0.000 F30.000
G2 X-15.612 Y3.787 Z-4.500 I-0.606 J0.012 K0.000 F30.000
G2 X-15.220 Y2.933 Z-4.500 I-0.147 J-0.584 K0.000 F30.000
G2 X-15.901 Y2.286 Z-4.500 I-0.604 J-0.046 K0.000 F30.000
G2 X-15.430 Y1.473 Z-4.500 I-0.090 J-0.595 K0.000 F30.000
G2 X-16.046 Y0.764 Z-4.500 I-0.597 J-0.103 K0.000 F30.000
G2 X-15.500 Y-0.000 Z-4.500 I-0.033 J-0.601 K0.000 F30.000
G2 X-16.046 Y-0.764 Z-4.500 I-0.585 J-0.160 K0.000 F30.000
G2 X-15.430 Y-1.473 Z-4.500 I0.024 J-0.602 K0.000 F30.000
G2 X-15.901 Y-2.286 Z-4.500 I-0.567 J-0.214 K0.000 F30.000
G2 X-15.220 Y-2.933 Z-4.500 I0.081 J-0.597 K0.000 F30.000
G2 X-15.612 Y-3.787 Z-4.500 I-0.544 J-0.267 K0.000 F30.000
G2 X-14.872 Y-4.367 Z-4.500 I0.137 J-0.586 K0.000 F30.000
G2 X-15.181 Y-5.254 Z-4.500 I-0.516 J-0.318 K0.000 F30.000
G2 X-14.390 Y-5.761 Z-4.500 I0.193 J-0.571 K0.000 F30.000
G2 X-14.613 Y-6.673 Z-4.500 I-0.483 J-0.365 K0.000 F30.000
G2 X-13.777 Y-7.103 Z-4.500 I0.246 J-0.550 K0.000 F30.000
G2 X-13.912 Y-8.032 Z-4.500 I-0.447 J-0.410 K0.000 F30.000
G2 X-13.039 Y-8.380 Z-4.500 I0.297 J-0.524 K0.000 F30.000
G2 X-13.086 Y-9.318 Z-4.500 I-0.406 J-0.450 K0.000 F30.000
G2 X-12.184 Y-9.581 Z-4.500 I0.346 J-0.493 K0.000 F30.000
G2 X-12.141 Y-10.520 Z-4.500 I-0.361 J-0.487 K0.000 F30.000
G2 X-11.218 Y-10.696 Z-4.500 I0.391 J-0.458 K0.000 F30.000
G2 X-11.086 Y-11.627 Z-4.500 I-0.313 J-0.519 K0.000 F30.000
G2 X-10.150 Y-11.714 Z-4.500 I0.433 J-0.419 K0.000 F30.000
G2 X-9.930 Y-12.628 Z-4.500 I-0.262 J-0.546 K0.000 F30.000
G2 X-8.991 Y-12.626 Z-4.500 I0.471 J-0.376 K0.000 F30.000
G2 X-8.685 Y-13.514 Z-4.500 I-0.209 J-0.569 K0.000 F30.000
G2 X-7.750 Y-13.423 Z-4.500 I0.504 J-0.330 K0.000 F30.000
G2 X-7.361 Y-14.279 Z-4.500 I-0.154 J-0.586 K0.000 F30.000
G2 X-6.439 Y-14.099 Z-4.500 I0.533 J-0.280 K0.000 F30.000
G2 X-5.971 Y-14.914 Z-4.500 I-0.098 J-0.598 K0.000 F30.000
G2 X-5.070 Y-14.648 Z-4.500 I0.557 J-0.228 K0.000 F30.000
G2 X-4.526 Y-15.414 Z-4.500 I-0.040 J-0.605 K0.000 F30.000
G2 X-3.654 Y-15.063 Z-4.500 I0.577 J-0.174 K0.000 F30.000
G2 X-3.040 Y-15.774 Z-4.500 I0.017 J-0.606 K0.000 F30.000
G2 X-2.206 Y-15.342 Z-4.500 I0.590 J-0.119 K0.000 F30.000
G2 X-1.527 Y-15.992 Z-4.500 I0.075 J-0.601 K0.000 F30.000
G2 X-0.738 Y-15.482 Z-4.500 I0.599 J-0.062 K0.000 F30.000
G2 X0.000 Y-16.065 Z-4.500 I0.132 J-0.592 K0.000 F30.000
G2 X0.738 Y-15.482 Z-4.500 I0.602 J-0.005 K0.000 F30.000
G2 X1.527 Y-15.992 Z-4.500 I0.187 J-0.576 K0.000 F30.000
G2 X2.206 Y-15.342 Z-4.500 I0.600 J0.053 K0.000 F30.000
G2 X3.040 Y-15.774 Z-4.500 I0.241 J-0.556 K0.000 F30.000
G2 X3.654 Y-15.063 Z-4.500 I0.592 J0.109 K0.000 F30.000
G2 X4.526 Y-15.414 Z-4.500 I0.293 J-0.531 K0.000 F30.000
G2 X5.070 Y-14.648 Z-4.500 I0.579 J0.165 K0.000 F30.000
G2 X5.971 Y-14.914 Z-4.500 I0.342 J-0.500 K0.000 F30.000
G2 X6.439 Y-14.099 Z-4.500 I0.561 J0.219 K0.000 F30.000
G2 X7.361 Y-14.279 Z-4.500 I0.388 J-0.466 K0.000 F30.000
G2 X7.750 Y-13.423 Z-4.500 I0.537 J0.272 K0.000 F30.000
G2 X8.685 Y-13.514 Z-4.500 I0.431 J-0.427 K0.000 F30.000
G2 X8.991 Y-12.626 Z-4.500 I0.509 J0.322 K0.000 F30.000
G2 X9.930 Y-12.628 Z-4.500 I0.469 J-0.384 K0.000 F30.000
G2 X10.150 Y-11.714 Z-4.500 I0.476 J0.369 K0.000 F30.000
G2 X11.086 Y-11.627 Z-4.500 I0.503 J-0.337 K0.000 F30.000
G2 X11.218 Y-10.696 Z-4.500 I0.439 J0.412 K0.000 F30.000
G2 X12.141 Y-10.520 Z-4.500 I0.533 J-0.288 K0.000 F30.000
G2 X12.184 Y-9.581 Z-4.500 I0.398 J0.452 K0.000 F30.000
G2 X13.086 Y-9.318 Z-4.500 I0.558 J-0.236 K0.000 F30.000
G2 X13.039 Y-8.380 Z-4.500 I0.353 J0.488 K0.000 F30.000
G2 X13.912 Y-8.032 Z-4.500 I0.578 J-0.182 K0.000 F30.000
G2 X13.777 Y-7.103 Z-4.500 I0.305 J0.519 K0.000 F30.000
G2 X14.613 Y-6.673 Z-4.500 I0.593 J-0.126 K0.000 F30.000
G2 X14.390 Y-5.761 Z-4.500 I0.254 J0.546 K0.000 F30.000
G2 X15.181 Y-5.254 Z-4.500 I0.602 J-0.069 K0.000 F30.000
G2 X14.872 Y-4.367 Z-4.500 I0.201 J0.568 K0.000 F30.000
G2 X15.612 Y-3.787 Z-4.500 I0.606 J-0.012 K0.000 F30.000
G2 X15.220 Y-2.933 Z-4.500 I0.147 J0.584 K0.000 F30.000
G2 X15.901 Y-2.286 Z-4.500 I0.604 J0.046 K0.000 F30.000
G2 X15.430 Y-1.473 Z-4.500 I0.090 J0.595 K0.000 F30.000
G2 X16.046 Y-0.764 Z-4.500 I0.597 J0.103 K0.000 F30.000
G2 X15.500 Y0.000 Z-4.500 I0.033 J0.601 K0.000 F30.000
G2 X16.046 Y0.764 Z-4.500 I0.585 J0.160 K0.000 F30.000
G2 X15.430 Y1.473 Z-4.500 I-0.024 J0.602 K0.000 F30.000
G2 X15.901 Y2.286 Z-4.500 I0.567 J0.214 K0.000 F30.000
G2 X15.220 Y2.933 Z-4.500 I-0.081 J0.597 K0.000 F30.000
G2 X15.612 Y3.787 Z-4.500 I0.544 J0.267 K0.000 F30.000
G2 X14.872 Y4.367 Z-4.500 I-0.137 J0.586 K0.000 F30.000
G2 X15.181 Y5.254 Z-4.500 I0.516 J0.318 K0.000 F30.000
G2 X14.390 Y5.761 Z-4.500 I-0.193 J0.571 K0.000 F30.000
G2 X14.613 Y6.673 Z-4.500 I0.483 J0.365 K0.000 F30.000
G2 X13.777 Y7.103 Z-4.500 I-0.246 J0.550 K0.000 F30.000
G2 X13.912 Y8.032 Z-4.500 I0.447 J0.410 K0.000 F30.000
G2 X13.039 Y8.380 Z-4.500 I-0.297 J0.524 K0.000 F30.000
G2 X13.086 Y9.318 Z-4.500 I0.406 J0.450 K0.000 F30.000
G2 X12.184 Y9.581 Z-4.500 I-0.346 J0.493 K0.000 F30.000
G2 X12.141 Y10.520 Z-4.500 I0.361 J0.487 K0.000 F30.000
G2 X11.218 Y10.696 Z-4.500 I-0.391 J0.458 K0.000 F30.000
G2 X11.086 Y11.627 Z-4.500 I0.313 J0.519 K0.000 F30.000
G1 X11.086 Y11.627 Z-5.000 F30.000
G2 X10.150 Y11.714 Z-5.000 I-0.433 J0.419 K0.000 F30.000
G2 X9.930 Y12.628 Z-5.000 I0.262 J0.546 K0.000 F30.000
G2 X8.991 Y12.626 Z-5.000 I-0.471 J0.376 K0.000 F30.000
G2 X8.685 Y13.514 Z-5.000 I0.209 J0.569 K0.000 F30.000
G2 X7.750 Y13.423 Z-5.000 I-0.504 J0.330 K0.000 F30.000
G2 X7.361 Y14.279 Z-5.000 I0.154 J0.586 K0.000 F30.000
G2 X6.439 Y14.099 Z-5.000 I-0.533 J0.280 K0.000 F30.000
G2 X5.971 Y14.914 Z-5.000 I0.098 J0.598 K0.000 F30.000
G2 X5.070 Y14.648 Z-5.000 I-0.557 J0.228 K0.000 F30.000
G2 X4.526 Y15.414 Z-5.000 I0.040 J0.605 K0.000 F30.000
G2 X3.654 Y15.063 Z-5.000 I-0.577 J0.174 K0.000 F30.000
G2 X3.040 Y15.774 Z-5.000 I-0.017 J0.606 K0.000 F30.000
G2 X2.206 Y15.342 Z-5.000 I-0.590 J0.119 K0.000 F30.000
G2 X1.527 Y15.992 Z-5.000 I-0.075 J0.601 K0.000 F30.000
G2 X0.738 Y15.482 Z-5.000 I-0.599 J0.062 K0.000 F30.000
G2 X0.000 Y16.065 Z-5.000 I-0.132 J0.592 K0.000 F30.000
G2 X-0.738 Y15.482 Z-5.000 I-0.602 J0.005 K0.000 F30.000
G2 X-1.527 Y15.992 Z-5.000 I-0.187 J0.576 K0.000 F30.000
G2 X-2.206 Y15.342 Z-5.000 I-0.600 J-0.053 K0.000 F30.000
G2 X-3.040 Y15.774 Z-5.000 I-0.241 J0.556 K0.000 F30.000
G2 X-3.654 Y15.063 Z-5.000 I-0.592 J-0.109 K0.000 F30.000
G2 X-4.526 Y15.414 Z-5.000 I-0.293 J0.531 K0.000 F30.000
G2 X-5.070 Y14.648 Z-5.000 I-0.579 J-0.165 K0.000 F30.000
G2 X-5.971 Y14.914 Z-5.000 I-0.342 J0.500 K0.000 F30.000
G2 X-6.439 Y14.099 Z-5.000 I-0.561 J-0.219 K0.000 F30.000
G2 X-7.361 Y14.279 Z-5.000 I-0.388 J0.466 K0.000 F30.000
G2 X-7.750 Y13.423 Z-5.000 I-0.537 J-0.272 K0.000 F30.000
G2 X-8.685 Y13.514 Z-5.000 I-0.431 J0.427 K0.000 F30.000
G2 X-8.991 Y12.626 Z-5.000 I-0.509 J-0.322 K0.000 F30.000
G2 X-9.930 Y12.628 Z-5.000 I-0.469 J0.384 K0.000 F30.000
G2 X-10.150 Y11.714 Z-5.000 I-0.476 J-0.369 K0.000 F30.000
G2 X-11.086 Y11.627 Z-5.000 I-0.503 J0.337 K0.000 F30.000
G2 X-11.218 Y10.696 Z-5.000 I-0.439 J-0.412 K0.000 F30.000
G2 X-12.141 Y10.520 Z-5.000 I-0.533 J0.288 K0.000 F30.000
G2 X-12.184 Y9.581 Z-5.000 I-0.398 J-0.452 K0.000 F30.000
G2 X-13.086 Y9.318 Z-5.000 I-0.558 J0.236 K0.000 F30.000
G2 X-13.039 Y8.380 Z-5.000 I-0.353 J-0.488 K0.000 F30.000
G2 X-13.912 Y8.032 Z-5.000 I-0.578 J0.182 K0.000 F30.000
G2 X-13.777 Y7.103 Z-5.000 I-0.305 J-0.519 K0.000 F30.000
G2 X-14.613 Y6.673 Z-5.000 I-0.593 J0.126 K0.000 F30.000
G2 X-14.390 Y5.761 Z-5.000 I-0.254 J-0.546 K0.000 F30.000
G2 X-15.181 Y5.254 Z-5.000 I-0.602 J0.069 K0.000 F30.000
G2 X-14.872 Y4.367 Z-5.000 I-0.201 J-0.568 K0.000 F30.000
G2 X-15.612 Y3.787 Z-5.000 I-0.606 J0.012 K0.000 F30.000
G2 X-15.220 Y2.933 Z-5.000 I-0.147 J-0.584 K0.000 F30.000
G2 X-15.901 Y2.286 Z-5.000 I-0.604 J-0.046 K0.000 F30.000
G2 X-15.430 Y1.473 Z-5.000 I-0.090 J-0.595 K0.000 F30.000
G2 X-16.046 Y0.764 Z-5.000 I-0.597 J-0.103 K0.000 F30.000
G2 X-15.500 Y-0.000 Z-5.000 I-0.033 J-0.601 K0.000 F30.000
G2 X-16.046 Y-0.764 Z-5.000 I-0.585 J-0.160 K0.000 F30.000
G2 X-15.430 Y-1.473 Z-5.000 I0.024 J-0.602 K0.000 F30.000
G2 X-15.901 Y-2.286 Z-5.000 I-0.567 J-0.214 K0.000 F30.000
G2 X-15.220 Y-2.933 Z-5.000 I0.081 J-0.597 K0.000 F30.000
G2 X-15.612 Y-3.787 Z-5.000 I-0.544 J-0.267 K0.000 F30.000
G2 X-14.872 Y-4.367 Z-5.000 I0.137 J-0.586 K0.000 F30.000
G2 X-15.181 Y-5.254 Z-5.000 I-0.516 J-0.318 K0.000 F30.000
G2 X-14.390 Y-5.761 Z-5.000 I0.193 J-0.571 K0.000 F30.000
G2 X-14.613 Y-6.673 Z-5.000 I-0.483 J-0.365 K0.000 F30.000
G2 X-13.777 Y-7.103 Z-5.000 I0.246 J-0.550 K0.000 F30.000
G2 X-13.912 Y-8.032 Z-5.000 I-0.447 J-0.410 K0.000 F30.000
G2 X-13.039 Y-8.380 Z-5.000 I0.297 J-0.524 K0.000 F30.000
G2 X-13.086 Y-9.318 Z-5.000 I-0.406 J-0.450 K0.000 F30.000
G2 X-12.184 Y-9.581 Z-5.000 I0.346 J-0.493 K0.000 F30.000
G2 X-12.141 Y-10.520 Z-5.000 I-0.361 J-0.487 K0.000 F30.000
G2 X-11.218 Y-10.696 Z-5.000 I0.391 J-0.458 K0.000 F30.000
G2 X-11.086 Y-11.627 Z-5.000 I-0.313 J-0.519 K0.000 F30.000
G2 X-10.150 Y-11.714 Z-5.000 I0.433 J-0.419 K0.000 F30.000
G2 X-9.930 Y-12.628 Z-5.000 I-0.262 J-0.546 K0.000 F30.000
G2 X-8.991 Y-12.626 Z-5.000 I0.471 J-0.376 K0.000 F30.000
G2 X-8.685 Y-13.514 Z-5.000 I-0.209 J-0.569 K0.000 F30.000
G2 X-7.750 Y-13.423 Z-5.000 I0.504 J-0.330 K0.000 F30.000
G2 X-7.361 Y-14.279 Z-5.000 I-0.154 J-0.586 K0.000 F30.000
G2 X-6.439 Y-14.099 Z-5.000 I0.533 J-0.280 K0.000 F30.000
G2 X-5.971 Y-14.914 Z-5.000 I-0.098 J-0.598 K0.000 F30.000
G2 X-5.070 Y-14.648 Z-5.000 I0.557 J-0.228 K0.000 F30.000
G2 X-4.526 Y-15.414 Z-5.000 I-0.040 J-0.605 K0.000 F30.000
G2 X-3.654 Y-15.063 Z-5.000 I0.577 J-0.174 K0.000 F30.000
G2 X-3.040 Y-15.774 Z-5.000 I0.017 J-0.606 K0.000 F30.000
G2 X-2.206 Y-15.342 Z-5.000 I0.590 J-0.119 K0.000 F30.000
G2 X-1.527 Y-15.992 Z-5.000 I0.075 J-0.601 K0.000 F30.000
G2 X-0.738 Y-15.482 Z-5.000 I0.599 J-0.062 K0.000 F30.000
G2 X0.000 Y-16.065 Z-5.000 I0.132 J-0.592 K0.000 F30.000
G2 X0.738 Y-15.482 Z-5.000 I0.602 J-0.005 K0.000 F30.000
G2 X1.527 Y-15.992 Z-5.000 I0.187 J-0.576 K0.000 F30.000
G2 X2.206 Y-15.342 Z-5.000 I0.600 J0.053 K0.000 F30.000
G2 X3.040 Y-15.774 Z-5.000 I0.241 J-0.556 K0.000 F30.000
G2 X3.654 Y-15.063 Z-5.000 I0.592 J0.109 K0.000 F30.000
G2 X4.526 Y-15.414 Z-5.000 I0.293 J-0.531 K0.000 F30.000
G2 X5.070 Y-14.648 Z-5.000 I0.579 J0.165 K0.000 F30.000
G2 X5.971 Y-14.914 Z-5.000 I0.342 J-0.500 K0.000 F30.000
G2 X6.439 Y-14.099 Z-5.000 I0.561 J0.219 K0.000 F30.000
G2 X7.361 Y-14.279 Z-5.000 I0.388 J-0.466 K0.000 F30.000
G2 X7.750 Y-13.423 Z-5.000 I0.537 J0.272 K0.000 F30.000
G2 X8.685 Y-13.514 Z-5.000 I0.431 J-0.427 K0.000 F30.000
G2 X8.991 Y-12.626 Z-5.000 I0.509 J0.322 K0.000 F30.000
G2 X9.930 Y-12.628 Z-5.000 I0.469 J-0.384 K0.000 F30.000
G2 X10.150 Y-11.714 Z-5.000 I0.476 J0.369 K0.000 F30.000
G2 X11.086 Y-11.627 Z-5.000 I0.503 J-0.337 K0.000 F30.000
G2 X11.218 Y-10.696 Z-5.000 I0.439 J0.412 K0.000 F30.000
G2 X12.141 Y-10.520 Z-5.000 I0.533 J-0.288 K0.000 F30.000
G2 X12.184 Y-9.581 Z-5.000 I0.398 J0.452 K0.000 F30.000
G2 X13.086 Y-9.318 Z-5.000 I0.558 J-0.236 K0.000 F30.000
G2 X13.039 Y-8.380 Z-5.000 I0.353 J0.488 K0.000 F30.000
G2 X13.912 Y-8.032 Z-5.000 I0.578 J-0.182 K0.000 F30.000
G2 X13.777 Y-7.103 Z-5.000 I0.305 J0.519 K0.000 F30.000
G2 X14.613 Y-6.673 Z-5.000 I0.593 J-0.126 K0.000 F30.000
G2 X14.390 Y-5.761 Z-5.000 I0.254 J0.546 K0.000 F30.000
G2 X15.181 Y-5.254 Z-5.000 I0.602 J-0.069 K0.000 F30.000
G2 X14.872 Y-4.367 Z-5.000 I0.201 J0.568 K0.000 F30.000
G2 X15.612 Y-3.787 Z-5.000 I0.606 J-0.012 K0.000 F30.000
G2 X15.220 Y-2.933 Z-5.000 I0.147 J0.584 K0.000 F30.000
G2 X15.901 Y-2.286 Z-5.000 I0.604 J0.046 K0.000 F30.000
G2 X15.430 Y-1.473 Z-5.000 I0.090 J0.595 K0.000 F30.000
G2 X16.046 Y-0.764 Z-5.000 I0.597 J0.103 K0.000 F30.000
G2 X15.500 Y0.000 Z-5.000 I0.033 J0.601 K0.000 F30.000
G2 X16.046 Y0.764 Z-5.000 I0.585 J0.160 K0.000 F30.000
G2 X15.430 Y1.473 Z-5.000 I-0.024 J0.602 K0.000 F30.000
G2 X15.901 Y2.286 Z-5.000 I0.567 J0.214 K0.000 F30.000
G2 X15.220 Y2.933 Z-5.000 I-0.081 J0.597 K0.000 F30.000
G2 X15.612 Y3.787 Z-5.000 I0.544 J0.267 K0.000 F30.000
G2 X14.872 Y4.367 Z-5.000 I-0.137 J0.586 K0.000 F30.000
G2 X15.181 Y5.254 Z-5.000 I0.516 J0.318 K0.000 F30.000
G2 X14.390 Y5.761 Z-5.000 I-0.193 J0.571 K0.000 F30.000
G2 X14.613 Y6.673 Z-5.000 I0.483 J0.365 K0.000 F30.000
G2 X13.777 Y7.103 Z-5.000 I-0.246 J0.550 K0.000 F30.000
G2 X13.912 Y8.032 Z-5.000 I0.447 J0.410 K0.000 F30.000
G2 X13.039 Y8.380 Z-5.000 I-0.297 J0.524 K0.000 F30.000
G2 X13.086 Y9.318 Z-5.000 I0.406 J0.450 K0.000 F30.000
G2 X12.184 Y9.581 Z-5.000 I-0.346 J0.493 K0.000 F30.000
G2 X12.141 Y10.520 Z-5.000 I0.361 J0.487 K0.000 F30.000
G2 X11.218 Y10.696 Z-5.000 I-0.391 J0.458 K0.000 F30.000
G2 X11.086 Y11.627 Z-5.000 I0.313 J0.519 K0.000 F30.000
G0 Z5.000
G0 Z5.000
(Finish operation: 1mm-gear)
(Begin operation: 0.85mm)
(Path: 0.85mm)
(0.85mm)
(Begin toolchange)
( M6 T7 )
(Finish operation: 0.85mm)
(Begin operation: 0.85-gear)
(Path: 0.85-gear)
(0.85-gear)
(Compensated Tool Path. Diameter: 0.85)
G0 Z5.000
G0 X11.268 Y11.818
G0 Z3.000
G1 X11.268 Y11.818 Z-0.500 F30.000
G2 X10.709 Y11.521 Z-0.500 I-1.063 J1.328 K0.000 F30.000
G2 X10.199 Y11.771 Z-0.500 I0.017 J0.680 K0.000 F30.000
G2 X9.880 Y12.227 Z-0.500 I0.358 J0.590 K0.000 F30.000
G2 X10.094 Y12.836 Z-0.500 I7.017 J-2.124 K0.000 F30.000
G2 X9.565 Y12.487 Z-0.500 I-1.184 J1.221 K0.000 F30.000
G2 X9.034 Y12.687 Z-0.500 I-0.048 J0.678 K0.000 F30.000
G2 X8.673 Y13.111 Z-0.500 I0.300 J0.621 K0.000 F30.000
G2 X8.828 Y13.737 Z-0.500 I7.187 J-1.447 K0.000 F30.000
G2 X8.335 Y13.340 Z-0.500 I-1.295 J1.103 K0.000 F30.000
G2 X7.788 Y13.488 Z-0.500 I-0.112 J0.671 K0.000 F30.000
G2 X7.388 Y13.876 Z-0.500 I0.239 J0.647 K0.000 F30.000
G2 X7.483 Y14.514 Z-0.500 I7.293 J-0.757 K0.000 F30.000
G2 X7.029 Y14.072 Z-0.500 I-1.394 J0.975 K0.000 F30.000
G2 X6.470 Y14.168 Z-0.500 I-0.175 J0.657 K0.000 F30.000
G2 X6.035 Y14.515 Z-0.500 I0.177 J0.667 K0.000 F30.000
G2 X6.069 Y15.160 Z-0.500 I7.332 J-0.061 K0.000 F30.000
G2 X5.660 Y14.676 Z-0.500 I-1.480 J0.838 K0.000 F30.000
G2 X5.094 Y14.718 Z-0.500 I-0.237 J0.638 K0.000 F30.000
G2 X4.628 Y15.023 Z-0.500 I0.113 J0.681 K0.000 F30.000
G2 X4.600 Y15.668 Z-0.500 I7.304 J0.637 K0.000 F30.000
G2 X4.239 Y15.148 Z-0.500 I-1.553 J0.693 K0.000 F30.000
G2 X3.672 Y15.136 Z-0.500 I-0.296 J0.612 K0.000 F30.000
G2 X3.179 Y15.395 Z-0.500 I0.047 J0.688 K0.000 F30.000
G2 X3.090 Y16.034 Z-0.500 I7.210 J1.328 K0.000 F30.000
G2 X2.780 Y15.482 Z-0.500 I-1.612 J0.543 K0.000 F30.000
G2 X2.217 Y15.416 Z-0.500 I-0.353 J0.581 K0.000 F30.000
G2 X1.701 Y15.628 Z-0.500 I-0.018 J0.690 K0.000 F30.000
G2 X1.552 Y16.255 Z-0.500 I7.051 J2.007 K0.000 F30.000
G2 X1.296 Y15.676 Z-0.500 I-1.656 J0.387 K0.000 F30.000
G2 X0.741 Y15.557 Z-0.500 I-0.407 J0.545 K0.000 F30.000
G2 X0.208 Y15.719 Z-0.500 I-0.084 J0.685 K0.000 F30.000
G2 X-0.000 Y16.329 Z-0.500 I6.829 J2.669 K0.000 F30.000
G2 X-0.200 Y15.728 Z-0.500 I-1.685 J0.228 K0.000 F30.000
G2 X-0.741 Y15.557 Z-0.500 I-0.457 J0.504 K0.000 F30.000
G2 X-1.287 Y15.667 Z-0.500 I-0.148 J0.674 K0.000 F30.000
G2 X-1.552 Y16.255 Z-0.500 I6.544 J3.306 K0.000 F30.000
G2 X-1.694 Y15.638 Z-0.500 I-1.699 J0.067 K0.000 F30.000
G2 X-2.217 Y15.416 Z-0.500 I-0.503 J0.458 K0.000 F30.000
G2 X-2.770 Y15.474 Z-0.500 I-0.212 J0.657 K0.000 F30.000
G2 X-3.090 Y16.034 Z-0.500 I6.200 J3.913 K0.000 F30.000
G2 X-3.173 Y15.406 Z-0.500 I-1.698 J-0.095 K0.000 F30.000
G2 X-3.672 Y15.136 Z-0.500 I-0.544 J0.408 K0.000 F30.000
G2 X-4.229 Y15.140 Z-0.500 I-0.273 J0.633 K0.000 F30.000
G2 X-4.600 Y15.668 Z-0.500 I5.800 J4.484 K0.000 F30.000
G2 X-4.623 Y15.035 Z-0.500 I-1.681 J-0.256 K0.000 F30.000
G2 X-5.094 Y14.718 Z-0.500 I-0.580 J0.355 K0.000 F30.000
G2 X-5.649 Y14.670 Z-0.500 I-0.332 J0.605 K0.000 F30.000
G2 X-6.069 Y15.160 Z-0.500 I5.348 J5.015 K0.000 F30.000
G2 X-6.032 Y14.527 Z-0.500 I-1.649 J-0.415 K0.000 F30.000
G2 X-6.470 Y14.168 Z-0.500 I-0.611 J0.298 K0.000 F30.000
G2 X-7.018 Y14.067 Z-0.500 I-0.388 J0.570 K0.000 F30.000
G2 X-7.483 Y14.514 Z-0.500 I4.847 J5.501 K0.000 F30.000
G2 X-7.385 Y13.888 Z-0.500 I-1.602 J-0.570 K0.000 F30.000
G2 X-7.787 Y13.488 Z-0.500 I-0.637 J0.239 K0.000 F30.000
G2 X-8.323 Y13.336 Z-0.500 I-0.441 J0.531 K0.000 F30.000
G2 X-8.828 Y13.737 Z-0.500 I4.302 J5.937 K0.000 F30.000
G2 X-8.672 Y13.123 Z-0.500 I-1.541 J-0.720 K0.000 F30.000
G2 X-9.034 Y12.687 Z-0.500 I-0.657 J0.177 K0.000 F30.000
G2 X-9.553 Y12.484 Z-0.500 I-0.489 J0.487 K0.000 F30.000
G2 X-10.094 Y12.836 Z-0.500 I3.718 J6.319 K0.000 F30.000
G2 X-9.880 Y12.240 Z-0.500 I-1.466 J-0.863 K0.000 F30.000
G2 X-10.199 Y11.771 Z-0.500 I-0.671 J0.114 K0.000 F30.000
G2 X-10.696 Y11.520 Z-0.500 I-0.533 J0.438 K0.000 F30.000
G2 X-11.268 Y11.818 Z-0.500 I3.101 J6.644 K0.000 F30.000
G2 X-10.999 Y11.245 Z-0.500 I-1.377 J-0.998 K0.000 F30.000
G2 X-11.272 Y10.748 Z-0.500 I-0.678 J0.049 K0.000 F30.000
G2 X-11.743 Y10.451 Z-0.500 I-0.572 J0.385 K0.000 F30.000
G2 X-12.341 Y10.693 Z-0.500 I2.455 J6.909 K0.000 F30.000
G2 X-12.018 Y10.149 Z-0.500 I-1.276 J-1.125 K0.000 F30.000
G2 X-12.243 Y9.628 Z-0.500 I-0.680 J-0.015 K0.000 F30.000
G2 X-12.683 Y9.287 Z-0.500 I-0.606 J0.329 K0.000 F30.000
G2 X-13.301 Y9.472 Z-0.500 I1.787 J7.110 K0.000 F30.000
G2 X-12.928 Y8.960 Z-0.500 I-1.163 J-1.241 K0.000 F30.000
G2 X-13.103 Y8.420 Z-0.500 I-0.675 J-0.080 K0.000 F30.000
G2 X-13.509 Y8.040 Z-0.500 I-0.635 J0.270 K0.000 F30.000
G2 X-14.142 Y8.165 Z-0.500 I1.103 J7.248 K0.000 F30.000
G2 X-13.721 Y7.691 Z-0.500 I-1.040 J-1.346 K0.000 F30.000
G2 X-13.844 Y7.137 Z-0.500 I-0.665 J-0.144 K0.000 F30.000
G2 X-14.212 Y6.719 Z-0.500 I-0.658 J0.208 K0.000 F30.000
G2 X-14.854 Y6.783 Z-0.500 I0.409 J7.320 K0.000 F30.000
G2 X-14.390 Y6.352 Z-0.500 I-0.907 J-1.438 K0.000 F30.000
G2 X-14.459 Y5.789 Z-0.500 I-0.648 J-0.206 K0.000 F30.000
G2 X-14.786 Y5.338 Z-0.500 I-0.674 J0.145 K0.000 F30.000
G2 X-15.431 Y5.341 Z-0.500 I-0.288 J7.326 K0.000 F30.000
G2 X-14.929 Y4.955 Z-0.500 I-0.767 J-1.518 K0.000 F30.000
G2 X-14.944 Y4.388 Z-0.500 I-0.626 J-0.267 K0.000 F30.000
G2 X-15.226 Y3.908 Z-0.500 I-0.685 J0.080 K0.000 F30.000
G2 X-15.869 Y3.850 Z-0.500 I-0.984 J7.266 K0.000 F30.000
G2 X-15.332 Y3.513 Z-0.500 I-0.619 J-1.584 K0.000 F30.000
G2 X-15.294 Y2.948 Z-0.500 I-0.597 J-0.325 K0.000 F30.000
G2 X-15.529 Y2.443 Z-0.500 I-0.690 J0.015 K0.000 F30.000
G2 X-16.163 Y2.324 Z-0.500 I-1.670 J7.139 K0.000 F30.000
G2 X-15.597 Y2.040 Z-0.500 I-0.465 J-1.636 K0.000 F30.000
G2 X-15.504 Y1.481 Z-0.500 I-0.564 J-0.380 K0.000 F30.000
G2 X-15.691 Y0.956 Z-0.500 I-0.688 J-0.051 K0.000 F30.000
G2 X-16.311 Y0.777 Z-0.500 I-2.341 J6.948 K0.000 F30.000
G2 X-15.720 Y0.548 Z-0.500 I-0.308 J-1.673 K0.000 F30.000
G2 X-15.575 Y0.000 Z-0.500 I-0.525 J-0.432 K0.000 F30.000
G2 X-15.711 Y-0.540 Z-0.500 I-0.680 J-0.116 K0.000 F30.000
G2 X-16.311 Y-0.777 Z-0.500 I-2.991 J6.694 K0.000 F30.000
G2 X-15.701 Y-0.948 Z-0.500 I-0.147 J-1.694 K0.000 F30.000
G2 X-15.504 Y-1.480 Z-0.500 I-0.482 J-0.480 K0.000 F30.000
G2 X-15.588 Y-2.031 Z-0.500 I-0.666 J-0.180 K0.000 F30.000
G2 X-16.163 Y-2.324 Z-0.500 I-3.613 J6.380 K0.000 F30.000
G2 X-15.540 Y-2.437 Z-0.500 I0.014 J-1.701 K0.000 F30.000
G2 X-15.294 Y-2.948 Z-0.500 I-0.434 J-0.524 K0.000 F30.000
G2 X-15.325 Y-3.503 Z-0.500 I-0.646 J-0.243 K0.000 F30.000
G2 X-15.869 Y-3.850 Z-0.500 I-4.203 J6.007 K0.000 F30.000
G2 X-15.238 Y-3.903 Z-0.500 I0.176 J-1.692 K0.000 F30.000
G2 X-14.944 Y-4.388 Z-0.500 I-0.382 J-0.563 K0.000 F30.000
G2 X-14.922 Y-4.944 Z-0.500 I-0.620 J-0.303 K0.000 F30.000
G2 X-15.431 Y-5.341 Z-0.500 I-4.755 J5.580 K0.000 F30.000
G2 X-14.798 Y-5.333 Z-0.500 I0.336 J-1.667 K0.000 F30.000
G2 X-14.459 Y-5.789 Z-0.500 I-0.327 J-0.596 K0.000 F30.000
G2 X-14.385 Y-6.340 Z-0.500 I-0.588 J-0.361 K0.000 F30.000
G2 X-14.854 Y-6.783 Z-0.500 I-5.264 J5.103 K0.000 F30.000
G2 X-14.224 Y-6.716 Z-0.500 I0.493 J-1.628 K0.000 F30.000
G2 X-13.844 Y-7.137 Z-0.500 I-0.269 J-0.625 K0.000 F30.000
G2 X-13.717 Y-7.679 Z-0.500 I-0.551 J-0.415 K0.000 F30.000
G2 X-14.142 Y-8.165 Z-0.500 I-5.726 J4.580 K0.000 F30.000
G2 X-13.521 Y-8.038 Z-0.500 I0.645 J-1.574 K0.000 F30.000
G2 X-13.103 Y-8.420 Z-0.500 I-0.208 J-0.647 K0.000 F30.000
G2 X-12.925 Y-8.948 Z-0.500 I-0.509 J-0.465 K0.000 F30.000
G2 X-13.301 Y-9.472 Z-0.500 I-6.135 J4.015 K0.000 F30.000
G2 X-12.696 Y-9.286 Z-0.500 I0.792 J-1.505 K0.000 F30.000
G2 X-12.243 Y-9.628 Z-0.500 I-0.145 J-0.664 K0.000 F30.000
G2 X-12.016 Y-10.136 Z-0.500 I-0.463 J-0.512 K0.000 F30.000
G2 X-12.341 Y-10.693 Z-0.500 I-6.489 J3.413 K0.000 F30.000
G2 X-11.756 Y-10.451 Z-0.500 I0.932 J-1.423 K0.000 F30.000
G2 X-11.272 Y-10.748 Z-0.500 I-0.082 J-0.675 K0.000 F30.000
G2 X-10.998 Y-11.232 Z-0.500 I-0.412 J-0.553 K0.000 F30.000
G2 X-11.268 Y-11.818 Z-0.500 I-6.784 J2.781 K0.000 F30.000
G2 X-10.709 Y-11.521 Z-0.500 I1.063 J-1.328 K0.000 F30.000
G2 X-10.199 Y-11.771 Z-0.500 I-0.017 J-0.680 K0.000 F30.000
G2 X-9.880 Y-12.227 Z-0.500 I-0.358 J-0.590 K0.000 F30.000
G2 X-10.094 Y-12.836 Z-0.500 I-7.017 J2.124 K0.000 F30.000
G2 X-9.565 Y-12.487 Z-0.500 I1.184 J-1.221 K0.000 F30.000
G2 X-9.034 Y-12.687 Z-0.500 I0.048 J-0.678 K0.000 F30.000
G2 X-8.673 Y-13.111 Z-0.500 I-0.300 J-0.621 K0.000 F30.000
G2 X-8.828 Y-13.737 Z-0.500 I-7.188 J1.447 K0.000 F30.000
G2 X-8.335 Y-13.340 Z-0.500 I1.295 J-1.103 K0.000 F30.000
G2 X-7.787 Y-13.488 Z-0.500 I0.112 J-0.671 K0.000 F30.000
G2 X-7.388 Y-13.876 Z-0.500 I-0.239 J-0.647 K0.000 F30.000
G2 X-7.483 Y-14.514 Z-0.500 I-7.293 J0.757 K0.000 F30.000
G2 X-7.029 Y-14.072 Z-0.500 I1.394 J-0.975 K0.000 F30.000
G2 X-6.470 Y-14.168 Z-0.500 I0.175 J-0.657 K0.000 F30.000
G2 X-6.035 Y-14.515 Z-0.500 I-0.177 J-0.667 K0.000 F30.000
G2 X-6.069 Y-15.160 Z-0.500 I-7.331 J0.061 K0.000 F30.000
G2 X-5.660 Y-14.676 Z-0.500 I1.480 J-0.838 K0.000 F30.000
G2 X-5.094 Y-14.718 Z-0.500 I0.237 J-0.638 K0.000 F30.000
G2 X-4.628 Y-15.023 Z-0.500 I-0.113 J-0.681 K0.000 F30.000
G2 X-4.600 Y-15.668 Z-0.500 I-7.304 J-0.637 K0.000 F30.000
G2 X-4.239 Y-15.148 Z-0.500 I1.553 J-0.693 K0.000 F30.000
G2 X-3.672 Y-15.136 Z-0.500 I0.296 J-0.612 K0.000 F30.000
G2 X-3.179 Y-15.395 Z-0.500 I-0.047 J-0.688 K0.000 F30.000
G2 X-3.090 Y-16.034 Z-0.500 I-7.210 J-1.328 K0.000 F30.000
G2 X-2.780 Y-15.482 Z-0.500 I1.612 J-0.543 K0.000 F30.000
G2 X-2.217 Y-15.416 Z-0.500 I0.353 J-0.581 K0.000 F30.000
G2 X-1.701 Y-15.628 Z-0.500 I0.018 J-0.690 K0.000 F30.000
G2 X-1.552 Y-16.255 Z-0.500 I-7.051 J-2.007 K0.000 F30.000
G2 X-1.296 Y-15.676 Z-0.500 I1.656 J-0.387 K0.000 F30.000
G2 X-0.741 Y-15.557 Z-0.500 I0.407 J-0.545 K0.000 F30.000
G2 X-0.208 Y-15.719 Z-0.500 I0.084 J-0.685 K0.000 F30.000
G2 X0.000 Y-16.329 Z-0.500 I-6.829 J-2.669 K0.000 F30.000
G2 X0.200 Y-15.728 Z-0.500 I1.685 J-0.228 K0.000 F30.000
G2 X0.741 Y-15.557 Z-0.500 I0.457 J-0.504 K0.000 F30.000
G2 X1.287 Y-15.667 Z-0.500 I0.148 J-0.674 K0.000 F30.000
G2 X1.552 Y-16.255 Z-0.500 I-6.544 J-3.306 K0.000 F30.000
G2 X1.694 Y-15.638 Z-0.500 I1.699 J-0.067 K0.000 F30.000
G2 X2.217 Y-15.416 Z-0.500 I0.503 J-0.458 K0.000 F30.000
G2 X2.770 Y-15.474 Z-0.500 I0.212 J-0.657 K0.000 F30.000
G2 X3.090 Y-16.034 Z-0.500 I-6.200 J-3.913 K0.000 F30.000
G2 X3.173 Y-15.406 Z-0.500 I1.698 J0.095 K0.000 F30.000
G2 X3.672 Y-15.136 Z-0.500 I0.544 J-0.408 K0.000 F30.000
G2 X4.229 Y-15.140 Z-0.500 I0.273 J-0.633 K0.000 F30.000
G2 X4.600 Y-15.668 Z-0.500 I-5.800 J-4.484 K0.000 F30.000
G2 X4.623 Y-15.035 Z-0.500 I1.681 J0.256 K0.000 F30.000
G2 X5.094 Y-14.718 Z-0.500 I0.580 J-0.355 K0.000 F30.000
G2 X5.649 Y-14.670 Z-0.500 I0.332 J-0.605 K0.000 F30.000
G2 X6.069 Y-15.160 Z-0.500 I-5.348 J-5.016 K0.000 F30.000
G2 X6.032 Y-14.527 Z-0.500 I1.649 J0.415 K0.000 F30.000
G2 X6.470 Y-14.168 Z-0.500 I0.611 J-0.298 K0.000 F30.000
G2 X7.018 Y-14.067 Z-0.500 I0.388 J-0.570 K0.000 F30.000
G2 X7.483 Y-14.514 Z-0.500 I-4.847 J-5.501 K0.000 F30.000
G2 X7.385 Y-13.888 Z-0.500 I1.602 J0.570 K0.000 F30.000
G2 X7.787 Y-13.488 Z-0.500 I0.637 J-0.239 K0.000 F30.000
G2 X8.323 Y-13.336 Z-0.500 I0.441 J-0.531 K0.000 F30.000
G2 X8.828 Y-13.737 Z-0.500 I-4.302 J-5.937 K0.000 F30.000
G2 X8.672 Y-13.123 Z-0.500 I1.541 J0.720 K0.000 F30.000
G2 X9.034 Y-12.687 Z-0.500 I0.657 J-0.177 K0.000 F30.000
G2 X9.553 Y-12.484 Z-0.500 I0.489 J-0.487 K0.000 F30.000
G2 X10.094 Y-12.836 Z-0.500 I-3.718 J-6.319 K0.000 F30.000
G2 X9.880 Y-12.240 Z-0.500 I1.466 J0.863 K0.000 F30.000
G2 X10.199 Y-11.771 Z-0.500 I0.670 J-0.114 K0.000 F30.000
G2 X10.696 Y-11.520 Z-0.500 I0.533 J-0.438 K0.000 F30.000
G2 X11.268 Y-11.818 Z-0.500 I-3.101 J-6.644 K0.000 F30.000
G2 X10.999 Y-11.245 Z-0.500 I1.377 J0.998 K0.000 F30.000
G2 X11.272 Y-10.748 Z-0.500 I0.678 J-0.049 K0.000 F30.000
G2 X11.743 Y-10.451 Z-0.500 I0.572 J-0.385 K0.000 F30.000
G2 X12.341 Y-10.693 Z-0.500 I-2.455 J-6.908 K0.000 F30.000
G2 X12.018 Y-10.149 Z-0.500 I1.276 J1.125 K0.000 F30.000
G2 X12.243 Y-9.628 Z-0.500 I0.680 J0.015 K0.000 F30.000
G2 X12.683 Y-9.287 Z-0.500 I0.606 J-0.329 K0.000 F30.000
G2 X13.301 Y-9.472 Z-0.500 I-1.787 J-7.111 K0.000 F30.000
G2 X12.928 Y-8.960 Z-0.500 I1.163 J1.241 K0.000 F30.000
G2 X13.103 Y-8.420 Z-0.500 I0.675 J0.080 K0.000 F30.000
G2 X13.509 Y-8.040 Z-0.500 I0.635 J-0.270 K0.000 F30.000
G2 X14.142 Y-8.165 Z-0.500 I-1.103 J-7.248 K0.000 F30.000
G2 X13.721 Y-7.691 Z-0.500 I1.040 J1.346 K0.000 F30.000
G2 X13.844 Y-7.137 Z-0.500 I0.665 J0.144 K0.000 F30.000
G2 X14.212 Y-6.719 Z-0.500 I0.658 J-0.208 K0.000 F30.000
G2 X14.854 Y-6.783 Z-0.500 I-0.409 J-7.320 K0.000 F30.000
G2 X14.390 Y-6.352 Z-0.500 I0.907 J1.438 K0.000 F30.000
G2 X14.459 Y-5.789 Z-0.500 I0.648 J0.206 K0.000 F30.000
G2 X14.786 Y-5.338 Z-0.500 I0.674 J-0.145 K0.000 F30.000
G2 X15.431 Y-5.341 Z-0.500 I0.288 J-7.326 K0.000 F30.000
G2 X14.929 Y-4.955 Z-0.500 I0.767 J1.518 K0.000 F30.000
G2 X14.944 Y-4.388 Z-0.500 I0.626 J0.267 K0.000 F30.000
G2 X15.226 Y-3.908 Z-0.500 I0.685 J-0.080 K0.000 F30.000
G2 X15.869 Y-3.850 Z-0.500 I0.983 J-7.265 K0.000 F30.000
G2 X15.332 Y-3.513 Z-0.500 I0.619 J1.584 K0.000 F30.000
G2 X15.294 Y-2.948 Z-0.500 I0.597 J0.325 K0.000 F30.000
G2 X15.529 Y-2.443 Z-0.500 I0.690 J-0.015 K0.000 F30.000
G2 X16.163 Y-2.324 Z-0.500 I1.670 J-7.139 K0.000 F30.000
G2 X15.597 Y-2.040 Z-0.500 I0.465 J1.636 K0.000 F30.000
G2 X15.504 Y-1.481 Z-0.500 I0.564 J0.380 K0.000 F30.000
G2 X15.691 Y-0.956 Z-0.500 I0.688 J0.051 K0.000 F30.000
G2 X16.311 Y-0.777 Z-0.500 I2.341 J-6.948 K0.000 F30.000
G2 X15.720 Y-0.548 Z-0.500 I0.308 J1.673 K0.000 F30.000
G2 X15.575 Y-0.000 Z-0.500 I0.525 J0.432 K0.000 F30.000
G2 X15.711 Y0.540 Z-0.500 I0.680 J0.116 K0.000 F30.000
G2 X16.311 Y0.777 Z-0.500 I2.991 J-6.694 K0.000 F30.000
G2 X15.701 Y0.948 Z-0.500 I0.147 J1.694 K0.000 F30.000
G2 X15.504 Y1.480 Z-0.500 I0.482 J0.480 K0.000 F30.000
G2 X15.588 Y2.031 Z-0.500 I0.666 J0.180 K0.000 F30.000
G2 X16.163 Y2.324 Z-0.500 I3.613 J-6.379 K0.000 F30.000
G2 X15.540 Y2.437 Z-0.500 I-0.014 J1.701 K0.000 F30.000
G2 X15.294 Y2.948 Z-0.500 I0.434 J0.524 K0.000 F30.000
G2 X15.325 Y3.503 Z-0.500 I0.646 J0.243 K0.000 F30.000
G2 X15.869 Y3.850 Z-0.500 I4.203 J-6.007 K0.000 F30.000
G2 X15.238 Y3.903 Z-0.500 I-0.176 J1.692 K0.000 F30.000
G2 X14.944 Y4.388 Z-0.500 I0.382 J0.563 K0.000 F30.000
G2 X14.922 Y4.944 Z-0.500 I0.620 J0.303 K0.000 F30.000
G2 X15.431 Y5.341 Z-0.500 I4.755 J-5.580 K0.000 F30.000
G2 X14.798 Y5.333 Z-0.500 I-0.336 J1.667 K0.000 F30.000
G2 X14.459 Y5.789 Z-0.500 I0.327 J0.596 K0.000 F30.000
G2 X14.385 Y6.340 Z-0.500 I0.588 J0.361 K0.000 F30.000
G2 X14.854 Y6.783 Z-0.500 I5.264 J-5.103 K0.000 F30.000
G2 X14.224 Y6.716 Z-0.500 I-0.493 J1.628 K0.000 F30.000
G2 X13.844 Y7.137 Z-0.500 I0.269 J0.625 K0.000 F30.000
G2 X13.717 Y7.679 Z-0.500 I0.551 J0.415 K0.000 F30.000
G2 X14.142 Y8.165 Z-0.500 I5.726 J-4.580 K0.000 F30.000
G2 X13.521 Y8.038 Z-0.500 I-0.645 J1.574 K0.000 F30.000
G2 X13.103 Y8.420 Z-0.500 I0.208 J0.648 K0.000 F30.000
G2 X12.925 Y8.948 Z-0.500 I0.509 J0.465 K0.000 F30.000
G2 X13.301 Y9.472 Z-0.500 I6.135 J-4.015 K0.000 F30.000
G2 X12.696 Y9.286 Z-0.500 I-0.792 J1.505 K0.000 F30.000
G2 X12.243 Y9.628 Z-0.500 I0.145 J0.664 K0.000 F30.000
G2 X12.016 Y10.136 Z-0.500 I0.463 J0.512 K0.000 F30.000
G2 X12.341 Y10.693 Z-0.500 I6.489 J-3.413 K0.000 F30.000
G2 X11.756 Y10.451 Z-0.500 I-0.932 J1.423 K0.000 F30.000
G2 X11.272 Y10.748 Z-0.500 I0.082 J0.675 K0.000 F30.000
G2 X10.998 Y11.232 Z-0.500 I0.412 J0.553 K0.000 F30.000
G2 X11.268 Y11.818 Z-0.500 I6.784 J-2.781 K0.000 F30.000
G1 X11.268 Y11.818 Z-1.000 F30.000
G2 X10.709 Y11.521 Z-1.000 I-1.063 J1.328 K0.000 F30.000
G2 X10.199 Y11.771 Z-1.000 I0.017 J0.680 K0.000 F30.000
G2 X9.880 Y12.227 Z-1.000 I0.358 J0.590 K0.000 F30.000
G2 X10.094 Y12.836 Z-1.000 I7.017 J-2.124 K0.000 F30.000
G2 X9.565 Y12.487 Z-1.000 I-1.184 J1.221 K0.000 F30.000
G2 X9.034 Y12.687 Z-1.000 I-0.048 J0.678 K0.000 F30.000
G2 X8.673 Y13.111 Z-1.000 I0.300 J0.621 K0.000 F30.000
G2 X8.828 Y13.737 Z-1.000 I7.187 J-1.447 K0.000 F30.000
G2 X8.335 Y13.340 Z-1.000 I-1.295 J1.103 K0.000 F30.000
G2 X7.788 Y13.488 Z-1.000 I-0.112 J0.671 K0.000 F30.000
G2 X7.388 Y13.876 Z-1.000 I0.239 J0.647 K0.000 F30.000
G2 X7.483 Y14.514 Z-1.000 I7.293 J-0.757 K0.000 F30.000
G2 X7.029 Y14.072 Z-1.000 I-1.394 J0.975 K0.000 F30.000
G2 X6.470 Y14.168 Z-1.000 I-0.175 J0.657 K0.000 F30.000
G2 X6.035 Y14.515 Z-1.000 I0.177 J0.667 K0.000 F30.000
G2 X6.069 Y15.160 Z-1.000 I7.332 J-0.061 K0.000 F30.000
G2 X5.660 Y14.676 Z-1.000 I-1.480 J0.838 K0.000 F30.000
G2 X5.094 Y14.718 Z-1.000 I-0.237 J0.638 K0.000 F30.000
G2 X4.628 Y15.023 Z-1.000 I0.113 J0.681 K0.000 F30.000
G2 X4.600 Y15.668 Z-1.000 I7.304 J0.637 K0.000 F30.000
G2 X4.239 Y15.148 Z-1.000 I-1.553 J0.693 K0.000 F30.000
G2 X3.672 Y15.136 Z-1.000 I-0.296 J0.612 K0.000 F30.000
G2 X3.179 Y15.395 Z-1.000 I0.047 J0.688 K0.000 F30.000
G2 X3.090 Y16.034 Z-1.000 I7.210 J1.328 K0.000 F30.000
G2 X2.780 Y15.482 Z-1.000 I-1.612 J0.543 K0.000 F30.000
G2 X2.217 Y15.416 Z-1.000 I-0.353 J0.581 K0.000 F30.000
G2 X1.701 Y15.628 Z-1.000 I-0.018 J0.690 K0.000 F30.000
G2 X1.552 Y16.255 Z-1.000 I7.051 J2.007 K0.000 F30.000
G2 X1.296 Y15.676 Z-1.000 I-1.656 J0.387 K0.000 F30.000
G2 X0.741 Y15.557 Z-1.000 I-0.407 J0.545 K0.000 F30.000
G2 X0.208 Y15.719 Z-1.000 I-0.084 J0.685 K0.000 F30.000
G2 X-0.000 Y16.329 Z-1.000 I6.829 J2.669 K0.000 F30.000
G2 X-0.200 Y15.728 Z-1.000 I-1.685 J0.228 K0.000 F30.000
G2 X-0.741 Y15.557 Z-1.000 I-0.457 J0.504 K0.000 F30.000
G2 X-1.287 Y15.667 Z-1.000 I-0.148 J0.674 K0.000 F30.000
G2 X-1.552 Y16.255 Z-1.000 I6.544 J3.306 K0.000 F30.000
G2 X-1.694 Y15.638 Z-1.000 I-1.699 J0.067 K0.000 F30.000
G2 X-2.217 Y15.416 Z-1.000 I-0.503 J0.458 K0.000 F30.000
G2 X-2.770 Y15.474 Z-1.000 I-0.212 J0.657 K0.000 F30.000
G2 X-3.090 Y16.034 Z-1.000 I6.200 J3.913 K0.000 F30.000
G2 X-3.173 Y15.406 Z-1.000 I-1.698 J-0.095 K0.000 F30.000
G2 X-3.672 Y15.136 Z-1.000 I-0.544 J0.408 K0.000 F30.000
G2 X-4.229 Y15.140 Z-1.000 I-0.273 J0.633 K0.000 F30.000
G2 X-4.600 Y15.668 Z-1.000 I5.800 J4.484 K0.000 F30.000
G2 X-4.623 Y15.035 Z-1.000 I-1.681 J-0.256 K0.000 F30.000
G2 X-5.094 Y14.718 Z-1.000 I-0.580 J0.355 K0.000 F30.000
G2 X-5.649 Y14.670 Z-1.000 I-0.332 J0.605 K0.000 F30.000
G2 X-6.069 Y15.160 Z-1.000 I5.348 J5.015 K0.000 F30.000
G2 X-6.032 Y14.527 Z-1.000 I-1.649 J-0.415 K0.000 F30.000
G2 X-6.470 Y14.168 Z-1.000 I-0.611 J0.298 K0.000 F30.000
G2 X-7.018 Y14.067 Z-1.000 I-0.388 J0.570 K0.000 F30.000
G2 X-7.483 Y14.514 Z-1.000 I4.847 J5.501 K0.000 F30.000
G2 X-7.385 Y13.888 Z-1.000 I-1.602 J-0.570 K0.000 F30.000
G2 X-7.787 Y13.488 Z-1.000 I-0.637 J0.239 K0.000 F30.000
G2 X-8.323 Y13.336 Z-1.000 I-0.441 J0.531 K0.000 F30.000
G2 X-8.828 Y13.737 Z-1.000 I4.302 J5.937 K0.000 F30.000
G2 X-8.672 Y13.123 Z-1.000 I-1.541 J-0.720 K0.000 F30.000
G2 X-9.034 Y12.687 Z-1.000 I-0.657 J0.177 K0.000 F30.000
G2 X-9.553 Y12.484 Z-1.000 I-0.489 J0.487 K0.000 F30.000
G2 X-10.094 Y12.836 Z-1.000 I3.718 J6.319 K0.000 F30.000
G2 X-9.880 Y12.240 Z-1.000 I-1.466 J-0.863 K0.000 F30.000
G2 X-10.199 Y11.771 Z-1.000 I-0.671 J0.114 K0.000 F30.000
G2 X-10.696 Y11.520 Z-1.000 I-0.533 J0.438 K0.000 F30.000
G2 X-11.268 Y11.818 Z-1.000 I3.101 J6.644 K0.000 F30.000
G2 X-10.999 Y11.245 Z-1.000 I-1.377 J-0.998 K0.000 F30.000
G2 X-11.272 Y10.748 Z-1.000 I-0.678 J0.049 K0.000 F30.000
G2 X-11.743 Y10.451 Z-1.000 I-0.572 J0.385 K0.000 F30.000
G2 X-12.341 Y10.693 Z-1.000 I2.455 J6.909 K0.000 F30.000
G2 X-12.018 Y10.149 Z-1.000 I-1.276 J-1.125 K0.000 F30.000
G2 X-12.243 Y9.628 Z-1.000 I-0.680 J-0.015 K0.000 F30.000
G2 X-12.683 Y9.287 Z-1.000 I-0.606 J0.329 K0.000 F30.000
G2 X-13.301 Y9.472 Z-1.000 I1.787 J7.110 K0.000 F30.000
G2 X-12.928 Y8.960 Z-1.000 I-1.163 J-1.241 K0.000 F30.000
G2 X-13.103 Y8.420 Z-1.000 I-0.675 J-0.080 K0.000 F30.000
G2 X-13.509 Y8.040 Z-1.000 I-0.635 J0.270 K0.000 F30.000
G2 X-14.142 Y8.165 Z-1.000 I1.103 J7.248 K0.000 F30.000
G2 X-13.721 Y7.691 Z-1.000 I-1.040 J-1.346 K0.000 F30.000
G2 X-13.844 Y7.137 Z-1.000 I-0.665 J-0.144 K0.000 F30.000
G2 X-14.212 Y6.719 Z-1.000 I-0.658 J0.208 K0.000 F30.000
G2 X-14.854 Y6.783 Z-1.000 I0.409 J7.320 K0.000 F30.000
G2 X-14.390 Y6.352 Z-1.000 I-0.907 J-1.438 K0.000 F30.000
G2 X-14.459 Y5.789 Z-1.000 I-0.648 J-0.206 K0.000 F30.000
G2 X-14.786 Y5.338 Z-1.000 I-0.674 J0.145 K0.000 F30.000
G2 X-15.431 Y5.341 Z-1.000 I-0.288 J7.326 K0.000 F30.000
G2 X-14.929 Y4.955 Z-1.000 I-0.767 J-1.518 K0.000 F30.000
G2 X-14.944 Y4.388 Z-1.000 I-0.626 J-0.267 K0.000 F30.000
G2 X-15.226 Y3.908 Z-1.000 I-0.685 J0.080 K0.000 F30.000
G2 X-15.869 Y3.850 Z-1.000 I-0.984 J7.266 K0.000 F30.000
G2 X-15.332 Y3.513 Z-1.000 I-0.619 J-1.584 K0.000 F30.000
G2 X-15.294 Y2.948 Z-1.000 I-0.597 J-0.325 K0.000 F30.000
G2 X-15.529 Y2.443 Z-1.000 I-0.690 J0.015 K0.000 F30.000
G2 X-16.163 Y2.324 Z-1.000 I-1.670 J7.139 K0.000 F30.000
G2 X-15.597 Y2.040 Z-1.000 I-0.465 J-1.636 K0.000 F30.000
G2 X-15.504 Y1.481 Z-1.000 I-0.564 J-0.380 K0.000 F30.000
G2 X-15.691 Y0.956 Z-1.000 I-0.688 J-0.051 K0.000 F30.000
G2 X-16.311 Y0.777 Z-1.000 I-2.341 J6.948 K0.000 F30.000
G2 X-15.720 Y0.548 Z-1.000 I-0.308 J-1.673 K0.000 F30.000
G2 X-15.575 Y0.000 Z-1.000 I-0.525 J-0.432 K0.000 F30.000
G2 X-15.711 Y-0.540 Z-1.000 I-0.680 J-0.116 K0.000 F30.000
G2 X-16.311 Y-0.777 Z-1.000 I-2.991 J6.694 K0.000 F30.000
G2 X-15.701 Y-0.948 Z-1.000 I-0.147 J-1.694 K0.000 F30.000
G2 X-15.504 Y-1.480 Z-1.000 I-0.482 J-0.480 K0.000 F30.000
G2 X-15.588 Y-2.031 Z-1.000 I-0.666 J-0.180 K0.000 F30.000
G2 X-16.163 Y-2.324 Z-1.000 I-3.613 J6.380 K0.000 F30.000
G2 X-15.540 Y-2.437 Z-1.000 I0.014 J-1.701 K0.000 F30.000
G2 X-15.294 Y-2.948 Z-1.000 I-0.434 J-0.524 K0.000 F30.000
G2 X-15.325 Y-3.503 Z-1.000 I-0.646 J-0.243 K0.000 F30.000
G2 X-15.869 Y-3.850 Z-1.000 I-4.203 J6.007 K0.000 F30.000
G2 X-15.238 Y-3.903 Z-1.000 I0.176 J-1.692 K0.000 F30.000
G2 X-14.944 Y-4.388 Z-1.000 I-0.382 J-0.563 K0.000 F30.000
G2 X-14.922 Y-4.944 Z-1.000 I-0.620 J-0.303 K0.000 F30.000
G2 X-15.431 Y-5.341 Z-1.000 I-4.755 J5.580 K0.000 F30.000
G2 X-14.798 Y-5.333 Z-1.000 I0.336 J-1.667 K0.000 F30.000
G2 X-14.459 Y-5.789 Z-1.000 I-0.327 J-0.596 K0.000 F30.000
G2 X-14.385 Y-6.340 Z-1.000 I-0.588 J-0.361 K0.000 F30.000
G2 X-14.854 Y-6.783 Z-1.000 I-5.264 J5.103 K0.000 F30.000
G2 X-14.224 Y-6.716 Z-1.000 I0.493 J-1.628 K0.000 F30.000
G2 X-13.844 Y-7.137 Z-1.000 I-0.269 J-0.625 K0.000 F30.000
G2 X-13.717 Y-7.679 Z-1.000 I-0.551 J-0.415 K0.000 F30.000
G2 X-14.142 Y-8.165 Z-1.000 I-5.726 J4.580 K0.000 F30.000
G2 X-13.521 Y-8.038 Z-1.000 I0.645 J-1.574 K0.000 F30.000
G2 X-13.103 Y-8.420 Z-1.000 I-0.208 J-0.647 K0.000 F30.000
G2 X-12.925 Y-8.948 Z-1.000 I-0.509 J-0.465 K0.000 F30.000
G2 X-13.301 Y-9.472 Z-1.000 I-6.135 J4.015 K0.000 F30.000
G2 X-12.696 Y-9.286 Z-1.000 I0.792 J-1.505 K0.000 F30.000
G2 X-12.243 Y-9.628 Z-1.000 I-0.145 J-0.664 K0.000 F30.000
G2 X-12.016 Y-10.136 Z-1.000 I-0.463 J-0.512 K0.000 F30.000
G2 X-12.341 Y-10.693 Z-1.000 I-6.489 J3.413 K0.000 F30.000
G2 X-11.756 Y-10.451 Z-1.000 I0.932 J-1.423 K0.000 F30.000
G2 X-11.272 Y-10.748 Z-1.000 I-0.082 J-0.675 K0.000 F30.000
G2 X-10.998 Y-11.232 Z-1.000 I-0.412 J-0.553 K0.000 F30.000
G2 X-11.268 Y-11.818 Z-1.000 I-6.784 J2.781 K0.000 F30.000
G2 X-10.709 Y-11.521 Z-1.000 I1.063 J-1.328 K0.000 F30.000
G2 X-10.199 Y-11.771 Z-1.000 I-0.017 J-0.680 K0.000 F30.000
G2 X-9.880 Y-12.227 Z-1.000 I-0.358 J-0.590 K0.000 F30.000
G2 X-10.094 Y-12.836 Z-1.000 I-7.017 J2.124 K0.000 F30.000
G2 X-9.565 Y-12.487 Z-1.000 I1.184 J-1.221 K0.000 F30.000
G2 X-9.034 Y-12.687 Z-1.000 I0.048 J-0.678 K0.000 F30.000
G2 X-8.673 Y-13.111 Z-1.000 I-0.300 J-0.621 K0.000 F30.000
G2 X-8.828 Y-13.737 Z-1.000 I-7.188 J1.447 K0.000 F30.000
G2 X-8.335 Y-13.340 Z-1.000 I1.295 J-1.103 K0.000 F30.000
G2 X-7.787 Y-13.488 Z-1.000 I0.112 J-0.671 K0.000 F30.000
G2 X-7.388 Y-13.876 Z-1.000 I-0.239 J-0.647 K0.000 F30.000
G2 X-7.483 Y-14.514 Z-1.000 I-7.293 J0.757 K0.000 F30.000
G2 X-7.029 Y-14.072 Z-1.000 I1.394 J-0.975 K0.000 F30.000
