(Exported by FreeCAD)
(Post Processor: grbl_post)
(Output Time:2025-07-25 17:35:47.060051)
(Begin preamble)
G17 G90
G21
(Begin operation: Fixture)
(Path: Fixture)
G54
(Finish operation: Fixture)
(Begin operation: 2mm-6-Endmill001)
(Path: 2mm-6-Endmill001)
(2mm-6-Endmill001)
(Begin toolchange)
( M6 T3 )
(Finish operation: 2mm-6-Endmill001)
(Begin operation: 2mm-drill)
(Path: 2mm-drill)
(2mm-drill)
(Compensated Tool Path. Diameter: 2.0)
G0 Z5.000
G0 X2.120 Y2.120
G0 Z3.000
G1 X2.120 Y2.120 Z-6.000 F30.000
G3 X-0.610 Y2.935 Z-6.000 I-2.120 J-2.120 K0.000 F30.000
G3 X0.593 Y-2.939 Z-6.000 I0.610 J-2.935 K0.000 F30.000
G1 X0.972 Y-2.836 Z-6.000 F30.000
G3 X2.120 Y2.120 Z-6.000 I-0.972 J2.836 K0.000 F30.000
G1 X2.120 Y2.120 Z-7.000 F30.000
G3 X-0.610 Y2.935 Z-7.000 I-2.120 J-2.120 K0.000 F30.000
G3 X0.593 Y-2.939 Z-7.000 I0.610 J-2.935 K0.000 F30.000
G1 X0.972 Y-2.836 Z-7.000 F30.000
G3 X2.120 Y2.120 Z-7.000 I-0.972 J2.836 K0.000 F30.000
G1 X2.120 Y2.120 Z-8.000 F30.000
G3 X-0.610 Y2.935 Z-8.000 I-2.120 J-2.120 K0.000 F30.000
G3 X0.593 Y-2.939 Z-8.000 I0.610 J-2.935 K0.000 F30.000
G1 X0.972 Y-2.836 Z-8.000 F30.000
G3 X2.120 Y2.120 Z-8.000 I-0.972 J2.836 K0.000 F30.000
G1 X2.120 Y2.120 Z-9.000 F30.000
G3 X-0.610 Y2.935 Z-9.000 I-2.120 J-2.120 K0.000 F30.000
G3 X0.593 Y-2.939 Z-9.000 I0.610 J-2.935 K0.000 F30.000
G1 X0.972 Y-2.836 Z-9.000 F30.000
G3 X2.120 Y2.120 Z-9.000 I-0.972 J2.836 K0.000 F30.000
G1 X2.120 Y2.120 Z-10.000 F30.000
G3 X-0.610 Y2.935 Z-10.000 I-2.120 J-2.120 K0.000 F30.000
G3 X0.593 Y-2.939 Z-10.000 I0.610 J-2.935 K0.000 F30.000
G1 X0.972 Y-2.836 Z-10.000 F30.000
G3 X2.120 Y2.120 Z-10.000 I-0.972 J2.836 K0.000 F30.000
G1 X2.120 Y2.120 Z-10.500 F30.000
G3 X-0.610 Y2.935 Z-10.500 I-2.120 J-2.120 K0.000 F30.000
G3 X0.593 Y-2.939 Z-10.500 I0.610 J-2.935 K0.000 F30.000
G1 X0.972 Y-2.836 Z-10.500 F30.000
G3 X2.120 Y2.120 Z-10.500 I-0.972 J2.836 K0.000 F30.000
G0 Z5.000
G0 Z5.000
(Finish operation: 2mm-drill)
(Begin operation: 2mm-drill-2)
(Path: 2mm-drill-2)
(2mm-drill-2)
(Compensated Tool Path. Diameter: 2.0)
G0 Z5.000
G0 X2.229 Y10.086
G0 Z3.000
G1 X2.229 Y10.086 Z-6.000 F30.000
G3 X1.780 Y10.163 Z-6.000 I-0.278 J-0.278 K0.000 F30.000
G3 X1.596 Y9.637 Z-6.000 I0.171 J-0.355 K0.000 F30.000
G3 X2.122 Y9.453 Z-6.000 I0.355 J0.171 K0.000 F30.000
G3 X2.229 Y10.086 Z-6.000 I-0.171 J0.355 K0.000 F30.000
G1 X2.229 Y10.086 Z-7.000 F30.000
G3 X1.780 Y10.163 Z-7.000 I-0.278 J-0.278 K0.000 F30.000
G3 X1.596 Y9.637 Z-7.000 I0.171 J-0.355 K0.000 F30.000
G3 X2.122 Y9.453 Z-7.000 I0.355 J0.171 K0.000 F30.000
G3 X2.229 Y10.086 Z-7.000 I-0.171 J0.355 K0.000 F30.000
G1 X2.229 Y10.086 Z-8.000 F30.000
G3 X1.780 Y10.163 Z-8.000 I-0.278 J-0.278 K0.000 F30.000
G3 X1.596 Y9.637 Z-8.000 I0.171 J-0.355 K0.000 F30.000
G3 X2.122 Y9.453 Z-8.000 I0.355 J0.171 K0.000 F30.000
G3 X2.229 Y10.086 Z-8.000 I-0.171 J0.355 K0.000 F30.000
G1 X2.229 Y10.086 Z-9.000 F30.000
G3 X1.780 Y10.163 Z-9.000 I-0.278 J-0.278 K0.000 F30.000
G3 X1.596 Y9.637 Z-9.000 I0.171 J-0.355 K0.000 F30.000
G3 X2.122 Y9.453 Z-9.000 I0.355 J0.171 K0.000 F30.000
G3 X2.229 Y10.086 Z-9.000 I-0.171 J0.355 K0.000 F30.000
G1 X2.229 Y10.086 Z-10.000 F30.000
G3 X1.780 Y10.163 Z-10.000 I-0.278 J-0.278 K0.000 F30.000
G3 X1.596 Y9.637 Z-10.000 I0.171 J-0.355 K0.000 F30.000
G3 X2.122 Y9.453 Z-10.000 I0.355 J0.171 K0.000 F30.000
G3 X2.229 Y10.086 Z-10.000 I-0.171 J0.355 K0.000 F30.000
G1 X2.229 Y10.086 Z-10.500 F30.000
G3 X1.780 Y10.163 Z-10.500 I-0.278 J-0.278 K0.000 F30.000
G3 X1.596 Y9.637 Z-10.500 I0.171 J-0.355 K0.000 F30.000
G3 X2.122 Y9.453 Z-10.500 I0.355 J0.171 K0.000 F30.000
G3 X2.229 Y10.086 Z-10.500 I-0.171 J0.355 K0.000 F30.000
G0 Z5.000
G0 Z5.000
(Finish operation: 2mm-drill-2)
(Begin operation: 2mm-drill-3)
(Path: 2mm-drill-3)
(2mm-drill-3)
(Compensated Tool Path. Diameter: 2.0)
G0 Z5.000
G0 X-9.529 Y2.229
G0 Z3.000
G1 X-9.529 Y2.229 Z-6.000 F30.000
G3 X-9.979 Y2.306 Z-6.000 I-0.278 J-0.278 K0.000 F30.000
G3 X-9.637 Y1.596 Z-6.000 I0.171 J-0.355 K0.000 F30.000
G3 X-9.529 Y2.229 Z-6.000 I-0.171 J0.355 K0.000 F30.000
G1 X-9.529 Y2.229 Z-7.000 F30.000
G3 X-9.979 Y2.306 Z-7.000 I-0.278 J-0.278 K0.000 F30.000
G3 X-9.637 Y1.596 Z-7.000 I0.171 J-0.355 K0.000 F30.000
G3 X-9.529 Y2.229 Z-7.000 I-0.171 J0.355 K0.000 F30.000
G1 X-9.529 Y2.229 Z-8.000 F30.000
G3 X-9.979 Y2.306 Z-8.000 I-0.278 J-0.278 K0.000 F30.000
G3 X-9.637 Y1.596 Z-8.000 I0.171 J-0.355 K0.000 F30.000
G3 X-9.529 Y2.229 Z-8.000 I-0.171 J0.355 K0.000 F30.000
G1 X-9.529 Y2.229 Z-9.000 F30.000
G3 X-9.979 Y2.306 Z-9.000 I-0.278 J-0.278 K0.000 F30.000
G3 X-9.637 Y1.596 Z-9.000 I0.171 J-0.355 K0.000 F30.000
G3 X-9.529 Y2.229 Z-9.000 I-0.171 J0.355 K0.000 F30.000
G1 X-9.529 Y2.229 Z-10.000 F30.000
G3 X-9.979 Y2.306 Z-10.000 I-0.278 J-0.278 K0.000 F30.000
G3 X-9.637 Y1.596 Z-10.000 I0.171 J-0.355 K0.000 F30.000
G3 X-9.529 Y2.229 Z-10.000 I-0.171 J0.355 K0.000 F30.000
G1 X-9.529 Y2.229 Z-10.500 F30.000
G3 X-9.979 Y2.306 Z-10.500 I-0.278 J-0.278 K0.000 F30.000
G3 X-9.637 Y1.596 Z-10.500 I0.171 J-0.355 K0.000 F30.000
G3 X-9.529 Y2.229 Z-10.500 I-0.171 J0.355 K0.000 F30.000
G0 Z5.000
G0 Z5.000
(Finish operation: 2mm-drill-3)
(Begin operation: 2mm-drill-4)
(Path: 2mm-drill-4)
(2mm-drill-4)
(Compensated Tool Path. Diameter: 2.0)
G0 Z5.000
G0 X-1.673 Y-9.529
G0 Z3.000
G1 X-1.673 Y-9.529 Z-6.000 F30.000
G3 X-2.122 Y-9.453 Z-6.000 I-0.278 J-0.278 K0.000 F30.000
G3 X-1.780 Y-10.163 Z-6.000 I0.171 J-0.355 K0.000 F30.000
G3 X-1.673 Y-9.529 Z-6.000 I-0.171 J0.355 K0.000 F30.000
G1 X-1.673 Y-9.529 Z-7.000 F30.000
G3 X-2.122 Y-9.453 Z-7.000 I-0.278 J-0.278 K0.000 F30.000
G3 X-1.780 Y-10.163 Z-7.000 I0.171 J-0.355 K0.000 F30.000
G3 X-1.673 Y-9.529 Z-7.000 I-0.171 J0.355 K0.000 F30.000
G1 X-1.673 Y-9.529 Z-8.000 F30.000
G3 X-2.122 Y-9.453 Z-8.000 I-0.278 J-0.278 K0.000 F30.000
G3 X-1.780 Y-10.163 Z-8.000 I0.171 J-0.355 K0.000 F30.000
G3 X-1.673 Y-9.529 Z-8.000 I-0.171 J0.355 K0.000 F30.000
G1 X-1.673 Y-9.529 Z-9.000 F30.000
G3 X-2.122 Y-9.453 Z-9.000 I-0.278 J-0.278 K0.000 F30.000
G3 X-1.780 Y-10.163 Z-9.000 I0.171 J-0.355 K0.000 F30.000
G3 X-1.673 Y-9.529 Z-9.000 I-0.171 J0.355 K0.000 F30.000
G1 X-1.673 Y-9.529 Z-10.000 F30.000
G3 X-2.122 Y-9.453 Z-10.000 I-0.278 J-0.278 K0.000 F30.000
G3 X-1.780 Y-10.163 Z-10.000 I0.171 J-0.355 K0.000 F30.000
G3 X-1.673 Y-9.529 Z-10.000 I-0.171 J0.355 K0.000 F30.000
G1 X-1.673 Y-9.529 Z-10.500 F30.000
G3 X-2.122 Y-9.453 Z-10.500 I-0.278 J-0.278 K0.000 F30.000
G3 X-1.780 Y-10.163 Z-10.500 I0.171 J-0.355 K0.000 F30.000
G3 X-1.673 Y-9.529 Z-10.500 I-0.171 J0.355 K0.000 F30.000
G0 Z5.000
G0 Z5.000
(Finish operation: 2mm-drill-4)
(Begin operation: 2mm-drill-5)
(Path: 2mm-drill-5)
(2mm-drill-5)
(Compensated Tool Path. Diameter: 2.0)
G0 Z5.000
G0 X10.086 Y-1.673
G0 Z3.000
G1 X10.086 Y-1.673 Z-6.000 F30.000
G3 X9.637 Y-1.596 Z-6.000 I-0.278 J-0.278 K0.000 F30.000
G3 X9.453 Y-2.122 Z-6.000 I0.171 J-0.355 K0.000 F30.000
G3 X9.979 Y-2.306 Z-6.000 I0.355 J0.171 K0.000 F30.000
G3 X10.086 Y-1.673 Z-6.000 I-0.171 J0.355 K0.000 F30.000
G1 X10.086 Y-1.673 Z-7.000 F30.000
G3 X9.637 Y-1.596 Z-7.000 I-0.278 J-0.278 K0.000 F30.000
G3 X9.453 Y-2.122 Z-7.000 I0.171 J-0.355 K0.000 F30.000
G3 X9.979 Y-2.306 Z-7.000 I0.355 J0.171 K0.000 F30.000
G3 X10.086 Y-1.673 Z-7.000 I-0.171 J0.355 K0.000 F30.000
G1 X10.086 Y-1.673 Z-8.000 F30.000
G3 X9.637 Y-1.596 Z-8.000 I-0.278 J-0.278 K0.000 F30.000
G3 X9.453 Y-2.122 Z-8.000 I0.171 J-0.355 K0.000 F30.000
G3 X9.979 Y-2.306 Z-8.000 I0.355 J0.171 K0.000 F30.000
G3 X10.086 Y-1.673 Z-8.000 I-0.171 J0.355 K0.000 F30.000
G1 X10.086 Y-1.673 Z-9.000 F30.000
G3 X9.637 Y-1.596 Z-9.000 I-0.278 J-0.278 K0.000 F30.000
G3 X9.453 Y-2.122 Z-9.000 I0.171 J-0.355 K0.000 F30.000
G3 X9.979 Y-2.306 Z-9.000 I0.355 J0.171 K0.000 F30.000
G3 X10.086 Y-1.673 Z-9.000 I-0.171 J0.355 K0.000 F30.000
G1 X10.086 Y-1.673 Z-10.000 F30.000
G3 X9.637 Y-1.596 Z-10.000 I-0.278 J-0.278 K0.000 F30.000
G3 X9.453 Y-2.122 Z-10.000 I0.171 J-0.355 K0.000 F30.000
G3 X9.979 Y-2.306 Z-10.000 I0.355 J0.171 K0.000 F30.000
G3 X10.086 Y-1.673 Z-10.000 I-0.171 J0.355 K0.000 F30.000
G1 X10.086 Y-1.673 Z-10.500 F30.000
G3 X9.637 Y-1.596 Z-10.500 I-0.278 J-0.278 K0.000 F30.000
G3 X9.453 Y-2.122 Z-10.500 I0.171 J-0.355 K0.000 F30.000
G3 X9.979 Y-2.306 Z-10.500 I0.355 J0.171 K0.000 F30.000
G3 X10.086 Y-1.673 Z-10.500 I-0.171 J0.355 K0.000 F30.000
G0 Z5.000
G0 Z5.000
(Finish operation: 2mm-drill-5)
(Begin postamble)
M5
G17 G90
M2
