(Exported by FreeCAD)
(Post Processor: grbl_post)
(Output Time:2025-08-26 05:38:39.486526)
(Begin preamble)
G17 G90
G21
(Begin operation: Fixture)
(Path: Fixture)
G54
(Finish operation: Fixture)
(Begin operation: 1mm-10-Endmill001)
(Path: 1mm-10-Endmill001)
(1mm-10-Endmill001)
(Begin toolchange)
( M6 T5 )
(Finish operation: 1mm-10-Endmill001)
(Begin operation: 1mm-gear)
(Path: 1mm-gear)
(1mm-gear)
(Compensated Tool Path. Diameter: 1.0)
G0 Z5.000
G0 X11.086 Y11.627
G0 Z3.000
G1 X11.086 Y11.627 Z-0.500 F30.000
G2 X10.150 Y11.714 Z-0.500 I-0.433 J0.419 K0.000 F30.000
G2 X9.930 Y12.628 Z-0.500 I0.262 J0.546 K0.000 F30.000
G2 X8.991 Y12.626 Z-0.500 I-0.471 J0.376 K0.000 F30.000
G2 X8.685 Y13.514 Z-0.500 I0.209 J0.569 K0.000 F30.000
G2 X7.750 Y13.423 Z-0.500 I-0.504 J0.330 K0.000 F30.000
G2 X7.361 Y14.279 Z-0.500 I0.154 J0.586 K0.000 F30.000
G2 X6.439 Y14.099 Z-0.500 I-0.533 J0.280 K0.000 F30.000
G2 X5.971 Y14.914 Z-0.500 I0.098 J0.598 K0.000 F30.000
G2 X5.070 Y14.648 Z-0.500 I-0.557 J0.228 K0.000 F30.000
G2 X4.526 Y15.414 Z-0.500 I0.040 J0.605 K0.000 F30.000
G2 X3.654 Y15.063 Z-0.500 I-0.577 J0.174 K0.000 F30.000
G2 X3.040 Y15.774 Z-0.500 I-0.017 J0.606 K0.000 F30.000
G2 X2.206 Y15.342 Z-0.500 I-0.590 J0.119 K0.000 F30.000
G2 X1.527 Y15.992 Z-0.500 I-0.075 J0.601 K0.000 F30.000
G2 X0.738 Y15.482 Z-0.500 I-0.599 J0.062 K0.000 F30.000
G2 X0.000 Y16.065 Z-0.500 I-0.132 J0.592 K0.000 F30.000
G2 X-0.738 Y15.482 Z-0.500 I-0.602 J0.005 K0.000 F30.000
G2 X-1.527 Y15.992 Z-0.500 I-0.187 J0.576 K0.000 F30.000
G2 X-2.206 Y15.342 Z-0.500 I-0.600 J-0.053 K0.000 F30.000
G2 X-3.040 Y15.774 Z-0.500 I-0.241 J0.556 K0.000 F30.000
G2 X-3.654 Y15.063 Z-0.500 I-0.592 J-0.109 K0.000 F30.000
G2 X-4.526 Y15.414 Z-0.500 I-0.293 J0.531 K0.000 F30.000
G2 X-5.070 Y14.648 Z-0.500 I-0.579 J-0.165 K0.000 F30.000
G2 X-5.971 Y14.914 Z-0.500 I-0.342 J0.500 K0.000 F30.000
G2 X-6.439 Y14.099 Z-0.500 I-0.561 J-0.219 K0.000 F30.000
G2 X-7.361 Y14.279 Z-0.500 I-0.388 J0.466 K0.000 F30.000
G2 X-7.750 Y13.423 Z-0.500 I-0.537 J-0.272 K0.000 F30.000
G2 X-8.685 Y13.514 Z-0.500 I-0.431 J0.427 K0.000 F30.000
G2 X-8.991 Y12.626 Z-0.500 I-0.509 J-0.322 K0.000 F30.000
G2 X-9.930 Y12.628 Z-0.500 I-0.469 J0.384 K0.000 F30.000
G2 X-10.150 Y11.714 Z-0.500 I-0.476 J-0.369 K0.000 F30.000
G2 X-11.086 Y11.627 Z-0.500 I-0.503 J0.337 K0.000 F30.000
G2 X-11.218 Y10.696 Z-0.500 I-0.439 J-0.412 K0.000 F30.000
G2 X-12.141 Y10.520 Z-0.500 I-0.533 J0.288 K0.000 F30.000
G2 X-12.184 Y9.581 Z-0.500 I-0.398 J-0.452 K0.000 F30.000
G2 X-13.086 Y9.318 Z-0.500 I-0.558 J0.236 K0.000 F30.000
G2 X-13.039 Y8.380 Z-0.500 I-0.353 J-0.488 K0.000 F30.000
G2 X-13.912 Y8.032 Z-0.500 I-0.578 J0.182 K0.000 F30.000
G2 X-13.777 Y7.103 Z-0.500 I-0.305 J-0.519 K0.000 F30.000
G2 X-14.613 Y6.673 Z-0.500 I-0.593 J0.126 K0.000 F30.000
G2 X-14.390 Y5.761 Z-0.500 I-0.254 J-0.546 K0.000 F30.000
G2 X-15.181 Y5.254 Z-0.500 I-0.602 J0.069 K0.000 F30.000
G2 X-14.872 Y4.367 Z-0.500 I-0.201 J-0.568 K0.000 F30.000
G2 X-15.612 Y3.787 Z-0.500 I-0.606 J0.012 K0.000 F30.000
G2 X-15.220 Y2.933 Z-0.500 I-0.147 J-0.584 K0.000 F30.000
G2 X-15.901 Y2.286 Z-0.500 I-0.604 J-0.046 K0.000 F30.000
G2 X-15.430 Y1.473 Z-0.500 I-0.090 J-0.595 K0.000 F30.000
G2 X-16.046 Y0.764 Z-0.500 I-0.597 J-0.103 K0.000 F30.000
G2 X-15.500 Y-0.000 Z-0.500 I-0.033 J-0.601 K0.000 F30.000
G2 X-16.046 Y-0.764 Z-0.500 I-0.585 J-0.160 K0.000 F30.000
G2 X-15.430 Y-1.473 Z-0.500 I0.024 J-0.602 K0.000 F30.000
G2 X-15.901 Y-2.286 Z-0.500 I-0.567 J-0.214 K0.000 F30.000
G2 X-15.220 Y-2.933 Z-0.500 I0.081 J-0.597 K0.000 F30.000
G2 X-15.612 Y-3.787 Z-0.500 I-0.544 J-0.267 K0.000 F30.000
G2 X-14.872 Y-4.367 Z-0.500 I0.137 J-0.586 K0.000 F30.000
G2 X-15.181 Y-5.254 Z-0.500 I-0.516 J-0.318 K0.000 F30.000
G2 X-14.390 Y-5.761 Z-0.500 I0.193 J-0.571 K0.000 F30.000
G2 X-14.613 Y-6.673 Z-0.500 I-0.483 J-0.365 K0.000 F30.000
G2 X-13.777 Y-7.103 Z-0.500 I0.246 J-0.550 K0.000 F30.000
G2 X-13.912 Y-8.032 Z-0.500 I-0.447 J-0.410 K0.000 F30.000
G2 X-13.039 Y-8.380 Z-0.500 I0.297 J-0.524 K0.000 F30.000
G2 X-13.086 Y-9.318 Z-0.500 I-0.406 J-0.450 K0.000 F30.000
G2 X-12.184 Y-9.581 Z-0.500 I0.346 J-0.493 K0.000 F30.000
G2 X-12.141 Y-10.520 Z-0.500 I-0.361 J-0.487 K0.000 F30.000
G2 X-11.218 Y-10.696 Z-0.500 I0.391 J-0.458 K0.000 F30.000
G2 X-11.086 Y-11.627 Z-0.500 I-0.313 J-0.519 K0.000 F30.000
G2 X-10.150 Y-11.714 Z-0.500 I0.433 J-0.419 K0.000 F30.000
G2 X-9.930 Y-12.628 Z-0.500 I-0.262 J-0.546 K0.000 F30.000
G2 X-8.991 Y-12.626 Z-0.500 I0.471 J-0.376 K0.000 F30.000
G2 X-8.685 Y-13.514 Z-0.500 I-0.209 J-0.569 K0.000 F30.000
G2 X-7.750 Y-13.423 Z-0.500 I0.504 J-0.330 K0.000 F30.000
G2 X-7.361 Y-14.279 Z-0.500 I-0.154 J-0.586 K0.000 F30.000
G2 X-6.439 Y-14.099 Z-0.500 I0.533 J-0.280 K0.000 F30.000
G2 X-5.971 Y-14.914 Z-0.500 I-0.098 J-0.598 K0.000 F30.000
G2 X-5.070 Y-14.648 Z-0.500 I0.557 J-0.228 K0.000 F30.000
G2 X-4.526 Y-15.414 Z-0.500 I-0.040 J-0.605 K0.000 F30.000
G2 X-3.654 Y-15.063 Z-0.500 I0.577 J-0.174 K0.000 F30.000
G2 X-3.040 Y-15.774 Z-0.500 I0.017 J-0.606 K0.000 F30.000
G2 X-2.206 Y-15.342 Z-0.500 I0.590 J-0.119 K0.000 F30.000
G2 X-1.527 Y-15.992 Z-0.500 I0.075 J-0.601 K0.000 F30.000
G2 X-0.738 Y-15.482 Z-0.500 I0.599 J-0.062 K0.000 F30.000
G2 X0.000 Y-16.065 Z-0.500 I0.132 J-0.592 K0.000 F30.000
G2 X0.738 Y-15.482 Z-0.500 I0.602 J-0.005 K0.000 F30.000
G2 X1.527 Y-15.992 Z-0.500 I0.187 J-0.576 K0.000 F30.000
G2 X2.206 Y-15.342 Z-0.500 I0.600 J0.053 K0.000 F30.000
G2 X3.040 Y-15.774 Z-0.500 I0.241 J-0.556 K0.000 F30.000
G2 X3.654 Y-15.063 Z-0.500 I0.592 J0.109 K0.000 F30.000
G2 X4.526 Y-15.414 Z-0.500 I0.293 J-0.531 K0.000 F30.000
G2 X5.070 Y-14.648 Z-0.500 I0.579 J0.165 K0.000 F30.000
G2 X5.971 Y-14.914 Z-0.500 I0.342 J-0.500 K0.000 F30.000
G2 X6.439 Y-14.099 Z-0.500 I0.561 J0.219 K0.000 F30.000
G2 X7.361 Y-14.279 Z-0.500 I0.388 J-0.466 K0.000 F30.000
G2 X7.750 Y-13.423 Z-0.500 I0.537 J0.272 K0.000 F30.000
G2 X8.685 Y-13.514 Z-0.500 I0.431 J-0.427 K0.000 F30.000
G2 X8.991 Y-12.626 Z-0.500 I0.509 J0.322 K0.000 F30.000
G2 X9.930 Y-12.628 Z-0.500 I0.469 J-0.384 K0.000 F30.000
G2 X10.150 Y-11.714 Z-0.500 I0.476 J0.369 K0.000 F30.000
G2 X11.086 Y-11.627 Z-0.500 I0.503 J-0.337 K0.000 F30.000
G2 X11.218 Y-10.696 Z-0.500 I0.439 J0.412 K0.000 F30.000
G2 X12.141 Y-10.520 Z-0.500 I0.533 J-0.288 K0.000 F30.000
G2 X12.184 Y-9.581 Z-0.500 I0.398 J0.452 K0.000 F30.000
G2 X13.086 Y-9.318 Z-0.500 I0.558 J-0.236 K0.000 F30.000
G2 X13.039 Y-8.380 Z-0.500 I0.353 J0.488 K0.000 F30.000
G2 X13.912 Y-8.032 Z-0.500 I0.578 J-0.182 K0.000 F30.000
G2 X13.777 Y-7.103 Z-0.500 I0.305 J0.519 K0.000 F30.000
G2 X14.613 Y-6.673 Z-0.500 I0.593 J-0.126 K0.000 F30.000
G2 X14.390 Y-5.761 Z-0.500 I0.254 J0.546 K0.000 F30.000
G2 X15.181 Y-5.254 Z-0.500 I0.602 J-0.069 K0.000 F30.000
G2 X14.872 Y-4.367 Z-0.500 I0.201 J0.568 K0.000 F30.000
G2 X15.612 Y-3.787 Z-0.500 I0.606 J-0.012 K0.000 F30.000
G2 X15.220 Y-2.933 Z-0.500 I0.147 J0.584 K0.000 F30.000
G2 X15.901 Y-2.286 Z-0.500 I0.604 J0.046 K0.000 F30.000
G2 X15.430 Y-1.473 Z-0.500 I0.090 J0.595 K0.000 F30.000
G2 X16.046 Y-0.764 Z-0.500 I0.597 J0.103 K0.000 F30.000
G2 X15.500 Y0.000 Z-0.500 I0.033 J0.601 K0.000 F30.000
G2 X16.046 Y0.764 Z-0.500 I0.585 J0.160 K0.000 F30.000
G2 X15.430 Y1.473 Z-0.500 I-0.024 J0.602 K0.000 F30.000
G2 X15.901 Y2.286 Z-0.500 I0.567 J0.214 K0.000 F30.000
G2 X15.220 Y2.933 Z-0.500 I-0.081 J0.597 K0.000 F30.000
G2 X15.612 Y3.787 Z-0.500 I0.544 J0.267 K0.000 F30.000
G2 X14.872 Y4.367 Z-0.500 I-0.137 J0.586 K0.000 F30.000
G2 X15.181 Y5.254 Z-0.500 I0.516 J0.318 K0.000 F30.000
G2 X14.390 Y5.761 Z-0.500 I-0.193 J0.571 K0.000 F30.000
G2 X14.613 Y6.673 Z-0.500 I0.483 J0.365 K0.000 F30.000
G2 X13.777 Y7.103 Z-0.500 I-0.246 J0.550 K0.000 F30.000
G2 X13.912 Y8.032 Z-0.500 I0.447 J0.410 K0.000 F30.000
G2 X13.039 Y8.380 Z-0.500 I-0.297 J0.524 K0.000 F30.000
G2 X13.086 Y9.318 Z-0.500 I0.406 J0.450 K0.000 F30.000
G2 X12.184 Y9.581 Z-0.500 I-0.346 J0.493 K0.000 F30.000
G2 X12.141 Y10.520 Z-0.500 I0.361 J0.487 K0.000 F30.000
G2 X11.218 Y10.696 Z-0.500 I-0.391 J0.458 K0.000 F30.000
G2 X11.086 Y11.627 Z-0.500 I0.313 J0.519 K0.000 F30.000
G1 X11.086 Y11.627 Z-1.000 F30.000
G2 X10.150 Y11.714 Z-1.000 I-0.433 J0.419 K0.000 F30.000
G2 X9.930 Y12.628 Z-1.000 I0.262 J0.546 K0.000 F30.000
G2 X8.991 Y12.626 Z-1.000 I-0.471 J0.376 K0.000 F30.000
G2 X8.685 Y13.514 Z-1.000 I0.209 J0.569 K0.000 F30.000
G2 X7.750 Y13.423 Z-1.000 I-0.504 J0.330 K0.000 F30.000
G2 X7.361 Y14.279 Z-1.000 I0.154 J0.586 K0.000 F30.000
G2 X6.439 Y14.099 Z-1.000 I-0.533 J0.280 K0.000 F30.000
G2 X5.971 Y14.914 Z-1.000 I0.098 J0.598 K0.000 F30.000
G2 X5.070 Y14.648 Z-1.000 I-0.557 J0.228 K0.000 F30.000
G2 X4.526 Y15.414 Z-1.000 I0.040 J0.605 K0.000 F30.000
G2 X3.654 Y15.063 Z-1.000 I-0.577 J0.174 K0.000 F30.000
G2 X3.040 Y15.774 Z-1.000 I-0.017 J0.606 K0.000 F30.000
G2 X2.206 Y15.342 Z-1.000 I-0.590 J0.119 K0.000 F30.000
G2 X1.527 Y15.992 Z-1.000 I-0.075 J0.601 K0.000 F30.000
G2 X0.738 Y15.482 Z-1.000 I-0.599 J0.062 K0.000 F30.000
G2 X0.000 Y16.065 Z-1.000 I-0.132 J0.592 K0.000 F30.000
G2 X-0.738 Y15.482 Z-1.000 I-0.602 J0.005 K0.000 F30.000
G2 X-1.527 Y15.992 Z-1.000 I-0.187 J0.576 K0.000 F30.000
G2 X-2.206 Y15.342 Z-1.000 I-0.600 J-0.053 K0.000 F30.000
G2 X-3.040 Y15.774 Z-1.000 I-0.241 J0.556 K0.000 F30.000
G2 X-3.654 Y15.063 Z-1.000 I-0.592 J-0.109 K0.000 F30.000
G2 X-4.526 Y15.414 Z-1.000 I-0.293 J0.531 K0.000 F30.000
G2 X-5.070 Y14.648 Z-1.000 I-0.579 J-0.165 K0.000 F30.000
G2 X-5.971 Y14.914 Z-1.000 I-0.342 J0.500 K0.000 F30.000
G2 X-6.439 Y14.099 Z-1.000 I-0.561 J-0.219 K0.000 F30.000
G2 X-7.361 Y14.279 Z-1.000 I-0.388 J0.466 K0.000 F30.000
G2 X-7.750 Y13.423 Z-1.000 I-0.537 J-0.272 K0.000 F30.000
G2 X-8.685 Y13.514 Z-1.000 I-0.431 J0.427 K0.000 F30.000
G2 X-8.991 Y12.626 Z-1.000 I-0.509 J-0.322 K0.000 F30.000
G2 X-9.930 Y12.628 Z-1.000 I-0.469 J0.384 K0.000 F30.000
G2 X-10.150 Y11.714 Z-1.000 I-0.476 J-0.369 K0.000 F30.000
G2 X-11.086 Y11.627 Z-1.000 I-0.503 J0.337 K0.000 F30.000
G2 X-11.218 Y10.696 Z-1.000 I-0.439 J-0.412 K0.000 F30.000
G2 X-12.141 Y10.520 Z-1.000 I-0.533 J0.288 K0.000 F30.000
G2 X-12.184 Y9.581 Z-1.000 I-0.398 J-0.452 K0.000 F30.000
G2 X-13.086 Y9.318 Z-1.000 I-0.558 J0.236 K0.000 F30.000
G2 X-13.039 Y8.380 Z-1.000 I-0.353 J-0.488 K0.000 F30.000
G2 X-13.912 Y8.032 Z-1.000 I-0.578 J0.182 K0.000 F30.000
G2 X-13.777 Y7.103 Z-1.000 I-0.305 J-0.519 K0.000 F30.000
G2 X-14.613 Y6.673 Z-1.000 I-0.593 J0.126 K0.000 F30.000
G2 X-14.390 Y5.761 Z-1.000 I-0.254 J-0.546 K0.000 F30.000
G2 X-15.181 Y5.254 Z-1.000 I-0.602 J0.069 K0.000 F30.000
G2 X-14.872 Y4.367 Z-1.000 I-0.201 J-0.568 K0.000 F30.000
G2 X-15.612 Y3.787 Z-1.000 I-0.606 J0.012 K0.000 F30.000
G2 X-15.220 Y2.933 Z-1.000 I-0.147 J-0.584 K0.000 F30.000
G2 X-15.901 Y2.286 Z-1.000 I-0.604 J-0.046 K0.000 F30.000
G2 X-15.430 Y1.473 Z-1.000 I-0.090 J-0.595 K0.000 F30.000
G2 X-16.046 Y0.764 Z-1.000 I-0.597 J-0.103 K0.000 F30.000
G2 X-15.500 Y-0.000 Z-1.000 I-0.033 J-0.601 K0.000 F30.000
G2 X-16.046 Y-0.764 Z-1.000 I-0.585 J-0.160 K0.000 F30.000
G2 X-15.430 Y-1.473 Z-1.000 I0.024 J-0.602 K0.000 F30.000
G2 X-15.901 Y-2.286 Z-1.000 I-0.567 J-0.214 K0.000 F30.000
G2 X-15.220 Y-2.933 Z-1.000 I0.081 J-0.597 K0.000 F30.000
G2 X-15.612 Y-3.787 Z-1.000 I-0.544 J-0.267 K0.000 F30.000
G2 X-14.872 Y-4.367 Z-1.000 I0.137 J-0.586 K0.000 F30.000
G2 X-15.181 Y-5.254 Z-1.000 I-0.516 J-0.318 K0.000 F30.000
G2 X-14.390 Y-5.761 Z-1.000 I0.193 J-0.571 K0.000 F30.000
G2 X-14.613 Y-6.673 Z-1.000 I-0.483 J-0.365 K0.000 F30.000
G2 X-13.777 Y-7.103 Z-1.000 I0.246 J-0.550 K0.000 F30.000
G2 X-13.912 Y-8.032 Z-1.000 I-0.447 J-0.410 K0.000 F30.000
G2 X-13.039 Y-8.380 Z-1.000 I0.297 J-0.524 K0.000 F30.000
G2 X-13.086 Y-9.318 Z-1.000 I-0.406 J-0.450 K0.000 F30.000
G2 X-12.184 Y-9.581 Z-1.000 I0.346 J-0.493 K0.000 F30.000
G2 X-12.141 Y-10.520 Z-1.000 I-0.361 J-0.487 K0.000 F30.000
G2 X-11.218 Y-10.696 Z-1.000 I0.391 J-0.458 K0.000 F30.000
G2 X-11.086 Y-11.627 Z-1.000 I-0.313 J-0.519 K0.000 F30.000
G2 X-10.150 Y-11.714 Z-1.000 I0.433 J-0.419 K0.000 F30.000
G2 X-9.930 Y-12.628 Z-1.000 I-0.262 J-0.546 K0.000 F30.000
G2 X-8.991 Y-12.626 Z-1.000 I0.471 J-0.376 K0.000 F30.000
G2 X-8.685 Y-13.514 Z-1.000 I-0.209 J-0.569 K0.000 F30.000
G2 X-7.750 Y-13.423 Z-1.000 I0.504 J-0.330 K0.000 F30.000
G2 X-7.361 Y-14.279 Z-1.000 I-0.154 J-0.586 K0.000 F30.000
G2 X-6.439 Y-14.099 Z-1.000 I0.533 J-0.280 K0.000 F30.000
G2 X-5.971 Y-14.914 Z-1.000 I-0.098 J-0.598 K0.000 F30.000
G2 X-5.070 Y-14.648 Z-1.000 I0.557 J-0.228 K0.000 F30.000
G2 X-4.526 Y-15.414 Z-1.000 I-0.040 J-0.605 K0.000 F30.000
G2 X-3.654 Y-15.063 Z-1.000 I0.577 J-0.174 K0.000 F30.000
G2 X-3.040 Y-15.774 Z-1.000 I0.017 J-0.606 K0.000 F30.000
G2 X-2.206 Y-15.342 Z-1.000 I0.590 J-0.119 K0.000 F30.000
G2 X-1.527 Y-15.992 Z-1.000 I0.075 J-0.601 K0.000 F30.000
G2 X-0.738 Y-15.482 Z-1.000 I0.599 J-0.062 K0.000 F30.000
G2 X0.000 Y-16.065 Z-1.000 I0.132 J-0.592 K0.000 F30.000
G2 X0.738 Y-15.482 Z-1.000 I0.602 J-0.005 K0.000 F30.000
G2 X1.527 Y-15.992 Z-1.000 I0.187 J-0.576 K0.000 F30.000
G2 X2.206 Y-15.342 Z-1.000 I0.600 J0.053 K0.000 F30.000
G2 X3.040 Y-15.774 Z-1.000 I0.241 J-0.556 K0.000 F30.000
G2 X3.654 Y-15.063 Z-1.000 I0.592 J0.109 K0.000 F30.000
G2 X4.526 Y-15.414 Z-1.000 I0.293 J-0.531 K0.000 F30.000
G2 X5.070 Y-14.648 Z-1.000 I0.579 J0.165 K0.000 F30.000
G2 X5.971 Y-14.914 Z-1.000 I0.342 J-0.500 K0.000 F30.000
G2 X6.439 Y-14.099 Z-1.000 I0.561 J0.219 K0.000 F30.000
G2 X7.361 Y-14.279 Z-1.000 I0.388 J-0.466 K0.000 F30.000
G2 X7.750 Y-13.423 Z-1.000 I0.537 J0.272 K0.000 F30.000
G2 X8.685 Y-13.514 Z-1.000 I0.431 J-0.427 K0.000 F30.000
G2 X8.991 Y-12.626 Z-1.000 I0.509 J0.322 K0.000 F30.000
G2 X9.930 Y-12.628 Z-1.000 I0.469 J-0.384 K0.000 F30.000
G2 X10.150 Y-11.714 Z-1.000 I0.476 J0.369 K0.000 F30.000
G2 X11.086 Y-11.627 Z-1.000 I0.503 J-0.337 K0.000 F30.000
G2 X11.218 Y-10.696 Z-1.000 I0.439 J0.412 K0.000 F30.000
G2 X12.141 Y-10.520 Z-1.000 I0.533 J-0.288 K0.000 F30.000
G2 X12.184 Y-9.581 Z-1.000 I0.398 J0.452 K0.000 F30.000
G2 X13.086 Y-9.318 Z-1.000 I0.558 J-0.236 K0.000 F30.000
G2 X13.039 Y-8.380 Z-1.000 I0.353 J0.488 K0.000 F30.000
G2 X13.912 Y-8.032 Z-1.000 I0.578 J-0.182 K0.000 F30.000
G2 X13.777 Y-7.103 Z-1.000 I0.305 J0.519 K0.000 F30.000
G2 X14.613 Y-6.673 Z-1.000 I0.593 J-0.126 K0.000 F30.000
G2 X14.390 Y-5.761 Z-1.000 I0.254 J0.546 K0.000 F30.000
G2 X15.181 Y-5.254 Z-1.000 I0.602 J-0.069 K0.000 F30.000
G2 X14.872 Y-4.367 Z-1.000 I0.201 J0.568 K0.000 F30.000
G2 X15.612 Y-3.787 Z-1.000 I0.606 J-0.012 K0.000 F30.000
G2 X15.220 Y-2.933 Z-1.000 I0.147 J0.584 K0.000 F30.000
G2 X15.901 Y-2.286 Z-1.000 I0.604 J0.046 K0.000 F30.000
G2 X15.430 Y-1.473 Z-1.000 I0.090 J0.595 K0.000 F30.000
G2 X16.046 Y-0.764 Z-1.000 I0.597 J0.103 K0.000 F30.000
G2 X15.500 Y0.000 Z-1.000 I0.033 J0.601 K0.000 F30.000
G2 X16.046 Y0.764 Z-1.000 I0.585 J0.160 K0.000 F30.000
G2 X15.430 Y1.473 Z-1.000 I-0.024 J0.602 K0.000 F30.000
G2 X15.901 Y2.286 Z-1.000 I0.567 J0.214 K0.000 F30.000
G2 X15.220 Y2.933 Z-1.000 I-0.081 J0.597 K0.000 F30.000
G2 X15.612 Y3.787 Z-1.000 I0.544 J0.267 K0.000 F30.000
G2 X14.872 Y4.367 Z-1.000 I-0.137 J0.586 K0.000 F30.000
G2 X15.181 Y5.254 Z-1.000 I0.516 J0.318 K0.000 F30.000
G2 X14.390 Y5.761 Z-1.000 I-0.193 J0.571 K0.000 F30.000
G2 X14.613 Y6.673 Z-1.000 I0.483 J0.365 K0.000 F30.000
G2 X13.777 Y7.103 Z-1.000 I-0.246 J0.550 K0.000 F30.000
G2 X13.912 Y8.032 Z-1.000 I0.447 J0.410 K0.000 F30.000
G2 X13.039 Y8.380 Z-1.000 I-0.297 J0.524 K0.000 F30.000
G2 X13.086 Y9.318 Z-1.000 I0.406 J0.450 K0.000 F30.000
G2 X12.184 Y9.581 Z-1.000 I-0.346 J0.493 K0.000 F30.000
G2 X12.141 Y10.520 Z-1.000 I0.361 J0.487 K0.000 F30.000
G2 X11.218 Y10.696 Z-1.000 I-0.391 J0.458 K0.000 F30.000
G2 X11.086 Y11.627 Z-1.000 I0.313 J0.519 K0.000 F30.000
G1 X11.086 Y11.627 Z-1.500 F30.000
G2 X10.150 Y11.714 Z-1.500 I-0.433 J0.419 K0.000 F30.000
G2 X9.930 Y12.628 Z-1.500 I0.262 J0.546 K0.000 F30.000
G2 X8.991 Y12.626 Z-1.500 I-0.471 J0.376 K0.000 F30.000
G2 X8.685 Y13.514 Z-1.500 I0.209 J0.569 K0.000 F30.000
G2 X7.750 Y13.423 Z-1.500 I-0.504 J0.330 K0.000 F30.000
G2 X7.361 Y14.279 Z-1.500 I0.154 J0.586 K0.000 F30.000
G2 X6.439 Y14.099 Z-1.500 I-0.533 J0.280 K0.000 F30.000
G2 X5.971 Y14.914 Z-1.500 I0.098 J0.598 K0.000 F30.000
G2 X5.070 Y14.648 Z-1.500 I-0.557 J0.228 K0.000 F30.000
G2 X4.526 Y15.414 Z-1.500 I0.040 J0.605 K0.000 F30.000
G2 X3.654 Y15.063 Z-1.500 I-0.577 J0.174 K0.000 F30.000
G2 X3.040 Y15.774 Z-1.500 I-0.017 J0.606 K0.000 F30.000
G2 X2.206 Y15.342 Z-1.500 I-0.590 J0.119 K0.000 F30.000
G2 X1.527 Y15.992 Z-1.500 I-0.075 J0.601 K0.000 F30.000
G2 X0.738 Y15.482 Z-1.500 I-0.599 J0.062 K0.000 F30.000
G2 X0.000 Y16.065 Z-1.500 I-0.132 J0.592 K0.000 F30.000
G2 X-0.738 Y15.482 Z-1.500 I-0.602 J0.005 K0.000 F30.000
G2 X-1.527 Y15.992 Z-1.500 I-0.187 J0.576 K0.000 F30.000
G2 X-2.206 Y15.342 Z-1.500 I-0.600 J-0.053 K0.000 F30.000
G2 X-3.040 Y15.774 Z-1.500 I-0.241 J0.556 K0.000 F30.000
G2 X-3.654 Y15.063 Z-1.500 I-0.592 J-0.109 K0.000 F30.000
G2 X-4.526 Y15.414 Z-1.500 I-0.293 J0.531 K0.000 F30.000
G2 X-5.070 Y14.648 Z-1.500 I-0.579 J-0.165 K0.000 F30.000
G2 X-5.971 Y14.914 Z-1.500 I-0.342 J0.500 K0.000 F30.000
G2 X-6.439 Y14.099 Z-1.500 I-0.561 J-0.219 K0.000 F30.000
G2 X-7.361 Y14.279 Z-1.500 I-0.388 J0.466 K0.000 F30.000
G2 X-7.750 Y13.423 Z-1.500 I-0.537 J-0.272 K0.000 F30.000
G2 X-8.685 Y13.514 Z-1.500 I-0.431 J0.427 K0.000 F30.000
G2 X-8.991 Y12.626 Z-1.500 I-0.509 J-0.322 K0.000 F30.000
G2 X-9.930 Y12.628 Z-1.500 I-0.469 J0.384 K0.000 F30.000
G2 X-10.150 Y11.714 Z-1.500 I-0.476 J-0.369 K0.000 F30.000
G2 X-11.086 Y11.627 Z-1.500 I-0.503 J0.337 K0.000 F30.000
G2 X-11.218 Y10.696 Z-1.500 I-0.439 J-0.412 K0.000 F30.000
G2 X-12.141 Y10.520 Z-1.500 I-0.533 J0.288 K0.000 F30.000
G2 X-12.184 Y9.581 Z-1.500 I-0.398 J-0.452 K0.000 F30.000
G2 X-13.086 Y9.318 Z-1.500 I-0.558 J0.236 K0.000 F30.000
G2 X-13.039 Y8.380 Z-1.500 I-0.353 J-0.488 K0.000 F30.000
G2 X-13.912 Y8.032 Z-1.500 I-0.578 J0.182 K0.000 F30.000
G2 X-13.777 Y7.103 Z-1.500 I-0.305 J-0.519 K0.000 F30.000
G2 X-14.613 Y6.673 Z-1.500 I-0.593 J0.126 K0.000 F30.000
G2 X-14.390 Y5.761 Z-1.500 I-0.254 J-0.546 K0.000 F30.000
G2 X-15.181 Y5.254 Z-1.500 I-0.602 J0.069 K0.000 F30.000
G2 X-14.872 Y4.367 Z-1.500 I-0.201 J-0.568 K0.000 F30.000
G2 X-15.612 Y3.787 Z-1.500 I-0.606 J0.012 K0.000 F30.000
G2 X-15.220 Y2.933 Z-1.500 I-0.147 J-0.584 K0.000 F30.000
G2 X-15.901 Y2.286 Z-1.500 I-0.604 J-0.046 K0.000 F30.000
G2 X-15.430 Y1.473 Z-1.500 I-0.090 J-0.595 K0.000 F30.000
G2 X-16.046 Y0.764 Z-1.500 I-0.597 J-0.103 K0.000 F30.000
G2 X-15.500 Y-0.000 Z-1.500 I-0.033 J-0.601 K0.000 F30.000
G2 X-16.046 Y-0.764 Z-1.500 I-0.585 J-0.160 K0.000 F30.000
G2 X-15.430 Y-1.473 Z-1.500 I0.024 J-0.602 K0.000 F30.000
G2 X-15.901 Y-2.286 Z-1.500 I-0.567 J-0.214 K0.000 F30.000
G2 X-15.220 Y-2.933 Z-1.500 I0.081 J-0.597 K0.000 F30.000
G2 X-15.612 Y-3.787 Z-1.500 I-0.544 J-0.267 K0.000 F30.000
G2 X-14.872 Y-4.367 Z-1.500 I0.137 J-0.586 K0.000 F30.000
G2 X-15.181 Y-5.254 Z-1.500 I-0.516 J-0.318 K0.000 F30.000
G2 X-14.390 Y-5.761 Z-1.500 I0.193 J-0.571 K0.000 F30.000
G2 X-14.613 Y-6.673 Z-1.500 I-0.483 J-0.365 K0.000 F30.000
G2 X-13.777 Y-7.103 Z-1.500 I0.246 J-0.550 K0.000 F30.000
G2 X-13.912 Y-8.032 Z-1.500 I-0.447 J-0.410 K0.000 F30.000
G2 X-13.039 Y-8.380 Z-1.500 I0.297 J-0.524 K0.000 F30.000
G2 X-13.086 Y-9.318 Z-1.500 I-0.406 J-0.450 K0.000 F30.000
G2 X-12.184 Y-9.581 Z-1.500 I0.346 J-0.493 K0.000 F30.000
G2 X-12.141 Y-10.520 Z-1.500 I-0.361 J-0.487 K0.000 F30.000
G2 X-11.218 Y-10.696 Z-1.500 I0.391 J-0.458 K0.000 F30.000
G2 X-11.086 Y-11.627 Z-1.500 I-0.313 J-0.519 K0.000 F30.000
G2 X-10.150 Y-11.714 Z-1.500 I0.433 J-0.419 K0.000 F30.000
G2 X-9.930 Y-12.628 Z-1.500 I-0.262 J-0.546 K0.000 F30.000
G2 X-8.991 Y-12.626 Z-1.500 I0.471 J-0.376 K0.000 F30.000
G2 X-8.685 Y-13.514 Z-1.500 I-0.209 J-0.569 K0.000 F30.000
G2 X-7.750 Y-13.423 Z-1.500 I0.504 J-0.330 K0.000 F30.000
G2 X-7.361 Y-14.279 Z-1.500 I-0.154 J-0.586 K0.000 F30.000
G2 X-6.439 Y-14.099 Z-1.500 I0.533 J-0.280 K0.000 F30.000
G2 X-5.971 Y-14.914 Z-1.500 I-0.098 J-0.598 K0.000 F30.000
G2 X-5.070 Y-14.648 Z-1.500 I0.557 J-0.228 K0.000 F30.000
G2 X-4.526 Y-15.414 Z-1.500 I-0.040 J-0.605 K0.000 F30.000
G2 X-3.654 Y-15.063 Z-1.500 I0.577 J-0.174 K0.000 F30.000
G2 X-3.040 Y-15.774 Z-1.500 I0.017 J-0.606 K0.000 F30.000
G2 X-2.206 Y-15.342 Z-1.500 I0.590 J-0.119 K0.000 F30.000
G2 X-1.527 Y-15.992 Z-1.500 I0.075 J-0.601 K0.000 F30.000
G2 X-0.738 Y-15.482 Z-1.500 I0.599 J-0.062 K0.000 F30.000
G2 X0.000 Y-16.065 Z-1.500 I0.132 J-0.592 K0.000 F30.000
G2 X0.738 Y-15.482 Z-1.500 I0.602 J-0.005 K0.000 F30.000
G2 X1.527 Y-15.992 Z-1.500 I0.187 J-0.576 K0.000 F30.000
G2 X2.206 Y-15.342 Z-1.500 I0.600 J0.053 K0.000 F30.000
G2 X3.040 Y-15.774 Z-1.500 I0.241 J-0.556 K0.000 F30.000
G2 X3.654 Y-15.063 Z-1.500 I0.592 J0.109 K0.000 F30.000
G2 X4.526 Y-15.414 Z-1.500 I0.293 J-0.531 K0.000 F30.000
G2 X5.070 Y-14.648 Z-1.500 I0.579 J0.165 K0.000 F30.000
G2 X5.971 Y-14.914 Z-1.500 I0.342 J-0.500 K0.000 F30.000
G2 X6.439 Y-14.099 Z-1.500 I0.561 J0.219 K0.000 F30.000
G2 X7.361 Y-14.279 Z-1.500 I0.388 J-0.466 K0.000 F30.000
G2 X7.750 Y-13.423 Z-1.500 I0.537 J0.272 K0.000 F30.000
G2 X8.685 Y-13.514 Z-1.500 I0.431 J-0.427 K0.000 F30.000
G2 X8.991 Y-12.626 Z-1.500 I0.509 J0.322 K0.000 F30.000
G2 X9.930 Y-12.628 Z-1.500 I0.469 J-0.384 K0.000 F30.000
G2 X10.150 Y-11.714 Z-1.500 I0.476 J0.369 K0.000 F30.000
G2 X11.086 Y-11.627 Z-1.500 I0.503 J-0.337 K0.000 F30.000
G2 X11.218 Y-10.696 Z-1.500 I0.439 J0.412 K0.000 F30.000
G2 X12.141 Y-10.520 Z-1.500 I0.533 J-0.288 K0.000 F30.000
G2 X12.184 Y-9.581 Z-1.500 I0.398 J0.452 K0.000 F30.000
G2 X13.086 Y-9.318 Z-1.500 I0.558 J-0.236 K0.000 F30.000
G2 X13.039 Y-8.380 Z-1.500 I0.353 J0.488 K0.000 F30.000
G2 X13.912 Y-8.032 Z-1.500 I0.578 J-0.182 K0.000 F30.000
G2 X13.777 Y-7.103 Z-1.500 I0.305 J0.519 K0.000 F30.000
G2 X14.613 Y-6.673 Z-1.500 I0.593 J-0.126 K0.000 F30.000
G2 X14.390 Y-5.761 Z-1.500 I0.254 J0.546 K0.000 F30.000
G2 X15.181 Y-5.254 Z-1.500 I0.602 J-0.069 K0.000 F30.000
G2 X14.872 Y-4.367 Z-1.500 I0.201 J0.568 K0.000 F30.000
G2 X15.612 Y-3.787 Z-1.500 I0.606 J-0.012 K0.000 F30.000
G2 X15.220 Y-2.933 Z-1.500 I0.147 J0.584 K0.000 F30.000
G2 X15.901 Y-2.286 Z-1.500 I0.604 J0.046 K0.000 F30.000
G2 X15.430 Y-1.473 Z-1.500 I0.090 J0.595 K0.000 F30.000
G2 X16.046 Y-0.764 Z-1.500 I0.597 J0.103 K0.000 F30.000
G2 X15.500 Y0.000 Z-1.500 I0.033 J0.601 K0.000 F30.000
G2 X16.046 Y0.764 Z-1.500 I0.585 J0.160 K0.000 F30.000
G2 X15.430 Y1.473 Z-1.500 I-0.024 J0.602 K0.000 F30.000
G2 X15.901 Y2.286 Z-1.500 I0.567 J0.214 K0.000 F30.000
G2 X15.220 Y2.933 Z-1.500 I-0.081 J0.597 K0.000 F30.000
G2 X15.612 Y3.787 Z-1.500 I0.544 J0.267 K0.000 F30.000
G2 X14.872 Y4.367 Z-1.500 I-0.137 J0.586 K0.000 F30.000
G2 X15.181 Y5.254 Z-1.500 I0.516 J0.318 K0.000 F30.000
G2 X14.390 Y5.761 Z-1.500 I-0.193 J0.571 K0.000 F30.000
G2 X14.613 Y6.673 Z-1.500 I0.483 J0.365 K0.000 F30.000
G2 X13.777 Y7.103 Z-1.500 I-0.246 J0.550 K0.000 F30.000
G2 X13.912 Y8.032 Z-1.500 I0.447 J0.410 K0.000 F30.000
G2 X13.039 Y8.380 Z-1.500 I-0.297 J0.524 K0.000 F30.000
G2 X13.086 Y9.318 Z-1.500 I0.406 J0.450 K0.000 F30.000
G2 X12.184 Y9.581 Z-1.500 I-0.346 J0.493 K0.000 F30.000
G2 X12.141 Y10.520 Z-1.500 I0.361 J0.487 K0.000 F30.000
G2 X11.218 Y10.696 Z-1.500 I-0.391 J0.458 K0.000 F30.000
G2 X11.086 Y11.627 Z-1.500 I0.313 J0.519 K0.000 F30.000
G1 X11.086 Y11.627 Z-2.000 F30.000
G2 X10.150 Y11.714 Z-2.000 I-0.433 J0.419 K0.000 F30.000
G2 X9.930 Y12.628 Z-2.000 I0.262 J0.546 K0.000 F30.000
G2 X8.991 Y12.626 Z-2.000 I-0.471 J0.376 K0.000 F30.000
G2 X8.685 Y13.514 Z-2.000 I0.209 J0.569 K0.000 F30.000
G2 X7.750 Y13.423 Z-2.000 I-0.504 J0.330 K0.000 F30.000
G2 X7.361 Y14.279 Z-2.000 I0.154 J0.586 K0.000 F30.000
G2 X6.439 Y14.099 Z-2.000 I-0.533 J0.280 K0.000 F30.000
G2 X5.971 Y14.914 Z-2.000 I0.098 J0.598 K0.000 F30.000
G2 X5.070 Y14.648 Z-2.000 I-0.557 J0.228 K0.000 F30.000
G2 X4.526 Y15.414 Z-2.000 I0.040 J0.605 K0.000 F30.000
G2 X3.654 Y15.063 Z-2.000 I-0.577 J0.174 K0.000 F30.000
G2 X3.040 Y15.774 Z-2.000 I-0.017 J0.606 K0.000 F30.000
G2 X2.206 Y15.342 Z-2.000 I-0.590 J0.119 K0.000 F30.000
G2 X1.527 Y15.992 Z-2.000 I-0.075 J0.601 K0.000 F30.000
G2 X0.738 Y15.482 Z-2.000 I-0.599 J0.062 K0.000 F30.000
G2 X0.000 Y16.065 Z-2.000 I-0.132 J0.592 K0.000 F30.000
G2 X-0.738 Y15.482 Z-2.000 I-0.602 J0.005 K0.000 F30.000
G2 X-1.527 Y15.992 Z-2.000 I-0.187 J0.576 K0.000 F30.000
G2 X-2.206 Y15.342 Z-2.000 I-0.600 J-0.053 K0.000 F30.000
G2 X-3.040 Y15.774 Z-2.000 I-0.241 J0.556 K0.000 F30.000
G2 X-3.654 Y15.063 Z-2.000 I-0.592 J-0.109 K0.000 F30.000
G2 X-4.526 Y15.414 Z-2.000 I-0.293 J0.531 K0.000 F30.000
G2 X-5.070 Y14.648 Z-2.000 I-0.579 J-0.165 K0.000 F30.000
G2 X-5.971 Y14.914 Z-2.000 I-0.342 J0.500 K0.000 F30.000
G2 X-6.439 Y14.099 Z-2.000 I-0.561 J-0.219 K0.000 F30.000
G2 X-7.361 Y14.279 Z-2.000 I-0.388 J0.466 K0.000 F30.000
G2 X-7.750 Y13.423 Z-2.000 I-0.537 J-0.272 K0.000 F30.000
G2 X-8.685 Y13.514 Z-2.000 I-0.431 J0.427 K0.000 F30.000
G2 X-8.991 Y12.626 Z-2.000 I-0.509 J-0.322 K0.000 F30.000
G2 X-9.930 Y12.628 Z-2.000 I-0.469 J0.384 K0.000 F30.000
G2 X-10.150 Y11.714 Z-2.000 I-0.476 J-0.369 K0.000 F30.000
G2 X-11.086 Y11.627 Z-2.000 I-0.503 J0.337 K0.000 F30.000
G2 X-11.218 Y10.696 Z-2.000 I-0.439 J-0.412 K0.000 F30.000
G2 X-12.141 Y10.520 Z-2.000 I-0.533 J0.288 K0.000 F30.000
G2 X-12.184 Y9.581 Z-2.000 I-0.398 J-0.452 K0.000 F30.000
G2 X-13.086 Y9.318 Z-2.000 I-0.558 J0.236 K0.000 F30.000
G2 X-13.039 Y8.380 Z-2.000 I-0.353 J-0.488 K0.000 F30.000
G2 X-13.912 Y8.032 Z-2.000 I-0.578 J0.182 K0.000 F30.000
G2 X-13.777 Y7.103 Z-2.000 I-0.305 J-0.519 K0.000 F30.000
G2 X-14.613 Y6.673 Z-2.000 I-0.593 J0.126 K0.000 F30.000
G2 X-14.390 Y5.761 Z-2.000 I-0.254 J-0.546 K0.000 F30.000
G2 X-15.181 Y5.254 Z-2.000 I-0.602 J0.069 K0.000 F30.000
G2 X-14.872 Y4.367 Z-2.000 I-0.201 J-0.568 K0.000 F30.000
G2 X-15.612 Y3.787 Z-2.000 I-0.606 J0.012 K0.000 F30.000
G2 X-15.220 Y2.933 Z-2.000 I-0.147 J-0.584 K0.000 F30.000
G2 X-15.901 Y2.286 Z-2.000 I-0.604 J-0.046 K0.000 F30.000
G2 X-15.430 Y1.473 Z-2.000 I-0.090 J-0.595 K0.000 F30.000
G2 X-16.046 Y0.764 Z-2.000 I-0.597 J-0.103 K0.000 F30.000
G2 X-15.500 Y-0.000 Z-2.000 I-0.033 J-0.601 K0.000 F30.000
G2 X-16.046 Y-0.764 Z-2.000 I-0.585 J-0.160 K0.000 F30.000
G2 X-15.430 Y-1.473 Z-2.000 I0.024 J-0.602 K0.000 F30.000
G2 X-15.901 Y-2.286 Z-2.000 I-0.567 J-0.214 K0.000 F30.000
G2 X-15.220 Y-2.933 Z-2.000 I0.081 J-0.597 K0.000 F30.000
G2 X-15.612 Y-3.787 Z-2.000 I-0.544 J-0.267 K0.000 F30.000
G2 X-14.872 Y-4.367 Z-2.000 I0.137 J-0.586 K0.000 F30.000
G2 X-15.181 Y-5.254 Z-2.000 I-0.516 J-0.318 K0.000 F30.000
G2 X-14.390 Y-5.761 Z-2.000 I0.193 J-0.571 K0.000 F30.000
G2 X-14.613 Y-6.673 Z-2.000 I-0.483 J-0.365 K0.000 F30.000
G2 X-13.777 Y-7.103 Z-2.000 I0.246 J-0.550 K0.000 F30.000
G2 X-13.912 Y-8.032 Z-2.000 I-0.447 J-0.410 K0.000 F30.000
G2 X-13.039 Y-8.380 Z-2.000 I0.297 J-0.524 K0.000 F30.000
G2 X-13.086 Y-9.318 Z-2.000 I-0.406 J-0.450 K0.000 F30.000
G2 X-12.184 Y-9.581 Z-2.000 I0.346 J-0.493 K0.000 F30.000
G2 X-12.141 Y-10.520 Z-2.000 I-0.361 J-0.487 K0.000 F30.000
G2 X-11.218 Y-10.696 Z-2.000 I0.391 J-0.458 K0.000 F30.000
G2 X-11.086 Y-11.627 Z-2.000 I-0.313 J-0.519 K0.000 F30.000
G2 X-10.150 Y-11.714 Z-2.000 I0.433 J-0.419 K0.000 F30.000
G2 X-9.930 Y-12.628 Z-2.000 I-0.262 J-0.546 K0.000 F30.000
G2 X-8.991 Y-12.626 Z-2.000 I0.471 J-0.376 K0.000 F30.000
G2 X-8.685 Y-13.514 Z-2.000 I-0.209 J-0.569 K0.000 F30.000
G2 X-7.750 Y-13.423 Z-2.000 I0.504 J-0.330 K0.000 F30.000
G2 X-7.361 Y-14.279 Z-2.000 I-0.154 J-0.586 K0.000 F30.000
G2 X-6.439 Y-14.099 Z-2.000 I0.533 J-0.280 K0.000 F30.000
G2 X-5.971 Y-14.914 Z-2.000 I-0.098 J-0.598 K0.000 F30.000
G2 X-5.070 Y-14.648 Z-2.000 I0.557 J-0.228 K0.000 F30.000
G2 X-4.526 Y-15.414 Z-2.000 I-0.040 J-0.605 K0.000 F30.000
G2 X-3.654 Y-15.063 Z-2.000 I0.577 J-0.174 K0.000 F30.000
G2 X-3.040 Y-15.774 Z-2.000 I0.017 J-0.606 K0.000 F30.000
G2 X-2.206 Y-15.342 Z-2.000 I0.590 J-0.119 K0.000 F30.000
G2 X-1.527 Y-15.992 Z-2.000 I0.075 J-0.601 K0.000 F30.000
G2 X-0.738 Y-15.482 Z-2.000 I0.599 J-0.062 K0.000 F30.000
G2 X0.000 Y-16.065 Z-2.000 I0.132 J-0.592 K0.000 F30.000
G2 X0.738 Y-15.482 Z-2.000 I0.602 J-0.005 K0.000 F30.000
G2 X1.527 Y-15.992 Z-2.000 I0.187 J-0.576 K0.000 F30.000
G2 X2.206 Y-15.342 Z-2.000 I0.600 J0.053 K0.000 F30.000
G2 X3.040 Y-15.774 Z-2.000 I0.241 J-0.556 K0.000 F30.000
G2 X3.654 Y-15.063 Z-2.000 I0.592 J0.109 K0.000 F30.000
G2 X4.526 Y-15.414 Z-2.000 I0.293 J-0.531 K0.000 F30.000
G2 X5.070 Y-14.648 Z-2.000 I0.579 J0.165 K0.000 F30.000
G2 X5.971 Y-14.914 Z-2.000 I0.342 J-0.500 K0.000 F30.000
G2 X6.439 Y-14.099 Z-2.000 I0.561 J0.219 K0.000 F30.000
G2 X7.361 Y-14.279 Z-2.000 I0.388 J-0.466 K0.000 F30.000
G2 X7.750 Y-13.423 Z-2.000 I0.537 J0.272 K0.000 F30.000
G2 X8.685 Y-13.514 Z-2.000 I0.431 J-0.427 K0.000 F30.000
G2 X8.991 Y-12.626 Z-2.000 I0.509 J0.322 K0.000 F30.000
G2 X9.930 Y-12.628 Z-2.000 I0.469 J-0.384 K0.000 F30.000
G2 X10.150 Y-11.714 Z-2.000 I0.476 J0.369 K0.000 F30.000
G2 X11.086 Y-11.627 Z-2.000 I0.503 J-0.337 K0.000 F30.000
G2 X11.218 Y-10.696 Z-2.000 I0.439 J0.412 K0.000 F30.000
G2 X12.141 Y-10.520 Z-2.000 I0.533 J-0.288 K0.000 F30.000
G2 X12.184 Y-9.581 Z-2.000 I0.398 J0.452 K0.000 F30.000
G2 X13.086 Y-9.318 Z-2.000 I0.558 J-0.236 K0.000 F30.000
G2 X13.039 Y-8.380 Z-2.000 I0.353 J0.488 K0.000 F30.000
G2 X13.912 Y-8.032 Z-2.000 I0.578 J-0.182 K0.000 F30.000
G2 X13.777 Y-7.103 Z-2.000 I0.305 J0.519 K0.000 F30.000
G2 X14.613 Y-6.673 Z-2.000 I0.593 J-0.126 K0.000 F30.000
G2 X14.390 Y-5.761 Z-2.000 I0.254 J0.546 K0.000 F30.000
G2 X15.181 Y-5.254 Z-2.000 I0.602 J-0.069 K0.000 F30.000
G2 X14.872 Y-4.367 Z-2.000 I0.201 J0.568 K0.000 F30.000
G2 X15.612 Y-3.787 Z-2.000 I0.606 J-0.012 K0.000 F30.000
G2 X15.220 Y-2.933 Z-2.000 I0.147 J0.584 K0.000 F30.000
G2 X15.901 Y-2.286 Z-2.000 I0.604 J0.046 K0.000 F30.000
G2 X15.430 Y-1.473 Z-2.000 I0.090 J0.595 K0.000 F30.000
G2 X16.046 Y-0.764 Z-2.000 I0.597 J0.103 K0.000 F30.000
G2 X15.500 Y0.000 Z-2.000 I0.033 J0.601 K0.000 F30.000
G2 X16.046 Y0.764 Z-2.000 I0.585 J0.160 K0.000 F30.000
G2 X15.430 Y1.473 Z-2.000 I-0.024 J0.602 K0.000 F30.000
G2 X15.901 Y2.286 Z-2.000 I0.567 J0.214 K0.000 F30.000
G2 X15.220 Y2.933 Z-2.000 I-0.081 J0.597 K0.000 F30.000
G2 X15.612 Y3.787 Z-2.000 I0.544 J0.267 K0.000 F30.000
G2 X14.872 Y4.367 Z-2.000 I-0.137 J0.586 K0.000 F30.000
G2 X15.181 Y5.254 Z-2.000 I0.516 J0.318 K0.000 F30.000
G2 X14.390 Y5.761 Z-2.000 I-0.193 J0.571 K0.000 F30.000
G2 X14.613 Y6.673 Z-2.000 I0.483 J0.365 K0.000 F30.000
G2 X13.777 Y7.103 Z-2.000 I-0.246 J0.550 K0.000 F30.000
G2 X13.912 Y8.032 Z-2.000 I0.447 J0.410 K0.000 F30.000
G2 X13.039 Y8.380 Z-2.000 I-0.297 J0.524 K0.000 F30.000
G2 X13.086 Y9.318 Z-2.000 I0.406 J0.450 K0.000 F30.000
G2 X12.184 Y9.581 Z-2.000 I-0.346 J0.493 K0.000 F30.000
G2 X12.141 Y10.520 Z-2.000 I0.361 J0.487 K0.000 F30.000
G2 X11.218 Y10.696 Z-2.000 I-0.391 J0.458 K0.000 F30.000
G2 X11.086 Y11.627 Z-2.000 I0.313 J0.519 K0.000 F30.000
G1 X11.086 Y11.627 Z-2.500 F30.000
G2 X10.150 Y11.714 Z-2.500 I-0.433 J0.419 K0.000 F30.000
G2 X9.930 Y12.628 Z-2.500 I0.262 J0.546 K0.000 F30.000
G2 X8.991 Y12.626 Z-2.500 I-0.471 J0.376 K0.000 F30.000
G2 X8.685 Y13.514 Z-2.500 I0.209 J0.569 K0.000 F30.000
G2 X7.750 Y13.423 Z-2.500 I-0.504 J0.330 K0.000 F30.000
G2 X7.361 Y14.279 Z-2.500 I0.154 J0.586 K0.000 F30.000
G2 X6.439 Y14.099 Z-2.500 I-0.533 J0.280 K0.000 F30.000
G2 X5.971 Y14.914 Z-2.500 I0.098 J0.598 K0.000 F30.000
G2 X5.070 Y14.648 Z-2.500 I-0.557 J0.228 K0.000 F30.000
G2 X4.526 Y15.414 Z-2.500 I0.040 J0.605 K0.000 F30.000
G2 X3.654 Y15.063 Z-2.500 I-0.577 J0.174 K0.000 F30.000
G2 X3.040 Y15.774 Z-2.500 I-0.017 J0.606 K0.000 F30.000
G2 X2.206 Y15.342 Z-2.500 I-0.590 J0.119 K0.000 F30.000
G2 X1.527 Y15.992 Z-2.500 I-0.075 J0.601 K0.000 F30.000
G2 X0.738 Y15.482 Z-2.500 I-0.599 J0.062 K0.000 F30.000
G2 X0.000 Y16.065 Z-2.500 I-0.132 J0.592 K0.000 F30.000
G2 X-0.738 Y15.482 Z-2.500 I-0.602 J0.005 K0.000 F30.000
G2 X-1.527 Y15.992 Z-2.500 I-0.187 J0.576 K0.000 F30.000
G2 X-2.206 Y15.342 Z-2.500 I-0.600 J-0.053 K0.000 F30.000
G2 X-3.040 Y15.774 Z-2.500 I-0.241 J0.556 K0.000 F30.000
G2 X-3.654 Y15.063 Z-2.500 I-0.592 J-0.109 K0.000 F30.000
G2 X-4.526 Y15.414 Z-2.500 I-0.293 J0.531 K0.000 F30.000
G2 X-5.070 Y14.648 Z-2.500 I-0.579 J-0.165 K0.000 F30.000
G2 X-5.971 Y14.914 Z-2.500 I-0.342 J0.500 K0.000 F30.000
G2 X-6.439 Y14.099 Z-2.500 I-0.561 J-0.219 K0.000 F30.000
G2 X-7.361 Y14.279 Z-2.500 I-0.388 J0.466 K0.000 F30.000
G2 X-7.750 Y13.423 Z-2.500 I-0.537 J-0.272 K0.000 F30.000
G2 X-8.685 Y13.514 Z-2.500 I-0.431 J0.427 K0.000 F30.000
G2 X-8.991 Y12.626 Z-2.500 I-0.509 J-0.322 K0.000 F30.000
G2 X-9.930 Y12.628 Z-2.500 I-0.469 J0.384 K0.000 F30.000
G2 X-10.150 Y11.714 Z-2.500 I-0.476 J-0.369 K0.000 F30.000
G2 X-11.086 Y11.627 Z-2.500 I-0.503 J0.337 K0.000 F30.000
G2 X-11.218 Y10.696 Z-2.500 I-0.439 J-0.412 K0.000 F30.000
G2 X-12.141 Y10.520 Z-2.500 I-0.533 J0.288 K0.000 F30.000
G2 X-12.184 Y9.581 Z-2.500 I-0.398 J-0.452 K0.000 F30.000
G2 X-13.086 Y9.318 Z-2.500 I-0.558 J0.236 K0.000 F30.000
G2 X-13.039 Y8.380 Z-2.500 I-0.353 J-0.488 K0.000 F30.000
G2 X-13.912 Y8.032 Z-2.500 I-0.578 J0.182 K0.000 F30.000
G2 X-13.777 Y7.103 Z-2.500 I-0.305 J-0.519 K0.000 F30.000
G2 X-14.613 Y6.673 Z-2.500 I-0.593 J0.126 K0.000 F30.000
G2 X-14.390 Y5.761 Z-2.500 I-0.254 J-0.546 K0.000 F30.000
G2 X-15.181 Y5.254 Z-2.500 I-0.602 J0.069 K0.000 F30.000
G2 X-14.872 Y4.367 Z-2.500 I-0.201 J-0.568 K0.000 F30.000
G2 X-15.612 Y3.787 Z-2.500 I-0.606 J0.012 K0.000 F30.000
G2 X-15.220 Y2.933 Z-2.500 I-0.147 J-0.584 K0.000 F30.000
G2 X-15.901 Y2.286 Z-2.500 I-0.604 J-0.046 K0.000 F30.000
G2 X-15.430 Y1.473 Z-2.500 I-0.090 J-0.595 K0.000 F30.000
G2 X-16.046 Y0.764 Z-2.500 I-0.597 J-0.103 K0.000 F30.000
G2 X-15.500 Y-0.000 Z-2.500 I-0.033 J-0.601 K0.000 F30.000
G2 X-16.046 Y-0.764 Z-2.500 I-0.585 J-0.160 K0.000 F30.000
G2 X-15.430 Y-1.473 Z-2.500 I0.024 J-0.602 K0.000 F30.000
G2 X-15.901 Y-2.286 Z-2.500 I-0.567 J-0.214 K0.000 F30.000
G2 X-15.220 Y-2.933 Z-2.500 I0.081 J-0.597 K0.000 F30.000
G2 X-15.612 Y-3.787 Z-2.500 I-0.544 J-0.267 K0.000 F30.000
G2 X-14.872 Y-4.367 Z-2.500 I0.137 J-0.586 K0.000 F30.000
G2 X-15.181 Y-5.254 Z-2.500 I-0.516 J-0.318 K0.000 F30.000
G2 X-14.390 Y-5.761 Z-2.500 I0.193 J-0.571 K0.000 F30.000
G2 X-14.613 Y-6.673 Z-2.500 I-0.483 J-0.365 K0.000 F30.000
G2 X-13.777 Y-7.103 Z-2.500 I0.246 J-0.550 K0.000 F30.000
G2 X-13.912 Y-8.032 Z-2.500 I-0.447 J-0.410 K0.000 F30.000
G2 X-13.039 Y-8.380 Z-2.500 I0.297 J-0.524 K0.000 F30.000
G2 X-13.086 Y-9.318 Z-2.500 I-0.406 J-0.450 K0.000 F30.000
G2 X-12.184 Y-9.581 Z-2.500 I0.346 J-0.493 K0.000 F30.000
G2 X-12.141 Y-10.520 Z-2.500 I-0.361 J-0.487 K0.000 F30.000
G2 X-11.218 Y-10.696 Z-2.500 I0.391 J-0.458 K0.000 F30.000
G2 X-11.086 Y-11.627 Z-2.500 I-0.313 J-0.519 K0.000 F30.000
G2 X-10.150 Y-11.714 Z-2.500 I0.433 J-0.419 K0.000 F30.000
G2 X-9.930 Y-12.628 Z-2.500 I-0.262 J-0.546 K0.000 F30.000
G2 X-8.991 Y-12.626 Z-2.500 I0.471 J-0.376 K0.000 F30.000
G2 X-8.685 Y-13.514 Z-2.500 I-0.209 J-0.569 K0.000 F30.000
G2 X-7.750 Y-13.423 Z-2.500 I0.504 J-0.330 K0.000 F30.000
G2 X-7.361 Y-14.279 Z-2.500 I-0.154 J-0.586 K0.000 F30.000
G2 X-6.439 Y-14.099 Z-2.500 I0.533 J-0.280 K0.000 F30.000
G2 X-5.971 Y-14.914 Z-2.500 I-0.098 J-0.598 K0.000 F30.000
G2 X-5.070 Y-14.648 Z-2.500 I0.557 J-0.228 K0.000 F30.000
G2 X-4.526 Y-15.414 Z-2.500 I-0.040 J-0.605 K0.000 F30.000
G2 X-3.654 Y-15.063 Z-2.500 I0.577 J-0.174 K0.000 F30.000
G2 X-3.040 Y-15.774 Z-2.500 I0.017 J-0.606 K0.000 F30.000
G2 X-2.206 Y-15.342 Z-2.500 I0.590 J-0.119 K0.000 F30.000
G2 X-1.527 Y-15.992 Z-2.500 I0.075 J-0.601 K0.000 F30.000
G2 X-0.738 Y-15.482 Z-2.500 I0.599 J-0.062 K0.000 F30.000
G2 X0.000 Y-16.065 Z-2.500 I0.132 J-0.592 K0.000 F30.000
G2 X0.738 Y-15.482 Z-2.500 I0.602 J-0.005 K0.000 F30.000
G2 X1.527 Y-15.992 Z-2.500 I0.187 J-0.576 K0.000 F30.000
G2 X2.206 Y-15.342 Z-2.500 I0.600 J0.053 K0.000 F30.000
G2 X3.040 Y-15.774 Z-2.500 I0.241 J-0.556 K0.000 F30.000
G2 X3.654 Y-15.063 Z-2.500 I0.592 J0.109 K0.000 F30.000
G2 X4.526 Y-15.414 Z-2.500 I0.293 J-0.531 K0.000 F30.000
G2 X5.070 Y-14.648 Z-2.500 I0.579 J0.165 K0.000 F30.000
G2 X5.971 Y-14.914 Z-2.500 I0.342 J-0.500 K0.000 F30.000
G2 X6.439 Y-14.099 Z-2.500 I0.561 J0.219 K0.000 F30.000
G2 X7.361 Y-14.279 Z-2.500 I0.388 J-0.466 K0.000 F30.000
G2 X7.750 Y-13.423 Z-2.500 I0.537 J0.272 K0.000 F30.000
G2 X8.685 Y-13.514 Z-2.500 I0.431 J-0.427 K0.000 F30.000
G2 X8.991 Y-12.626 Z-2.500 I0.509 J0.322 K0.000 F30.000
G2 X9.930 Y-12.628 Z-2.500 I0.469 J-0.384 K0.000 F30.000
G2 X10.150 Y-11.714 Z-2.500 I0.476 J0.369 K0.000 F30.000
G2 X11.086 Y-11.627 Z-2.500 I0.503 J-0.337 K0.000 F30.000
G2 X11.218 Y-10.696 Z-2.500 I0.439 J0.412 K0.000 F30.000
G2 X12.141 Y-10.520 Z-2.500 I0.533 J-0.288 K0.000 F30.000
G2 X12.184 Y-9.581 Z-2.500 I0.398 J0.452 K0.000 F30.000
G2 X13.086 Y-9.318 Z-2.500 I0.558 J-0.236 K0.000 F30.000
G2 X13.039 Y-8.380 Z-2.500 I0.353 J0.488 K0.000 F30.000
G2 X13.912 Y-8.032 Z-2.500 I0.578 J-0.182 K0.000 F30.000
G2 X13.777 Y-7.103 Z-2.500 I0.305 J0.519 K0.000 F30.000
G2 X14.613 Y-6.673 Z-2.500 I0.593 J-0.126 K0.000 F30.000
G2 X14.390 Y-5.761 Z-2.500 I0.254 J0.546 K0.000 F30.000
G2 X15.181 Y-5.254 Z-2.500 I0.602 J-0.069 K0.000 F30.000
G2 X14.872 Y-4.367 Z-2.500 I0.201 J0.568 K0.000 F30.000
G2 X15.612 Y-3.787 Z-2.500 I0.606 J-0.012 K0.000 F30.000
G2 X15.220 Y-2.933 Z-2.500 I0.147 J0.584 K0.000 F30.000
G2 X15.901 Y-2.286 Z-2.500 I0.604 J0.046 K0.000 F30.000
G2 X15.430 Y-1.473 Z-2.500 I0.090 J0.595 K0.000 F30.000
G2 X16.046 Y-0.764 Z-2.500 I0.597 J0.103 K0.000 F30.000
G2 X15.500 Y0.000 Z-2.500 I0.033 J0.601 K0.000 F30.000
G2 X16.046 Y0.764 Z-2.500 I0.585 J0.160 K0.000 F30.000
G2 X15.430 Y1.473 Z-2.500 I-0.024 J0.602 K0.000 F30.000
G2 X15.901 Y2.286 Z-2.500 I0.567 J0.214 K0.000 F30.000
G2 X15.220 Y2.933 Z-2.500 I-0.081 J0.597 K0.000 F30.000
G2 X15.612 Y3.787 Z-2.500 I0.544 J0.267 K0.000 F30.000
G2 X14.872 Y4.367 Z-2.500 I-0.137 J0.586 K0.000 F30.000
G2 X15.181 Y5.254 Z-2.500 I0.516 J0.318 K0.000 F30.000
G2 X14.390 Y5.761 Z-2.500 I-0.193 J0.571 K0.000 F30.000
G2 X14.613 Y6.673 Z-2.500 I0.483 J0.365 K0.000 F30.000
G2 X13.777 Y7.103 Z-2.500 I-0.246 J0.550 K0.000 F30.000
G2 X13.912 Y8.032 Z-2.500 I0.447 J0.410 K0.000 F30.000
G2 X13.039 Y8.380 Z-2.500 I-0.297 J0.524 K0.000 F30.000
G2 X13.086 Y9.318 Z-2.500 I0.406 J0.450 K0.000 F30.000
G2 X12.184 Y9.581 Z-2.500 I-0.346 J0.493 K0.000 F30.000
G2 X12.141 Y10.520 Z-2.500 I0.361 J0.487 K0.000 F30.000
G2 X11.218 Y10.696 Z-2.500 I-0.391 J0.458 K0.000 F30.000
G2 X11.086 Y11.627 Z-2.500 I0.313 J0.519 K0.000 F30.000
G1 X11.086 Y11.627 Z-3.000 F30.000
G2 X10.150 Y11.714 Z-3.000 I-0.433 J0.419 K0.000 F30.000
G2 X9.930 Y12.628 Z-3.000 I0.262 J0.546 K0.000 F30.000
G2 X8.991 Y12.626 Z-3.000 I-0.471 J0.376 K0.000 F30.000
G2 X8.685 Y13.514 Z-3.000 I0.209 J0.569 K0.000 F30.000
G2 X7.750 Y13.423 Z-3.000 I-0.504 J0.330 K0.000 F30.000
G2 X7.361 Y14.279 Z-3.000 I0.154 J0.586 K0.000 F30.000
G2 X6.439 Y14.099 Z-3.000 I-0.533 J0.280 K0.000 F30.000
G2 X5.971 Y14.914 Z-3.000 I0.098 J0.598 K0.000 F30.000
G2 X5.070 Y14.648 Z-3.000 I-0.557 J0.228 K0.000 F30.000
G2 X4.526 Y15.414 Z-3.000 I0.040 J0.605 K0.000 F30.000
G2 X3.654 Y15.063 Z-3.000 I-0.577 J0.174 K0.000 F30.000
G2 X3.040 Y15.774 Z-3.000 I-0.017 J0.606 K0.000 F30.000
G2 X2.206 Y15.342 Z-3.000 I-0.590 J0.119 K0.000 F30.000
G2 X1.527 Y15.992 Z-3.000 I-0.075 J0.601 K0.000 F30.000
G2 X0.738 Y15.482 Z-3.000 I-0.599 J0.062 K0.000 F30.000
G2 X0.000 Y16.065 Z-3.000 I-0.132 J0.592 K0.000 F30.000
G2 X-0.738 Y15.482 Z-3.000 I-0.602 J0.005 K0.000 F30.000
G2 X-1.527 Y15.992 Z-3.000 I-0.187 J0.576 K0.000 F30.000
G2 X-2.206 Y15.342 Z-3.000 I-0.600 J-0.053 K0.000 F30.000
G2 X-3.040 Y15.774 Z-3.000 I-0.241 J0.556 K0.000 F30.000
G2 X-3.654 Y15.063 Z-3.000 I-0.592 J-0.109 K0.000 F30.000
G2 X-4.526 Y15.414 Z-3.000 I-0.293 J0.531 K0.000 F30.000
G2 X-5.070 Y14.648 Z-3.000 I-0.579 J-0.165 K0.000 F30.000
G2 X-5.971 Y14.914 Z-3.000 I-0.342 J0.500 K0.000 F30.000
G2 X-6.439 Y14.099 Z-3.000 I-0.561 J-0.219 K0.000 F30.000
G2 X-7.361 Y14.279 Z-3.000 I-0.388 J0.466 K0.000 F30.000
G2 X-7.750 Y13.423 Z-3.000 I-0.537 J-0.272 K0.000 F30.000
G2 X-8.685 Y13.514 Z-3.000 I-0.431 J0.427 K0.000 F30.000
G2 X-8.991 Y12.626 Z-3.000 I-0.509 J-0.322 K0.000 F30.000
G2 X-9.930 Y12.628 Z-3.000 I-0.469 J0.384 K0.000 F30.000
G2 X-10.150 Y11.714 Z-3.000 I-0.476 J-0.369 K0.000 F30.000
G2 X-11.086 Y11.627 Z-3.000 I-0.503 J0.337 K0.000 F30.000
G2 X-11.218 Y10.696 Z-3.000 I-0.439 J-0.412 K0.000 F30.000
G2 X-12.141 Y10.520 Z-3.000 I-0.533 J0.288 K0.000 F30.000
G2 X-12.184 Y9.581 Z-3.000 I-0.398 J-0.452 K0.000 F30.000
G2 X-13.086 Y9.318 Z-3.000 I-0.558 J0.236 K0.000 F30.000
G2 X-13.039 Y8.380 Z-3.000 I-0.353 J-0.488 K0.000 F30.000
G2 X-13.912 Y8.032 Z-3.000 I-0.578 J0.182 K0.000 F30.000
G2 X-13.777 Y7.103 Z-3.000 I-0.305 J-0.519 K0.000 F30.000
G2 X-14.613 Y6.673 Z-3.000 I-0.593 J0.126 K0.000 F30.000
G2 X-14.390 Y5.761 Z-3.000 I-0.254 J-0.546 K0.000 F30.000
G2 X-15.181 Y5.254 Z-3.000 I-0.602 J0.069 K0.000 F30.000
G2 X-14.872 Y4.367 Z-3.000 I-0.201 J-0.568 K0.000 F30.000
G2 X-15.612 Y3.787 Z-3.000 I-0.606 J0.012 K0.000 F30.000
G2 X-15.220 Y2.933 Z-3.000 I-0.147 J-0.584 K0.000 F30.000
G2 X-15.901 Y2.286 Z-3.000 I-0.604 J-0.046 K0.000 F30.000
G2 X-15.430 Y1.473 Z-3.000 I-0.090 J-0.595 K0.000 F30.000
G2 X-16.046 Y0.764 Z-3.000 I-0.597 J-0.103 K0.000 F30.000
G2 X-15.500 Y-0.000 Z-3.000 I-0.033 J-0.601 K0.000 F30.000
G2 X-16.046 Y-0.764 Z-3.000 I-0.585 J-0.160 K0.000 F30.000
G2 X-15.430 Y-1.473 Z-3.000 I0.024 J-0.602 K0.000 F30.000
G2 X-15.901 Y-2.286 Z-3.000 I-0.567 J-0.214 K0.000 F30.000
G2 X-15.220 Y-2.933 Z-3.000 I0.081 J-0.597 K0.000 F30.000
G2 X-15.612 Y-3.787 Z-3.000 I-0.544 J-0.267 K0.000 F30.000
G2 X-14.872 Y-4.367 Z-3.000 I0.137 J-0.586 K0.000 F30.000
G2 X-15.181 Y-5.254 Z-3.000 I-0.516 J-0.318 K0.000 F30.000
G2 X-14.390 Y-5.761 Z-3.000 I0.193 J-0.571 K0.000 F30.000
G2 X-14.613 Y-6.673 Z-3.000 I-0.483 J-0.365 K0.000 F30.000
G2 X-13.777 Y-7.103 Z-3.000 I0.246 J-0.550 K0.000 F30.000
G2 X-13.912 Y-8.032 Z-3.000 I-0.447 J-0.410 K0.000 F30.000
G2 X-13.039 Y-8.380 Z-3.000 I0.297 J-0.524 K0.000 F30.000
G2 X-13.086 Y-9.318 Z-3.000 I-0.406 J-0.450 K0.000 F30.000
G2 X-12.184 Y-9.581 Z-3.000 I0.346 J-0.493 K0.000 F30.000
G2 X-12.141 Y-10.520 Z-3.000 I-0.361 J-0.487 K0.000 F30.000
G2 X-11.218 Y-10.696 Z-3.000 I0.391 J-0.458 K0.000 F30.000
G2 X-11.086 Y-11.627 Z-3.000 I-0.313 J-0.519 K0.000 F30.000
G2 X-10.150 Y-11.714 Z-3.000 I0.433 J-0.419 K0.000 F30.000
G2 X-9.930 Y-12.628 Z-3.000 I-0.262 J-0.546 K0.000 F30.000
G2 X-8.991 Y-12.626 Z-3.000 I0.471 J-0.376 K0.000 F30.000
G2 X-8.685 Y-13.514 Z-3.000 I-0.209 J-0.569 K0.000 F30.000
G2 X-7.750 Y-13.423 Z-3.000 I0.504 J-0.330 K0.000 F30.000
G2 X-7.361 Y-14.279 Z-3.000 I-0.154 J-0.586 K0.000 F30.000
G2 X-6.439 Y-14.099 Z-3.000 I0.533 J-0.280 K0.000 F30.000
G2 X-5.971 Y-14.914 Z-3.000 I-0.098 J-0.598 K0.000 F30.000
G2 X-5.070 Y-14.648 Z-3.000 I0.557 J-0.228 K0.000 F30.000
G2 X-4.526 Y-15.414 Z-3.000 I-0.040 J-0.605 K0.000 F30.000
G2 X-3.654 Y-15.063 Z-3.000 I0.577 J-0.174 K0.000 F30.000
G2 X-3.040 Y-15.774 Z-3.000 I0.017 J-0.606 K0.000 F30.000
G2 X-2.206 Y-15.342 Z-3.000 I0.590 J-0.119 K0.000 F30.000
G2 X-1.527 Y-15.992 Z-3.000 I0.075 J-0.601 K0.000 F30.000
G2 X-0.738 Y-15.482 Z-3.000 I0.599 J-0.062 K0.000 F30.000
G2 X0.000 Y-16.065 Z-3.000 I0.132 J-0.592 K0.000 F30.000
G2 X0.738 Y-15.482 Z-3.000 I0.602 J-0.005 K0.000 F30.000
G2 X1.527 Y-15.992 Z-3.000 I0.187 J-0.576 K0.000 F30.000
G2 X2.206 Y-15.342 Z-3.000 I0.600 J0.053 K0.000 F30.000
G2 X3.040 Y-15.774 Z-3.000 I0.241 J-0.556 K0.000 F30.000
G2 X3.654 Y-15.063 Z-3.000 I0.592 J0.109 K0.000 F30.000
G2 X4.526 Y-15.414 Z-3.000 I0.293 J-0.531 K0.000 F30.000
G2 X5.070 Y-14.648 Z-3.000 I0.579 J0.165 K0.000 F30.000
G2 X5.971 Y-14.914 Z-3.000 I0.342 J-0.500 K0.000 F30.000
G2 X6.439 Y-14.099 Z-3.000 I0.561 J0.219 K0.000 F30.000
G2 X7.361 Y-14.279 Z-3.000 I0.388 J-0.466 K0.000 F30.000
G2 X7.750 Y-13.423 Z-3.000 I0.537 J0.272 K0.000 F30.000
G2 X8.685 Y-13.514 Z-3.000 I0.431 J-0.427 K0.000 F30.000
G2 X8.991 Y-12.626 Z-3.000 I0.509 J0.322 K0.000 F30.000
G2 X9.930 Y-12.628 Z-3.000 I0.469 J-0.384 K0.000 F30.000
G2 X10.150 Y-11.714 Z-3.000 I0.476 J0.369 K0.000 F30.000
G2 X11.086 Y-11.627 Z-3.000 I0.503 J-0.337 K0.000 F30.000
G2 X11.218 Y-10.696 Z-3.000 I0.439 J0.412 K0.000 F30.000
G2 X12.141 Y-10.520 Z-3.000 I0.533 J-0.288 K0.000 F30.000
G2 X12.184 Y-9.581 Z-3.000 I0.398 J0.452 K0.000 F30.000
G2 X13.086 Y-9.318 Z-3.000 I0.558 J-0.236 K0.000 F30.000
G2 X13.039 Y-8.380 Z-3.000 I0.353 J0.488 K0.000 F30.000
G2 X13.912 Y-8.032 Z-3.000 I0.578 J-0.182 K0.000 F30.000
G2 X13.777 Y-7.103 Z-3.000 I0.305 J0.519 K0.000 F30.000
G2 X14.613 Y-6.673 Z-3.000 I0.593 J-0.126 K0.000 F30.000
G2 X14.390 Y-5.761 Z-3.000 I0.254 J0.546 K0.000 F30.000
G2 X15.181 Y-5.254 Z-3.000 I0.602 J-0.069 K0.000 F30.000
G2 X14.872 Y-4.367 Z-3.000 I0.201 J0.568 K0.000 F30.000
G2 X15.612 Y-3.787 Z-3.000 I0.606 J-0.012 K0.000 F30.000
G2 X15.220 Y-2.933 Z-3.000 I0.147 J0.584 K0.000 F30.000
G2 X15.901 Y-2.286 Z-3.000 I0.604 J0.046 K0.000 F30.000
G2 X15.430 Y-1.473 Z-3.000 I0.090 J0.595 K0.000 F30.000
G2 X16.046 Y-0.764 Z-3.000 I0.597 J0.103 K0.000 F30.000
G2 X15.500 Y0.000 Z-3.000 I0.033 J0.601 K0.000 F30.000
G2 X16.046 Y0.764 Z-3.000 I0.585 J0.160 K0.000 F30.000
G2 X15.430 Y1.473 Z-3.000 I-0.024 J0.602 K0.000 F30.000
G2 X15.901 Y2.286 Z-3.000 I0.567 J0.214 K0.000 F30.000
G2 X15.220 Y2.933 Z-3.000 I-0.081 J0.597 K0.000 F30.000
G2 X15.612 Y3.787 Z-3.000 I0.544 J0.267 K0.000 F30.000
G2 X14.872 Y4.367 Z-3.000 I-0.137 J0.586 K0.000 F30.000
G2 X15.181 Y5.254 Z-3.000 I0.516 J0.318 K0.000 F30.000
G2 X14.390 Y5.761 Z-3.000 I-0.193 J0.571 K0.000 F30.000
G2 X14.613 Y6.673 Z-3.000 I0.483 J0.365 K0.000 F30.000
G2 X13.777 Y7.103 Z-3.000 I-0.246 J0.550 K0.000 F30.000
G2 X13.912 Y8.032 Z-3.000 I0.447 J0.410 K0.000 F30.000
G2 X13.039 Y8.380 Z-3.000 I-0.297 J0.524 K0.000 F30.000
G2 X13.086 Y9.318 Z-3.000 I0.406 J0.450 K0.000 F30.000
G2 X12.184 Y9.581 Z-3.000 I-0.346 J0.493 K0.000 F30.000
G2 X12.141 Y10.520 Z-3.000 I0.361 J0.487 K0.000 F30.000
G2 X11.218 Y10.696 Z-3.000 I-0.391 J0.458 K0.000 F30.000
G2 X11.086 Y11.627 Z-3.000 I0.313 J0.519 K0.000 F30.000
G1 X11.086 Y11.627 Z-3.500 F30.000
G2 X10.150 Y11.714 Z-3.500 I-0.433 J0.419 K0.000 F30.000
G2 X9.930 Y12.628 Z-3.500 I0.262 J0.546 K0.000 F30.000
G2 X8.991 Y12.626 Z-3.500 I-0.471 J0.376 K0.000 F30.000
G2 X8.685 Y13.514 Z-3.500 I0.209 J0.569 K0.000 F30.000
G2 X7.750 Y13.423 Z-3.500 I-0.504 J0.330 K0.000 F30.000
G2 X7.361 Y14.279 Z-3.500 I0.154 J0.586 K0.000 F30.000
G2 X6.439 Y14.099 Z-3.500 I-0.533 J0.280 K0.000 F30.000
G2 X5.971 Y14.914 Z-3.500 I0.098 J0.598 K0.000 F30.000
G2 X5.070 Y14.648 Z-3.500 I-0.557 J0.228 K0.000 F30.000
G2 X4.526 Y15.414 Z-3.500 I0.040 J0.605 K0.000 F30.000
G2 X3.654 Y15.063 Z-3.500 I-0.577 J0.174 K0.000 F30.000
G2 X3.040 Y15.774 Z-3.500 I-0.017 J0.606 K0.000 F30.000
G2 X2.206 Y15.342 Z-3.500 I-0.590 J0.119 K0.000 F30.000
G2 X1.527 Y15.992 Z-3.500 I-0.075 J0.601 K0.000 F30.000
G2 X0.738 Y15.482 Z-3.500 I-0.599 J0.062 K0.000 F30.000
G2 X0.000 Y16.065 Z-3.500 I-0.132 J0.592 K0.000 F30.000
G2 X-0.738 Y15.482 Z-3.500 I-0.602 J0.005 K0.000 F30.000
G2 X-1.527 Y15.992 Z-3.500 I-0.187 J0.576 K0.000 F30.000
G2 X-2.206 Y15.342 Z-3.500 I-0.600 J-0.053 K0.000 F30.000
G2 X-3.040 Y15.774 Z-3.500 I-0.241 J0.556 K0.000 F30.000
G2 X-3.654 Y15.063 Z-3.500 I-0.592 J-0.109 K0.000 F30.000
G2 X-4.526 Y15.414 Z-3.500 I-0.293 J0.531 K0.000 F30.000
G2 X-5.070 Y14.648 Z-3.500 I-0.579 J-0.165 K0.000 F30.000
G2 X-5.971 Y14.914 Z-3.500 I-0.342 J0.500 K0.000 F30.000
G2 X-6.439 Y14.099 Z-3.500 I-0.561 J-0.219 K0.000 F30.000
G2 X-7.361 Y14.279 Z-3.500 I-0.388 J0.466 K0.000 F30.000
G2 X-7.750 Y13.423 Z-3.500 I-0.537 J-0.272 K0.000 F30.000
G2 X-8.685 Y13.514 Z-3.500 I-0.431 J0.427 K0.000 F30.000
G2 X-8.991 Y12.626 Z-3.500 I-0.509 J-0.322 K0.000 F30.000
G2 X-9.930 Y12.628 Z-3.500 I-0.469 J0.384 K0.000 F30.000
G2 X-10.150 Y11.714 Z-3.500 I-0.476 J-0.369 K0.000 F30.000
G2 X-11.086 Y11.627 Z-3.500 I-0.503 J0.337 K0.000 F30.000
G2 X-11.218 Y10.696 Z-3.500 I-0.439 J-0.412 K0.000 F30.000
G2 X-12.141 Y10.520 Z-3.500 I-0.533 J0.288 K0.000 F30.000
G2 X-12.184 Y9.581 Z-3.500 I-0.398 J-0.452 K0.000 F30.000
G2 X-13.086 Y9.318 Z-3.500 I-0.558 J0.236 K0.000 F30.000
G2 X-13.039 Y8.380 Z-3.500 I-0.353 J-0.488 K0.000 F30.000
G2 X-13.912 Y8.032 Z-3.500 I-0.578 J0.182 K0.000 F30.000
G2 X-13.777 Y7.103 Z-3.500 I-0.305 J-0.519 K0.000 F30.000
G2 X-14.613 Y6.673 Z-3.500 I-0.593 J0.126 K0.000 F30.000
G2 X-14.390 Y5.761 Z-3.500 I-0.254 J-0.546 K0.000 F30.000
G2 X-15.181 Y5.254 Z-3.500 I-0.602 J0.069 K0.000 F30.000
G2 X-14.872 Y4.367 Z-3.500 I-0.201 J-0.568 K0.000 F30.000
G2 X-15.612 Y3.787 Z-3.500 I-0.606 J0.012 K0.000 F30.000
G2 X-15.220 Y2.933 Z-3.500 I-0.147 J-0.584 K0.000 F30.000
G2 X-15.901 Y2.286 Z-3.500 I-0.604 J-0.046 K0.000 F30.000
G2 X-15.430 Y1.473 Z-3.500 I-0.090 J-0.595 K0.000 F30.000
G2 X-16.046 Y0.764 Z-3.500 I-0.597 J-0.103 K0.000 F30.000
G2 X-15.500 Y-0.000 Z-3.500 I-0.033 J-0.601 K0.000 F30.000
G2 X-16.046 Y-0.764 Z-3.500 I-0.585 J-0.160 K0.000 F30.000
G2 X-15.430 Y-1.473 Z-3.500 I0.024 J-0.602 K0.000 F30.000
G2 X-15.901 Y-2.286 Z-3.500 I-0.567 J-0.214 K0.000 F30.000
G2 X-15.220 Y-2.933 Z-3.500 I0.081 J-0.597 K0.000 F30.000
G2 X-15.612 Y-3.787 Z-3.500 I-0.544 J-0.267 K0.000 F30.000
G2 X-14.872 Y-4.367 Z-3.500 I0.137 J-0.586 K0.000 F30.000
G2 X-15.181 Y-5.254 Z-3.500 I-0.516 J-0.318 K0.000 F30.000
G2 X-14.390 Y-5.761 Z-3.500 I0.193 J-0.571 K0.000 F30.000
G2 X-14.613 Y-6.673 Z-3.500 I-0.483 J-0.365 K0.000 F30.000
G2 X-13.777 Y-7.103 Z-3.500 I0.246 J-0.550 K0.000 F30.000
G2 X-13.912 Y-8.032 Z-3.500 I-0.447 J-0.410 K0.000 F30.000
G2 X-13.039 Y-8.380 Z-3.500 I0.297 J-0.524 K0.000 F30.000
G2 X-13.086 Y-9.318 Z-3.500 I-0.406 J-0.450 K0.000 F30.000
G2 X-12.184 Y-9.581 Z-3.500 I0.346 J-0.493 K0.000 F30.000
G2 X-12.141 Y-10.520 Z-3.500 I-0.361 J-0.487 K0.000 F30.000
G2 X-11.218 Y-10.696 Z-3.500 I0.391 J-0.458 K0.000 F30.000
G2 X-11.086 Y-11.627 Z-3.500 I-0.313 J-0.519 K0.000 F30.000
G2 X-10.150 Y-11.714 Z-3.500 I0.433 J-0.419 K0.000 F30.000
G2 X-9.930 Y-12.628 Z-3.500 I-0.262 J-0.546 K0.000 F30.000
G2 X-8.991 Y-12.626 Z-3.500 I0.471 J-0.376 K0.000 F30.000
G2 X-8.685 Y-13.514 Z-3.500 I-0.209 J-0.569 K0.000 F30.000
G2 X-7.750 Y-13.423 Z-3.500 I0.504 J-0.330 K0.000 F30.000
G2 X-7.361 Y-14.279 Z-3.500 I-0.154 J-0.586 K0.000 F30.000
G2 X-6.439 Y-14.099 Z-3.500 I0.533 J-0.280 K0.000 F30.000
G2 X-5.971 Y-14.914 Z-3.500 I-0.098 J-0.598 K0.000 F30.000
G2 X-5.070 Y-14.648 Z-3.500 I0.557 J-0.228 K0.000 F30.000
G2 X-4.526 Y-15.414 Z-3.500 I-0.040 J-0.605 K0.000 F30.000
G2 X-3.654 Y-15.063 Z-3.500 I0.577 J-0.174 K0.000 F30.000
G2 X-3.040 Y-15.774 Z-3.500 I0.017 J-0.606 K0.000 F30.000
G2 X-2.206 Y-15.342 Z-3.500 I0.590 J-0.119 K0.000 F30.000
G2 X-1.527 Y-15.992 Z-3.500 I0.075 J-0.601 K0.000 F30.000
G2 X-0.738 Y-15.482 Z-3.500 I0.599 J-0.062 K0.000 F30.000
G2 X0.000 Y-16.065 Z-3.500 I0.132 J-0.592 K0.000 F30.000
G2 X0.738 Y-15.482 Z-3.500 I0.602 J-0.005 K0.000 F30.000
G2 X1.527 Y-15.992 Z-3.500 I0.187 J-0.576 K0.000 F30.000
G2 X2.206 Y-15.342 Z-3.500 I0.600 J0.053 K0.000 F30.000
G2 X3.040 Y-15.774 Z-3.500 I0.241 J-0.556 K0.000 F30.000
G2 X3.654 Y-15.063 Z-3.500 I0.592 J0.109 K0.000 F30.000
G2 X4.526 Y-15.414 Z-3.500 I0.293 J-0.531 K0.000 F30.000
G2 X5.070 Y-14.648 Z-3.500 I0.579 J0.165 K0.000 F30.000
G2 X5.971 Y-14.914 Z-3.500 I0.342 J-0.500 K0.000 F30.000
G2 X6.439 Y-14.099 Z-3.500 I0.561 J0.219 K0.000 F30.000
G2 X7.361 Y-14.279 Z-3.500 I0.388 J-0.466 K0.000 F30.000
G2 X7.750 Y-13.423 Z-3.500 I0.537 J0.272 K0.000 F30.000
G2 X8.685 Y-13.514 Z-3.500 I0.431 J-0.427 K0.000 F30.000
G2 X8.991 Y-12.626 Z-3.500 I0.509 J0.322 K0.000 F30.000
G2 X9.930 Y-12.628 Z-3.500 I0.469 J-0.384 K0.000 F30.000
G2 X10.150 Y-11.714 Z-3.500 I0.476 J0.369 K0.000 F30.000
G2 X11.086 Y-11.627 Z-3.500 I0.503 J-0.337 K0.000 F30.000
G2 X11.218 Y-10.696 Z-3.500 I0.439 J0.412 K0.000 F30.000
G2 X12.141 Y-10.520 Z-3.500 I0.533 J-0.288 K0.000 F30.000
G2 X12.184 Y-9.581 Z-3.500 I0.398 J0.452 K0.000 F30.000
G2 X13.086 Y-9.318 Z-3.500 I0.558 J-0.236 K0.000 F30.000
G2 X13.039 Y-8.380 Z-3.500 I0.353 J0.488 K0.000 F30.000
G2 X13.912 Y-8.032 Z-3.500 I0.578 J-0.182 K0.000 F30.000
G2 X13.777 Y-7.103 Z-3.500 I0.305 J0.519 K0.000 F30.000
G2 X14.613 Y-6.673 Z-3.500 I0.593 J-0.126 K0.000 F30.000
G2 X14.390 Y-5.761 Z-3.500 I0.254 J0.546 K0.000 F30.000
G2 X15.181 Y-5.254 Z-3.500 I0.602 J-0.069 K0.000 F30.000
G2 X14.872 Y-4.367 Z-3.500 I0.201 J0.568 K0.000 F30.000
G2 X15.612 Y-3.787 Z-3.500 I0.606 J-0.012 K0.000 F30.000
G2 X15.220 Y-2.933 Z-3.500 I0.147 J0.584 K0.000 F30.000
G2 X15.901 Y-2.286 Z-3.500 I0.604 J0.046 K0.000 F30.000
G2 X15.430 Y-1.473 Z-3.500 I0.090 J0.595 K0.000 F30.000
G2 X16.046 Y-0.764 Z-3.500 I0.597 J0.103 K0.000 F30.000
G2 X15.500 Y0.000 Z-3.500 I0.033 J0.601 K0.000 F30.000
G2 X16.046 Y0.764 Z-3.500 I0.585 J0.160 K0.000 F30.000
G2 X15.430 Y1.473 Z-3.500 I-0.024 J0.602 K0.000 F30.000
G2 X15.901 Y2.286 Z-3.500 I0.567 J0.214 K0.000 F30.000
G2 X15.220 Y2.933 Z-3.500 I-0.081 J0.597 K0.000 F30.000
G2 X15.612 Y3.787 Z-3.500 I0.544 J0.267 K0.000 F30.000
G2 X14.872 Y4.367 Z-3.500 I-0.137 J0.586 K0.000 F30.000
G2 X15.181 Y5.254 Z-3.500 I0.516 J0.318 K0.000 F30.000
G2 X14.390 Y5.761 Z-3.500 I-0.193 J0.571 K0.000 F30.000
G2 X14.613 Y6.673 Z-3.500 I0.483 J0.365 K0.000 F30.000
G2 X13.777 Y7.103 Z-3.500 I-0.246 J0.550 K0.000 F30.000
G2 X13.912 Y8.032 Z-3.500 I0.447 J0.410 K0.000 F30.000
G2 X13.039 Y8.380 Z-3.500 I-0.297 J0.524 K0.000 F30.000
G2 X13.086 Y9.318 Z-3.500 I0.406 J0.450 K0.000 F30.000
G2 X12.184 Y9.581 Z-3.500 I-0.346 J0.493 K0.000 F30.000
G2 X12.141 Y10.520 Z-3.500 I0.361 J0.487 K0.000 F30.000
G2 X11.218 Y10.696 Z-3.500 I-0.391 J0.458 K0.000 F30.000
G2 X11.086 Y11.627 Z-3.500 I0.313 J0.519 K0.000 F30.000
G1 X11.086 Y11.627 Z-4.000 F30.000
G2 X10.150 Y11.714 Z-4.000 I-0.433 J0.419 K0.000 F30.000
G2 X9.930 Y12.628 Z-4.000 I0.262 J0.546 K0.000 F30.000
G2 X8.991 Y12.626 Z-4.000 I-0.471 J0.376 K0.000 F30.000
G2 X8.685 Y13.514 Z-4.000 I0.209 J0.569 K0.000 F30.000
G2 X7.750 Y13.423 Z-4.000 I-0.504 J0.330 K0.000 F30.000
G2 X7.361 Y14.279 Z-4.000 I0.154 J0.586 K0.000 F30.000
G2 X6.439 Y14.099 Z-4.000 I-0.533 J0.280 K0.000 F30.000
G2 X5.971 Y14.914 Z-4.000 I0.098 J0.598 K0.000 F30.000
G2 X5.070 Y14.648 Z-4.000 I-0.557 J0.228 K0.000 F30.000
G2 X4.526 Y15.414 Z-4.000 I0.040 J0.605 K0.000 F30.000
G2 X3.654 Y15.063 Z-4.000 I-0.577 J0.174 K0.000 F30.000
G2 X3.040 Y15.774 Z-4.000 I-0.017 J0.606 K0.000 F30.000
G2 X2.206 Y15.342 Z-4.000 I-0.590 J0.119 K0.000 F30.000
G2 X1.527 Y15.992 Z-4.000 I-0.075 J0.601 K0.000 F30.000
G2 X0.738 Y15.482 Z-4.000 I-0.599 J0.062 K0.000 F30.000
G2 X0.000 Y16.065 Z-4.000 I-0.132 J0.592 K0.000 F30.000
G2 X-0.738 Y15.482 Z-4.000 I-0.602 J0.005 K0.000 F30.000
G2 X-1.527 Y15.992 Z-4.000 I-0.187 J0.576 K0.000 F30.000
G2 X-2.206 Y15.342 Z-4.000 I-0.600 J-0.053 K0.000 F30.000
G2 X-3.040 Y15.774 Z-4.000 I-0.241 J0.556 K0.000 F30.000
G2 X-3.654 Y15.063 Z-4.000 I-0.592 J-0.109 K0.000 F30.000
G2 X-4.526 Y15.414 Z-4.000 I-0.293 J0.531 K0.000 F30.000
G2 X-5.070 Y14.648 Z-4.000 I-0.579 J-0.165 K0.000 F30.000
G2 X-5.971 Y14.914 Z-4.000 I-0.342 J0.500 K0.000 F30.000
G2 X-6.439 Y14.099 Z-4.000 I-0.561 J-0.219 K0.000 F30.000
G2 X-7.361 Y14.279 Z-4.000 I-0.388 J0.466 K0.000 F30.000
G2 X-7.750 Y13.423 Z-4.000 I-0.537 J-0.272 K0.000 F30.000
G2 X-8.685 Y13.514 Z-4.000 I-0.431 J0.427 K0.000 F30.000
G2 X-8.991 Y12.626 Z-4.000 I-0.509 J-0.322 K0.000 F30.000
G2 X-9.930 Y12.628 Z-4.000 I-0.469 J0.384 K0.000 F30.000
G2 X-10.150 Y11.714 Z-4.000 I-0.476 J-0.369 K0.000 F30.000
G2 X-11.086 Y11.627 Z-4.000 I-0.503 J0.337 K0.000 F30.000
G2 X-11.218 Y10.696 Z-4.000 I-0.439 J-0.412 K0.000 F30.000
G2 X-12.141 Y10.520 Z-4.000 I-0.533 J0.288 K0.000 F30.000
G2 X-12.184 Y9.581 Z-4.000 I-0.398 J-0.452 K0.000 F30.000
G2 X-13.086 Y9.318 Z-4.000 I-0.558 J0.236 K0.000 F30.000
G2 X-13.039 Y8.380 Z-4.000 I-0.353 J-0.488 K0.000 F30.000
G2 X-13.912 Y8.032 Z-4.000 I-0.578 J0.182 K0.000 F30.000
G2 X-13.777 Y7.103 Z-4.000 I-0.305 J-0.519 K0.000 F30.000
G2 X-14.613 Y6.673 Z-4.000 I-0.593 J0.126 K0.000 F30.000
G2 X-14.390 Y5.761 Z-4.000 I-0.254 J-0.546 K0.000 F30.000
G2 X-15.181 Y5.254 Z-4.000 I-0.602 J0.069 K0.000 F30.000
G2 X-14.872 Y4.367 Z-4.000 I-0.201 J-0.568 K0.000 F30.000
G2 X-15.612 Y3.787 Z-4.000 I-0.606 J0.012 K0.000 F30.000
G2 X-15.220 Y2.933 Z-4.000 I-0.147 J-0.584 K0.000 F30.000
G2 X-15.901 Y2.286 Z-4.000 I-0.604 J-0.046 K0.000 F30.000
G2 X-15.430 Y1.473 Z-4.000 I-0.090 J-0.595 K0.000 F30.000
G2 X-16.046 Y0.764 Z-4.000 I-0.597 J-0.103 K0.000 F30.000
G2 X-15.500 Y-0.000 Z-4.000 I-0.033 J-0.601 K0.000 F30.000
G2 X-16.046 Y-0.764 Z-4.000 I-0.585 J-0.160 K0.000 F30.000
G2 X-15.430 Y-1.473 Z-4.000 I0.024 J-0.602 K0.000 F30.000
G2 X-15.901 Y-2.286 Z-4.000 I-0.567 J-0.214 K0.000 F30.000
G2 X-15.220 Y-2.933 Z-4.000 I0.081 J-0.597 K0.000 F30.000
G2 X-15.612 Y-3.787 Z-4.000 I-0.544 J-0.267 K0.000 F30.000
G2 X-14.872 Y-4.367 Z-4.000 I0.137 J-0.586 K0.000 F30.000
G2 X-15.181 Y-5.254 Z-4.000 I-0.516 J-0.318 K0.000 F30.000
G2 X-14.390 Y-5.761 Z-4.000 I0.193 J-0.571 K0.000 F30.000
G2 X-14.613 Y-6.673 Z-4.000 I-0.483 J-0.365 K0.000 F30.000
G2 X-13.777 Y-7.103 Z-4.000 I0.246 J-0.550 K0.000 F30.000
G2 X-13.912 Y-8.032 Z-4.000 I-0.447 J-0.410 K0.000 F30.000
G2 X-13.039 Y-8.380 Z-4.000 I0.297 J-0.524 K0.000 F30.000
G2 X-13.086 Y-9.318 Z-4.000 I-0.406 J-0.450 K0.000 F30.000
G2 X-12.184 Y-9.581 Z-4.000 I0.346 J-0.493 K0.000 F30.000
G2 X-12.141 Y-10.520 Z-4.000 I-0.361 J-0.487 K0.000 F30.000
G2 X-11.218 Y-10.696 Z-4.000 I0.391 J-0.458 K0.000 F30.000
G2 X-11.086 Y-11.627 Z-4.000 I-0.313 J-0.519 K0.000 F30.000
G2 X-10.150 Y-11.714 Z-4.000 I0.433 J-0.419 K0.000 F30.000
G2 X-9.930 Y-12.628 Z-4.000 I-0.262 J-0.546 K0.000 F30.000
G2 X-8.991 Y-12.626 Z-4.000 I0.471 J-0.376 K0.000 F30.000
G2 X-8.685 Y-13.514 Z-4.000 I-0.209 J-0.569 K0.000 F30.000
G2 X-7.750 Y-13.423 Z-4.000 I0.504 J-0.330 K0.000 F30.000
G2 X-7.361 Y-14.279 Z-4.000 I-0.154 J-0.586 K0.000 F30.000
G2 X-6.439 Y-14.099 Z-4.000 I0.533 J-0.280 K0.000 F30.000
G2 X-5.971 Y-14.914 Z-4.000 I-0.098 J-0.598 K0.000 F30.000
G2 X-5.070 Y-14.648 Z-4.000 I0.557 J-0.228 K0.000 F30.000
G2 X-4.526 Y-15.414 Z-4.000 I-0.040 J-0.605 K0.000 F30.000
G2 X-3.654 Y-15.063 Z-4.000 I0.577 J-0.174 K0.000 F30.000
G2 X-3.040 Y-15.774 Z-4.000 I0.017 J-0.606 K0.000 F30.000
G2 X-2.206 Y-15.342 Z-4.000 I0.590 J-0.119 K0.000 F30.000
G2 X-1.527 Y-15.992 Z-4.000 I0.075 J-0.601 K0.000 F30.000
G2 X-0.738 Y-15.482 Z-4.000 I0.599 J-0.062 K0.000 F30.000
G2 X0.000 Y-16.065 Z-4.000 I0.132 J-0.592 K0.000 F30.000
G2 X0.738 Y-15.482 Z-4.000 I0.602 J-0.005 K0.000 F30.000
G2 X1.527 Y-15.992 Z-4.000 I0.187 J-0.576 K0.000 F30.000
G2 X2.206 Y-15.342 Z-4.000 I0.600 J0.053 K0.000 F30.000
G2 X3.040 Y-15.774 Z-4.000 I0.241 J-0.556 K0.000 F30.000
G2 X3.654 Y-15.063 Z-4.000 I0.592 J0.109 K0.000 F30.000
G2 X4.526 Y-15.414 Z-4.000 I0.293 J-0.531 K0.000 F30.000
G2 X5.070 Y-14.648 Z-4.000 I0.579 J0.165 K0.000 F30.000
G2 X5.971 Y-14.914 Z-4.000 I0.342 J-0.500 K0.000 F30.000
G2 X6.439 Y-14.099 Z-4.000 I0.561 J0.219 K0.000 F30.000
G2 X7.361 Y-14.279 Z-4.000 I0.388 J-0.466 K0.000 F30.000
G2 X7.750 Y-13.423 Z-4.000 I0.537 J0.272 K0.000 F30.000
G2 X8.685 Y-13.514 Z-4.000 I0.431 J-0.427 K0.000 F30.000
G2 X8.991 Y-12.626 Z-4.000 I0.509 J0.322 K0.000 F30.000
G2 X9.930 Y-12.628 Z-4.000 I0.469 J-0.384 K0.000 F30.000
G2 X10.150 Y-11.714 Z-4.000 I0.476 J0.369 K0.000 F30.000
G2 X11.086 Y-11.627 Z-4.000 I0.503 J-0.337 K0.000 F30.000
G2 X11.218 Y-10.696 Z-4.000 I0.439 J0.412 K0.000 F30.000
G2 X12.141 Y-10.520 Z-4.000 I0.533 J-0.288 K0.000 F30.000
G2 X12.184 Y-9.581 Z-4.000 I0.398 J0.452 K0.000 F30.000
G2 X13.086 Y-9.318 Z-4.000 I0.558 J-0.236 K0.000 F30.000
G2 X13.039 Y-8.380 Z-4.000 I0.353 J0.488 K0.000 F30.000
G2 X13.912 Y-8.032 Z-4.000 I0.578 J-0.182 K0.000 F30.000
G2 X13.777 Y-7.103 Z-4.000 I0.305 J0.519 K0.000 F30.000
G2 X14.613 Y-6.673 Z-4.000 I0.593 J-0.126 K0.000 F30.000
G2 X14.390 Y-5.761 Z-4.000 I0.254 J0.546 K0.000 F30.000
G2 X15.181 Y-5.254 Z-4.000 I0.602 J-0.069 K0.000 F30.000
G2 X14.872 Y-4.367 Z-4.000 I0.201 J0.568 K0.000 F30.000
G2 X15.612 Y-3.787 Z-4.000 I0.606 J-0.012 K0.000 F30.000
G2 X15.220 Y-2.933 Z-4.000 I0.147 J0.584 K0.000 F30.000
G2 X15.901 Y-2.286 Z-4.000 I0.604 J0.046 K0.000 F30.000
G2 X15.430 Y-1.473 Z-4.000 I0.090 J0.595 K0.000 F30.000
G2 X16.046 Y-0.764 Z-4.000 I0.597 J0.103 K0.000 F30.000
G2 X15.500 Y0.000 Z-4.000 I0.033 J0.601 K0.000 F30.000
G2 X16.046 Y0.764 Z-4.000 I0.585 J0.160 K0.000 F30.000
G2 X15.430 Y1.473 Z-4.000 I-0.024 J0.602 K0.000 F30.000
G2 X15.901 Y2.286 Z-4.000 I0.567 J0.214 K0.000 F30.000
G2 X15.220 Y2.933 Z-4.000 I-0.081 J0.597 K0.000 F30.000
G2 X15.612 Y3.787 Z-4.000 I0.544 J0.267 K0.000 F30.000
G2 X14.872 Y4.367 Z-4.000 I-0.137 J0.586 K0.000 F30.000
G2 X15.181 Y5.254 Z-4.000 I0.516 J0.318 K0.000 F30.000
G2 X14.390 Y5.761 Z-4.000 I-0.193 J0.571 K0.000 F30.000
G2 X14.613 Y6.673 Z-4.000 I0.483 J0.365 K0.000 F30.000
G2 X13.777 Y7.103 Z-4.000 I-0.246 J0.550 K0.000 F30.000
G2 X13.912 Y8.032 Z-4.000 I0.447 J0.410 K0.000 F30.000
G2 X13.039 Y8.380 Z-4.000 I-0.297 J0.524 K0.000 F30.000
G2 X13.086 Y9.318 Z-4.000 I0.406 J0.450 K0.000 F30.000
G2 X12.184 Y9.581 Z-4.000 I-0.346 J0.493 K0.000 F30.000
G2 X12.141 Y10.520 Z-4.000 I0.361 J0.487 K0.000 F30.000
G2 X11.218 Y10.696 Z-4.000 I-0.391 J0.458 K0.000 F30.000
G2 X11.086 Y11.627 Z-4.000 I0.313 J0.519 K0.000 F30.000
G1 X11.086 Y11.627 Z-4.500 F30.000
G2 X10.150 Y11.714 Z-4.500 I-0.433 J0.419 K0.000 F30.000
G2 X9.930 Y12.628 Z-4.500 I0.262 J0.546 K0.000 F30.000
G2 X8.991 Y12.626 Z-4.500 I-0.471 J0.376 K0.000 F30.000
G2 X8.685 Y13.514 Z-4.500 I0.209 J0.569 K0.000 F30.000
G2 X7.750 Y13.423 Z-4.500 I-0.504 J0.330 K0.000 F30.000
G2 X7.361 Y14.279 Z-4.500 I0.154 J0.586 K0.000 F30.000
G2 X6.439 Y14.099 Z-4.500 I-0.533 J0.280 K0.000 F30.000
G2 X5.971 Y14.914 Z-4.500 I0.098 J0.598 K0.000 F30.000
G2 X5.070 Y14.648 Z-4.500 I-0.557 J0.228 K0.000 F30.000
G2 X4.526 Y15.414 Z-4.500 I0.040 J0.605 K0.000 F30.000
G2 X3.654 Y15.063 Z-4.500 I-0.577 J0.174 K0.000 F30.000
G2 X3.040 Y15.774 Z-4.500 I-0.017 J0.606 K0.000 F30.000
G2 X2.206 Y15.342 Z-4.500 I-0.590 J0.119 K0.000 F30.000
G2 X1.527 Y15.992 Z-4.500 I-0.075 J0.601 K0.000 F30.000
G2 X0.738 Y15.482 Z-4.500 I-0.599 J0.062 K0.000 F30.000
G2 X0.000 Y16.065 Z-4.500 I-0.132 J0.592 K0.000 F30.000
G2 X-0.738 Y15.482 Z-4.500 I-0.602 J0.005 K0.000 F30.000
G2 X-1.527 Y15.992 Z-4.500 I-0.187 J0.576 K0.000 F30.000
G2 X-2.206 Y15.342 Z-4.500 I-0.600 J-0.053 K0.000 F30.000
G2 X-3.040 Y15.774 Z-4.500 I-0.241 J0.556 K0.000 F30.000
G2 X-3.654 Y15.063 Z-4.500 I-0.592 J-0.109 K0.000 F30.000
G2 X-4.526 Y15.414 Z-4.500 I-0.293 J0.531 K0.000 F30.000
G2 X-5.070 Y14.648 Z-4.500 I-0.579 J-0.165 K0.000 F30.000
G2 X-5.971 Y14.914 Z-4.500 I-0.342 J0.500 K0.000 F30.000
G2 X-6.439 Y14.099 Z-4.500 I-0.561 J-0.219 K0.000 F30.000
G2 X-7.361 Y14.279 Z-4.500 I-0.388 J0.466 K0.000 F30.000
G2 X-7.750 Y13.423 Z-4.500 I-0.537 J-0.272 K0.000 F30.000
G2 X-8.685 Y13.514 Z-4.500 I-0.431 J0.427 K0.000 F30.000
G2 X-8.991 Y12.626 Z-4.500 I-0.509 J-0.322 K0.000 F30.000
G2 X-9.930 Y12.628 Z-4.500 I-0.469 J0.384 K0.000 F30.000
G2 X-10.150 Y11.714 Z-4.500 I-0.476 J-0.369 K0.000 F30.000
G2 X-11.086 Y11.627 Z-4.500 I-0.503 J0.337 K0.000 F30.000
G2 X-11.218 Y10.696 Z-4.500 I-0.439 J-0.412 K0.000 F30.000
G2 X-12.141 Y10.520 Z-4.500 I-0.533 J0.288 K0.000 F30.000
G2 X-12.184 Y9.581 Z-4.500 I-0.398 J-0.452 K0.000 F30.000
G2 X-13.086 Y9.318 Z-4.500 I-0.558 J0.236 K0.000 F30.000
G2 X-13.039 Y8.380 Z-4.500 I-0.353 J-0.488 K0.000 F30.000
G2 X-13.912 Y8.032 Z-4.500 I-0.578 J0.182 K0.000 F30.000
G2 X-13.777 Y7.103 Z-4.500 I-0.305 J-0.519 K0.000 F30.000
G2 X-14.613 Y6.673 Z-4.500 I-0.593 J0.126 K0.000 F30.000
G2 X-14.390 Y5.761 Z-4.500 I-0.254 J-0.546 K0.000 F30.000
G2 X-15.181 Y5.254 Z-4.500 I-0.602 J0.069 K0.000 F30.000
G2 X-14.872 Y4.367 Z-4.500 I-0.201 J-0.568 K0.000 F30.000
G2 X-15.612 Y3.787 Z-4.500 I-0.606 J0.012 K0.000 F30.000
G2 X-15.220 Y2.933 Z-4.500 I-0.147 J-0.584 K0.000 F30.000
G2 X-15.901 Y2.286 Z-4.500 I-0.604 J-0.046 K0.000 F30.000
G2 X-15.430 Y1.473 Z-4.500 I-0.090 J-0.595 K0.000 F30.000
G2 X-16.046 Y0.764 Z-4.500 I-0.597 J-0.103 K0.000 F30.000
G2 X-15.500 Y-0.000 Z-4.500 I-0.033 J-0.601 K0.000 F30.000
G2 X-16.046 Y-0.764 Z-4.500 I-0.585 J-0.160 K0.000 F30.000
G2 X-15.430 Y-1.473 Z-4.500 I0.024 J-0.602 K0.000 F30.000
G2 X-15.901 Y-2.286 Z-4.500 I-0.567 J-0.214 K0.000 F30.000
G2 X-15.220 Y-2.933 Z-4.500 I0.081 J-0.597 K0.000 F30.000
G2 X-15.612 Y-3.787 Z-4.500 I-0.544 J-0.267 K0.000 F30.000
G2 X-14.872 Y-4.367 Z-4.500 I0.137 J-0.586 K0.000 F30.000
G2 X-15.181 Y-5.254 Z-4.500 I-0.516 J-0.318 K0.000 F30.000
G2 X-14.390 Y-5.761 Z-4.500 I0.193 J-0.571 K0.000 F30.000
G2 X-14.613 Y-6.673 Z-4.500 I-0.483 J-0.365 K0.000 F30.000
G2 X-13.777 Y-7.103 Z-4.500 I0.246 J-0.550 K0.000 F30.000
G2 X-13.912 Y-8.032 Z-4.500 I-0.447 J-0.410 K0.000 F30.000
G2 X-13.039 Y-8.380 Z-4.500 I0.297 J-0.524 K0.000 F30.000
G2 X-13.086 Y-9.318 Z-4.500 I-0.406 J-0.450 K0.000 F30.000
G2 X-12.184 Y-9.581 Z-4.500 I0.346 J-0.493 K0.000 F30.000
G2 X-12.141 Y-10.520 Z-4.500 I-0.361 J-0.487 K0.000 F30.000
G2 X-11.218 Y-10.696 Z-4.500 I0.391 J-0.458 K0.000 F30.000
G2 X-11.086 Y-11.627 Z-4.500 I-0.313 J-0.519 K0.000 F30.000
G2 X-10.150 Y-11.714 Z-4.500 I0.433 J-0.419 K0.000 F30.000
G2 X-9.930 Y-12.628 Z-4.500 I-0.262 J-0.546 K0.000 F30.000
G2 X-8.991 Y-12.626 Z-4.500 I0.471 J-0.376 K0.000 F30.000
G2 X-8.685 Y-13.514 Z-4.500 I-0.209 J-0.569 K0.000 F30.000
G2 X-7.750 Y-13.423 Z-4.500 I0.504 J-0.330 K0.000 F30.000
G2 X-7.361 Y-14.279 Z-4.500 I-0.154 J-0.586 K0.000 F30.000
G2 X-6.439 Y-14.099 Z-4.500 I0.533 J-0.280 K0.000 F30.000
G2 X-5.971 Y-14.914 Z-4.500 I-0.098 J-0.598 K0.000 F30.000
G2 X-5.070 Y-14.648 Z-4.500 I0.557 J-0.228 K0.000 F30.000
G2 X-4.526 Y-15.414 Z-4.500 I-0.040 J-0.605 K0.000 F30.000
G2 X-3.654 Y-15.063 Z-4.500 I0.577 J-0.174 K0.000 F30.000
G2 X-3.040 Y-15.774 Z-4.500 I0.017 J-0.606 K0.000 F30.000
G2 X-2.206 Y-15.342 Z-4.500 I0.590 J-0.119 K0.000 F30.000
G2 X-1.527 Y-15.992 Z-4.500 I0.075 J-0.601 K0.000 F30.000
G2 X-0.738 Y-15.482 Z-4.500 I0.599 J-0.062 K0.000 F30.000
G2 X0.000 Y-16.065 Z-4.500 I0.132 J-0.592 K0.000 F30.000
G2 X0.738 Y-15.482 Z-4.500 I0.602 J-0.005 K0.000 F30.000
G2 X1.527 Y-15.992 Z-4.500 I0.187 J-0.576 K0.000 F30.000
G2 X2.206 Y-15.342 Z-4.500 I0.600 J0.053 K0.000 F30.000
G2 X3.040 Y-15.774 Z-4.500 I0.241 J-0.556 K0.000 F30.000
G2 X3.654 Y-15.063 Z-4.500 I0.592 J0.109 K0.000 F30.000
G2 X4.526 Y-15.414 Z-4.500 I0.293 J-0.531 K0.000 F30.000
G2 X5.070 Y-14.648 Z-4.500 I0.579 J0.165 K0.000 F30.000
G2 X5.971 Y-14.914 Z-4.500 I0.342 J-0.500 K0.000 F30.000
G2 X6.439 Y-14.099 Z-4.500 I0.561 J0.219 K0.000 F30.000
G2 X7.361 Y-14.279 Z-4.500 I0.388 J-0.466 K0.000 F30.000
G2 X7.750 Y-13.423 Z-4.500 I0.537 J0.272 K0.000 F30.000
G2 X8.685 Y-13.514 Z-4.500 I0.431 J-0.427 K0.000 F30.000
G2 X8.991 Y-12.626 Z-4.500 I0.509 J0.322 K0.000 F30.000
G2 X9.930 Y-12.628 Z-4.500 I0.469 J-0.384 K0.000 F30.000
G2 X10.150 Y-11.714 Z-4.500 I0.476 J0.369 K0.000 F30.000
G2 X11.086 Y-11.627 Z-4.500 I0.503 J-0.337 K0.000 F30.000
G2 X11.218 Y-10.696 Z-4.500 I0.439 J0.412 K0.000 F30.000
G2 X12.141 Y-10.520 Z-4.500 I0.533 J-0.288 K0.000 F30.000
G2 X12.184 Y-9.581 Z-4.500 I0.398 J0.452 K0.000 F30.000
G2 X13.086 Y-9.318 Z-4.500 I0.558 J-0.236 K0.000 F30.000
G2 X13.039 Y-8.380 Z-4.500 I0.353 J0.488 K0.000 F30.000
G2 X13.912 Y-8.032 Z-4.500 I0.578 J-0.182 K0.000 F30.000
G2 X13.777 Y-7.103 Z-4.500 I0.305 J0.519 K0.000 F30.000
G2 X14.613 Y-6.673 Z-4.500 I0.593 J-0.126 K0.000 F30.000
G2 X14.390 Y-5.761 Z-4.500 I0.254 J0.546 K0.000 F30.000
G2 X15.181 Y-5.254 Z-4.500 I0.602 J-0.069 K0.000 F30.000
G2 X14.872 Y-4.367 Z-4.500 I0.201 J0.568 K0.000 F30.000
G2 X15.612 Y-3.787 Z-4.500 I0.606 J-0.012 K0.000 F30.000
G2 X15.220 Y-2.933 Z-4.500 I0.147 J0.584 K0.000 F30.000
G2 X15.901 Y-2.286 Z-4.500 I0.604 J0.046 K0.000 F30.000
G2 X15.430 Y-1.473 Z-4.500 I0.090 J0.595 K0.000 F30.000
G2 X16.046 Y-0.764 Z-4.500 I0.597 J0.103 K0.000 F30.000
G2 X15.500 Y0.000 Z-4.500 I0.033 J0.601 K0.000 F30.000
G2 X16.046 Y0.764 Z-4.500 I0.585 J0.160 K0.000 F30.000
G2 X15.430 Y1.473 Z-4.500 I-0.024 J0.602 K0.000 F30.000
G2 X15.901 Y2.286 Z-4.500 I0.567 J0.214 K0.000 F30.000
G2 X15.220 Y2.933 Z-4.500 I-0.081 J0.597 K0.000 F30.000
G2 X15.612 Y3.787 Z-4.500 I0.544 J0.267 K0.000 F30.000
G2 X14.872 Y4.367 Z-4.500 I-0.137 J0.586 K0.000 F30.000
G2 X15.181 Y5.254 Z-4.500 I0.516 J0.318 K0.000 F30.000
G2 X14.390 Y5.761 Z-4.500 I-0.193 J0.571 K0.000 F30.000
G2 X14.613 Y6.673 Z-4.500 I0.483 J0.365 K0.000 F30.000
G2 X13.777 Y7.103 Z-4.500 I-0.246 J0.550 K0.000 F30.000
G2 X13.912 Y8.032 Z-4.500 I0.447 J0.410 K0.000 F30.000
G2 X13.039 Y8.380 Z-4.500 I-0.297 J0.524 K0.000 F30.000
G2 X13.086 Y9.318 Z-4.500 I0.406 J0.450 K0.000 F30.000
G2 X12.184 Y9.581 Z-4.500 I-0.346 J0.493 K0.000 F30.000
G2 X12.141 Y10.520 Z-4.500 I0.361 J0.487 K0.000 F30.000
G2 X11.218 Y10.696 Z-4.500 I-0.391 J0.458 K0.000 F30.000
G2 X11.086 Y11.627 Z-4.500 I0.313 J0.519 K0.000 F30.000
G1 X11.086 Y11.627 Z-5.000 F30.000
G2 X10.150 Y11.714 Z-5.000 I-0.433 J0.419 K0.000 F30.000
G2 X9.930 Y12.628 Z-5.000 I0.262 J0.546 K0.000 F30.000
G2 X8.991 Y12.626 Z-5.000 I-0.471 J0.376 K0.000 F30.000
G2 X8.685 Y13.514 Z-5.000 I0.209 J0.569 K0.000 F30.000
G2 X7.750 Y13.423 Z-5.000 I-0.504 J0.330 K0.000 F30.000
G2 X7.361 Y14.279 Z-5.000 I0.154 J0.586 K0.000 F30.000
G2 X6.439 Y14.099 Z-5.000 I-0.533 J0.280 K0.000 F30.000
G2 X5.971 Y14.914 Z-5.000 I0.098 J0.598 K0.000 F30.000
G2 X5.070 Y14.648 Z-5.000 I-0.557 J0.228 K0.000 F30.000
G2 X4.526 Y15.414 Z-5.000 I0.040 J0.605 K0.000 F30.000
G2 X3.654 Y15.063 Z-5.000 I-0.577 J0.174 K0.000 F30.000
G2 X3.040 Y15.774 Z-5.000 I-0.017 J0.606 K0.000 F30.000
G2 X2.206 Y15.342 Z-5.000 I-0.590 J0.119 K0.000 F30.000
G2 X1.527 Y15.992 Z-5.000 I-0.075 J0.601 K0.000 F30.000
G2 X0.738 Y15.482 Z-5.000 I-0.599 J0.062 K0.000 F30.000
G2 X0.000 Y16.065 Z-5.000 I-0.132 J0.592 K0.000 F30.000
G2 X-0.738 Y15.482 Z-5.000 I-0.602 J0.005 K0.000 F30.000
G2 X-1.527 Y15.992 Z-5.000 I-0.187 J0.576 K0.000 F30.000
G2 X-2.206 Y15.342 Z-5.000 I-0.600 J-0.053 K0.000 F30.000
G2 X-3.040 Y15.774 Z-5.000 I-0.241 J0.556 K0.000 F30.000
G2 X-3.654 Y15.063 Z-5.000 I-0.592 J-0.109 K0.000 F30.000
G2 X-4.526 Y15.414 Z-5.000 I-0.293 J0.531 K0.000 F30.000
G2 X-5.070 Y14.648 Z-5.000 I-0.579 J-0.165 K0.000 F30.000
G2 X-5.971 Y14.914 Z-5.000 I-0.342 J0.500 K0.000 F30.000
G2 X-6.439 Y14.099 Z-5.000 I-0.561 J-0.219 K0.000 F30.000
G2 X-7.361 Y14.279 Z-5.000 I-0.388 J0.466 K0.000 F30.000
G2 X-7.750 Y13.423 Z-5.000 I-0.537 J-0.272 K0.000 F30.000
G2 X-8.685 Y13.514 Z-5.000 I-0.431 J0.427 K0.000 F30.000
G2 X-8.991 Y12.626 Z-5.000 I-0.509 J-0.322 K0.000 F30.000
G2 X-9.930 Y12.628 Z-5.000 I-0.469 J0.384 K0.000 F30.000
G2 X-10.150 Y11.714 Z-5.000 I-0.476 J-0.369 K0.000 F30.000
G2 X-11.086 Y11.627 Z-5.000 I-0.503 J0.337 K0.000 F30.000
G2 X-11.218 Y10.696 Z-5.000 I-0.439 J-0.412 K0.000 F30.000
G2 X-12.141 Y10.520 Z-5.000 I-0.533 J0.288 K0.000 F30.000
G2 X-12.184 Y9.581 Z-5.000 I-0.398 J-0.452 K0.000 F30.000
G2 X-13.086 Y9.318 Z-5.000 I-0.558 J0.236 K0.000 F30.000
G2 X-13.039 Y8.380 Z-5.000 I-0.353 J-0.488 K0.000 F30.000
G2 X-13.912 Y8.032 Z-5.000 I-0.578 J0.182 K0.000 F30.000
G2 X-13.777 Y7.103 Z-5.000 I-0.305 J-0.519 K0.000 F30.000
G2 X-14.613 Y6.673 Z-5.000 I-0.593 J0.126 K0.000 F30.000
G2 X-14.390 Y5.761 Z-5.000 I-0.254 J-0.546 K0.000 F30.000
G2 X-15.181 Y5.254 Z-5.000 I-0.602 J0.069 K0.000 F30.000
G2 X-14.872 Y4.367 Z-5.000 I-0.201 J-0.568 K0.000 F30.000
G2 X-15.612 Y3.787 Z-5.000 I-0.606 J0.012 K0.000 F30.000
G2 X-15.220 Y2.933 Z-5.000 I-0.147 J-0.584 K0.000 F30.000
G2 X-15.901 Y2.286 Z-5.000 I-0.604 J-0.046 K0.000 F30.000
G2 X-15.430 Y1.473 Z-5.000 I-0.090 J-0.595 K0.000 F30.000
G2 X-16.046 Y0.764 Z-5.000 I-0.597 J-0.103 K0.000 F30.000
G2 X-15.500 Y-0.000 Z-5.000 I-0.033 J-0.601 K0.000 F30.000
G2 X-16.046 Y-0.764 Z-5.000 I-0.585 J-0.160 K0.000 F30.000
G2 X-15.430 Y-1.473 Z-5.000 I0.024 J-0.602 K0.000 F30.000
G2 X-15.901 Y-2.286 Z-5.000 I-0.567 J-0.214 K0.000 F30.000
G2 X-15.220 Y-2.933 Z-5.000 I0.081 J-0.597 K0.000 F30.000
G2 X-15.612 Y-3.787 Z-5.000 I-0.544 J-0.267 K0.000 F30.000
G2 X-14.872 Y-4.367 Z-5.000 I0.137 J-0.586 K0.000 F30.000
G2 X-15.181 Y-5.254 Z-5.000 I-0.516 J-0.318 K0.000 F30.000
G2 X-14.390 Y-5.761 Z-5.000 I0.193 J-0.571 K0.000 F30.000
G2 X-14.613 Y-6.673 Z-5.000 I-0.483 J-0.365 K0.000 F30.000
G2 X-13.777 Y-7.103 Z-5.000 I0.246 J-0.550 K0.000 F30.000
G2 X-13.912 Y-8.032 Z-5.000 I-0.447 J-0.410 K0.000 F30.000
G2 X-13.039 Y-8.380 Z-5.000 I0.297 J-0.524 K0.000 F30.000
G2 X-13.086 Y-9.318 Z-5.000 I-0.406 J-0.450 K0.000 F30.000
G2 X-12.184 Y-9.581 Z-5.000 I0.346 J-0.493 K0.000 F30.000
G2 X-12.141 Y-10.520 Z-5.000 I-0.361 J-0.487 K0.000 F30.000
G2 X-11.218 Y-10.696 Z-5.000 I0.391 J-0.458 K0.000 F30.000
G2 X-11.086 Y-11.627 Z-5.000 I-0.313 J-0.519 K0.000 F30.000
G2 X-10.150 Y-11.714 Z-5.000 I0.433 J-0.419 K0.000 F30.000
G2 X-9.930 Y-12.628 Z-5.000 I-0.262 J-0.546 K0.000 F30.000
G2 X-8.991 Y-12.626 Z-5.000 I0.471 J-0.376 K0.000 F30.000
G2 X-8.685 Y-13.514 Z-5.000 I-0.209 J-0.569 K0.000 F30.000
G2 X-7.750 Y-13.423 Z-5.000 I0.504 J-0.330 K0.000 F30.000
G2 X-7.361 Y-14.279 Z-5.000 I-0.154 J-0.586 K0.000 F30.000
G2 X-6.439 Y-14.099 Z-5.000 I0.533 J-0.280 K0.000 F30.000
G2 X-5.971 Y-14.914 Z-5.000 I-0.098 J-0.598 K0.000 F30.000
G2 X-5.070 Y-14.648 Z-5.000 I0.557 J-0.228 K0.000 F30.000
G2 X-4.526 Y-15.414 Z-5.000 I-0.040 J-0.605 K0.000 F30.000
G2 X-3.654 Y-15.063 Z-5.000 I0.577 J-0.174 K0.000 F30.000
G2 X-3.040 Y-15.774 Z-5.000 I0.017 J-0.606 K0.000 F30.000
G2 X-2.206 Y-15.342 Z-5.000 I0.590 J-0.119 K0.000 F30.000
G2 X-1.527 Y-15.992 Z-5.000 I0.075 J-0.601 K0.000 F30.000
G2 X-0.738 Y-15.482 Z-5.000 I0.599 J-0.062 K0.000 F30.000
G2 X0.000 Y-16.065 Z-5.000 I0.132 J-0.592 K0.000 F30.000
G2 X0.738 Y-15.482 Z-5.000 I0.602 J-0.005 K0.000 F30.000
G2 X1.527 Y-15.992 Z-5.000 I0.187 J-0.576 K0.000 F30.000
G2 X2.206 Y-15.342 Z-5.000 I0.600 J0.053 K0.000 F30.000
G2 X3.040 Y-15.774 Z-5.000 I0.241 J-0.556 K0.000 F30.000
G2 X3.654 Y-15.063 Z-5.000 I0.592 J0.109 K0.000 F30.000
G2 X4.526 Y-15.414 Z-5.000 I0.293 J-0.531 K0.000 F30.000
G2 X5.070 Y-14.648 Z-5.000 I0.579 J0.165 K0.000 F30.000
G2 X5.971 Y-14.914 Z-5.000 I0.342 J-0.500 K0.000 F30.000
G2 X6.439 Y-14.099 Z-5.000 I0.561 J0.219 K0.000 F30.000
G2 X7.361 Y-14.279 Z-5.000 I0.388 J-0.466 K0.000 F30.000
G2 X7.750 Y-13.423 Z-5.000 I0.537 J0.272 K0.000 F30.000
G2 X8.685 Y-13.514 Z-5.000 I0.431 J-0.427 K0.000 F30.000
G2 X8.991 Y-12.626 Z-5.000 I0.509 J0.322 K0.000 F30.000
G2 X9.930 Y-12.628 Z-5.000 I0.469 J-0.384 K0.000 F30.000
G2 X10.150 Y-11.714 Z-5.000 I0.476 J0.369 K0.000 F30.000
G2 X11.086 Y-11.627 Z-5.000 I0.503 J-0.337 K0.000 F30.000
G2 X11.218 Y-10.696 Z-5.000 I0.439 J0.412 K0.000 F30.000
G2 X12.141 Y-10.520 Z-5.000 I0.533 J-0.288 K0.000 F30.000
G2 X12.184 Y-9.581 Z-5.000 I0.398 J0.452 K0.000 F30.000
G2 X13.086 Y-9.318 Z-5.000 I0.558 J-0.236 K0.000 F30.000
G2 X13.039 Y-8.380 Z-5.000 I0.353 J0.488 K0.000 F30.000
G2 X13.912 Y-8.032 Z-5.000 I0.578 J-0.182 K0.000 F30.000
G2 X13.777 Y-7.103 Z-5.000 I0.305 J0.519 K0.000 F30.000
G2 X14.613 Y-6.673 Z-5.000 I0.593 J-0.126 K0.000 F30.000
G2 X14.390 Y-5.761 Z-5.000 I0.254 J0.546 K0.000 F30.000
G2 X15.181 Y-5.254 Z-5.000 I0.602 J-0.069 K0.000 F30.000
G2 X14.872 Y-4.367 Z-5.000 I0.201 J0.568 K0.000 F30.000
G2 X15.612 Y-3.787 Z-5.000 I0.606 J-0.012 K0.000 F30.000
G2 X15.220 Y-2.933 Z-5.000 I0.147 J0.584 K0.000 F30.000
G2 X15.901 Y-2.286 Z-5.000 I0.604 J0.046 K0.000 F30.000
G2 X15.430 Y-1.473 Z-5.000 I0.090 J0.595 K0.000 F30.000
G2 X16.046 Y-0.764 Z-5.000 I0.597 J0.103 K0.000 F30.000
G2 X15.500 Y0.000 Z-5.000 I0.033 J0.601 K0.000 F30.000
G2 X16.046 Y0.764 Z-5.000 I0.585 J0.160 K0.000 F30.000
G2 X15.430 Y1.473 Z-5.000 I-0.024 J0.602 K0.000 F30.000
G2 X15.901 Y2.286 Z-5.000 I0.567 J0.214 K0.000 F30.000
G2 X15.220 Y2.933 Z-5.000 I-0.081 J0.597 K0.000 F30.000
G2 X15.612 Y3.787 Z-5.000 I0.544 J0.267 K0.000 F30.000
G2 X14.872 Y4.367 Z-5.000 I-0.137 J0.586 K0.000 F30.000
G2 X15.181 Y5.254 Z-5.000 I0.516 J0.318 K0.000 F30.000
G2 X14.390 Y5.761 Z-5.000 I-0.193 J0.571 K0.000 F30.000
G2 X14.613 Y6.673 Z-5.000 I0.483 J0.365 K0.000 F30.000
G2 X13.777 Y7.103 Z-5.000 I-0.246 J0.550 K0.000 F30.000
G2 X13.912 Y8.032 Z-5.000 I0.447 J0.410 K0.000 F30.000
G2 X13.039 Y8.380 Z-5.000 I-0.297 J0.524 K0.000 F30.000
G2 X13.086 Y9.318 Z-5.000 I0.406 J0.450 K0.000 F30.000
G2 X12.184 Y9.581 Z-5.000 I-0.346 J0.493 K0.000 F30.000
G2 X12.141 Y10.520 Z-5.000 I0.361 J0.487 K0.000 F30.000
G2 X11.218 Y10.696 Z-5.000 I-0.391 J0.458 K0.000 F30.000
G2 X11.086 Y11.627 Z-5.000 I0.313 J0.519 K0.000 F30.000
G0 Z5.000
G0 Z5.000
(Finish operation: 1mm-gear)
(Begin postamble)
M5
G17 G90
M2
