(Exported by FreeCAD)
(Post Processor: grbl_post)
(Output Time:2025-09-05 20:15:01.100140)
(Begin preamble)
G17 G90
G21
(Begin operation: Fixture)
(Path: Fixture)
G54
(Finish operation: Fixture)
(Begin operation: 2mm-6-Endmill003)
(Path: 2mm-6-Endmill003)
(2mm-6-Endmill003)
(Begin toolchange)
( M6 T2 )
(Finish operation: 2mm-6-Endmill003)
(Begin operation: Pocket_Shape043)
(Path: Pocket_Shape043)
(Pocket_Shape043)
G0 Z5.000
G0
G0 X-0.040 Y0.187
G0 X-0.040 Y0.187 Z1.000
G1 X-0.040 Y0.187 Z-1.000 F30.000
G3 X0.040 Y-0.187 Z-1.000 I0.040 J-0.187 K0.000 F30.000
G3 X-0.040 Y0.187 Z-1.000 I-0.040 J0.187 K0.000 F30.000
G0 Z5.000
G0 X-0.144 Y0.676 Z5.000
G0 X-0.144 Y0.676 Z1.000
G1 X-0.144 Y0.676 Z-1.000 F30.000
G3 X0.144 Y-0.676 Z-1.000 I0.144 J-0.676 K0.000 F30.000
G3 X0.676 Y0.144 Z-1.000 I-0.144 J0.676 K0.000 F30.000
G3 X-0.144 Y0.676 Z-1.000 I-0.676 J-0.144 K0.000 F30.000
G0 Z5.000
G0 X-0.248 Y1.166 Z5.000
G0 X-0.248 Y1.166 Z1.000
G1 X-0.248 Y1.166 Z-1.000 F30.000
G3 X0.248 Y-1.166 Z-1.000 I0.248 J-1.166 K0.000 F30.000
G3 X-0.248 Y1.166 Z-1.000 I-0.248 J1.166 K0.000 F30.000
G0 Z5.000
G0 X-0.581 Y2.733 Z5.000
G0 X-0.581 Y2.733 Z1.000
G1 X-0.581 Y2.733 Z-1.000 F30.000
G3 X0.581 Y-2.733 Z-1.000 I0.581 J-2.733 K0.000 F30.000
G3 X-0.581 Y2.733 Z-1.000 I-0.581 J2.733 K0.000 F30.000
G0 Z5.000
G0 X-0.914 Y4.300 Z5.000
G0 X-0.914 Y4.300 Z1.000
G1 X-0.914 Y4.300 Z-1.000 F30.000
G3 X0.914 Y-4.300 Z-1.000 I0.914 J-4.300 K0.000 F30.000
G3 X-0.914 Y4.300 Z-1.000 I-0.914 J4.300 K0.000 F30.000
G0 Z5.000
G0 X-1.247 Y5.868 Z5.000
G0 X-1.247 Y5.868 Z1.000
G1 X-1.247 Y5.868 Z-1.000 F30.000
G3 X1.247 Y-5.868 Z-1.000 I1.247 J-5.868 K0.000 F30.000
G3 X-1.247 Y5.868 Z-1.000 I-1.247 J5.868 K0.000 F30.000
G0 Z5.000
G0 X-0.040 Y0.187 Z5.000
G0 X-0.040 Y0.187 Z1.000
G1 X-0.040 Y0.187 Z-2.000 F30.000
G3 X0.040 Y-0.187 Z-2.000 I0.040 J-0.187 K0.000 F30.000
G3 X-0.040 Y0.187 Z-2.000 I-0.040 J0.187 K0.000 F30.000
G0 Z5.000
G0 X-0.144 Y0.676 Z5.000
G0 X-0.144 Y0.676 Z1.000
G1 X-0.144 Y0.676 Z-2.000 F30.000
G3 X0.144 Y-0.676 Z-2.000 I0.144 J-0.676 K0.000 F30.000
G3 X0.676 Y0.144 Z-2.000 I-0.144 J0.676 K0.000 F30.000
G3 X-0.144 Y0.676 Z-2.000 I-0.676 J-0.144 K0.000 F30.000
G0 Z5.000
G0 X-0.248 Y1.166 Z5.000
G0 X-0.248 Y1.166 Z1.000
G1 X-0.248 Y1.166 Z-2.000 F30.000
G3 X0.248 Y-1.166 Z-2.000 I0.248 J-1.166 K0.000 F30.000
G3 X-0.248 Y1.166 Z-2.000 I-0.248 J1.166 K0.000 F30.000
G0 Z5.000
G0 X-0.581 Y2.733 Z5.000
G0 X-0.581 Y2.733 Z1.000
G1 X-0.581 Y2.733 Z-2.000 F30.000
G3 X0.581 Y-2.733 Z-2.000 I0.581 J-2.733 K0.000 F30.000
G3 X-0.581 Y2.733 Z-2.000 I-0.581 J2.733 K0.000 F30.000
G0 Z5.000
G0 X-0.914 Y4.300 Z5.000
G0 X-0.914 Y4.300 Z1.000
G1 X-0.914 Y4.300 Z-2.000 F30.000
G3 X0.914 Y-4.300 Z-2.000 I0.914 J-4.300 K0.000 F30.000
G3 X-0.914 Y4.300 Z-2.000 I-0.914 J4.300 K0.000 F30.000
G0 Z5.000
G0 X-1.247 Y5.868 Z5.000
G0 X-1.247 Y5.868 Z1.000
G1 X-1.247 Y5.868 Z-2.000 F30.000
G3 X1.247 Y-5.868 Z-2.000 I1.247 J-5.868 K0.000 F30.000
G3 X-1.247 Y5.868 Z-2.000 I-1.247 J5.868 K0.000 F30.000
G0 Z5.000
G0 Z5.000
(Finish operation: Pocket_Shape043)
(Begin postamble)
M5
G17 G90
M2
