(Exported by FreeCAD)
(Post Processor: grbl_post)
(Output Time:2025-08-26 05:39:35.864180)
(Begin preamble)
G17 G90
G21
(Begin operation: Fixture)
(Path: Fixture)
G54
(Finish operation: Fixture)
(Begin operation: 4mm-10-Endmill001)
(Path: 4mm-10-Endmill001)
(4mm-10-Endmill001)
(Begin toolchange)
( M6 T6 )
(Finish operation: 4mm-10-Endmill001)
(Begin operation: 4mm-outline)
(Path: 4mm-outline)
(4mm-outline)
(Compensated Tool Path. Diameter: 4.0)
G0 Z5.000
G0 X16.970 Y16.970
G0 Z3.000
G1 X16.970 Y16.970 Z-1.000 F60.000
G2 X2.190 Y-23.899 Z-1.000 I-16.970 J-16.970 K0.000 F60.000
G2 X-2.190 Y23.899 Z-1.000 I-2.190 J23.899 K0.000 F60.000
G2 X16.970 Y16.970 Z-1.000 I2.190 J-23.899 K0.000 F60.000
G1 X16.970 Y16.970 Z-2.000 F60.000
G2 X2.190 Y-23.899 Z-2.000 I-16.970 J-16.970 K0.000 F60.000
G2 X-2.190 Y23.899 Z-2.000 I-2.190 J23.899 K0.000 F60.000
G2 X16.970 Y16.970 Z-2.000 I2.190 J-23.899 K0.000 F60.000
G1 X16.970 Y16.970 Z-3.000 F60.000
G2 X2.190 Y-23.899 Z-3.000 I-16.970 J-16.970 K0.000 F60.000
G2 X-2.190 Y23.899 Z-3.000 I-2.190 J23.899 K0.000 F60.000
G2 X16.970 Y16.970 Z-3.000 I2.190 J-23.899 K0.000 F60.000
G1 X16.970 Y16.970 Z-4.000 F60.000
G2 X2.190 Y-23.899 Z-4.000 I-16.970 J-16.970 K0.000 F60.000
G2 X-2.190 Y23.899 Z-4.000 I-2.190 J23.899 K0.000 F60.000
G2 X16.970 Y16.970 Z-4.000 I2.190 J-23.899 K0.000 F60.000
G1 X16.970 Y16.970 Z-5.000 F60.000
G2 X2.190 Y-23.899 Z-5.000 I-16.970 J-16.970 K0.000 F60.000
G2 X-2.190 Y23.899 Z-5.000 I-2.190 J23.899 K0.000 F60.000
G2 X16.970 Y16.970 Z-5.000 I2.190 J-23.899 K0.000 F60.000
G1 X16.970 Y16.970 Z-6.000 F60.000
G2 X2.190 Y-23.899 Z-6.000 I-16.970 J-16.970 K0.000 F60.000
G2 X-2.190 Y23.899 Z-6.000 I-2.190 J23.899 K0.000 F60.000
G2 X16.970 Y16.970 Z-6.000 I2.190 J-23.899 K0.000 F60.000
G1 X16.970 Y16.970 Z-7.000 F60.000
G2 X2.190 Y-23.899 Z-7.000 I-16.970 J-16.970 K0.000 F60.000
G2 X-2.190 Y23.899 Z-7.000 I-2.190 J23.899 K0.000 F60.000
G2 X16.970 Y16.970 Z-7.000 I2.190 J-23.899 K0.000 F60.000
G1 X16.970 Y16.970 Z-8.000 F60.000
G2 X2.190 Y-23.899 Z-8.000 I-16.970 J-16.970 K0.000 F60.000
G2 X-2.190 Y23.899 Z-8.000 I-2.190 J23.899 K0.000 F60.000
G2 X16.970 Y16.970 Z-8.000 I2.190 J-23.899 K0.000 F60.000
G1 X16.970 Y16.970 Z-9.000 F60.000
G2 X2.190 Y-23.899 Z-9.000 I-16.970 J-16.970 K0.000 F60.000
G2 X-2.190 Y23.899 Z-9.000 I-2.190 J23.899 K0.000 F60.000
G2 X16.970 Y16.970 Z-9.000 I2.190 J-23.899 K0.000 F60.000
G1 X16.970 Y16.970 Z-10.000 F60.000
G2 X2.190 Y-23.899 Z-10.000 I-16.970 J-16.970 K0.000 F60.000
G2 X-2.190 Y23.899 Z-10.000 I-2.190 J23.899 K0.000 F60.000
G2 X16.970 Y16.970 Z-10.000 I2.190 J-23.899 K0.000 F60.000
G1 X16.970 Y16.970 Z-10.500 F60.000
G2 X2.190 Y-23.899 Z-10.500 I-16.970 J-16.970 K0.000 F60.000
G2 X-2.190 Y23.899 Z-10.500 I-2.190 J23.899 K0.000 F60.000
G2 X16.970 Y16.970 Z-10.500 I2.190 J-23.899 K0.000 F60.000
G0 Z5.000
G0 Z5.000
(Finish operation: 4mm-outline)
(Begin postamble)
M5
G17 G90
M2
