(Exported by FreeCAD)
(Post Processor: grbl_post)
(Output Time:2025-07-25 17:36:28.516576)
(Begin preamble)
G17 G90
G21
(Begin operation: Fixture)
(Path: Fixture)
G54
(Finish operation: Fixture)
(Begin operation: 1mm-3-Endmill001)
(Path: 1mm-3-Endmill001)
(1mm-3-Endmill001)
(Begin toolchange)
( M6 T2 )
(Finish operation: 1mm-3-Endmill001)
(Begin operation: 1mm-nuts-pocket)
(Path: 1mm-nuts-pocket)
(1mm-nuts-pocket)
G0 Z5.000
G0
G0 X-1.172 Y-12.102
G0 X-1.172 Y-12.102 Z3.000
G1 X-1.172 Y-12.102 Z-5.500 F30.000
G1 X0.425 Y-10.280 Z-5.500 F30.000
G1 X-0.354 Y-7.986 Z-5.500 F30.000
G1 X-2.730 Y-7.514 Z-5.500 F30.000
G1 X-4.327 Y-9.335 Z-5.500 F30.000
G1 X-3.548 Y-11.629 Z-5.500 F30.000
G1 X-1.172 Y-12.102 Z-5.500 F30.000
G0 Z5.000
G0 X-1.584 Y-7.946 Z5.000
G0 X-1.584 Y-7.946 Z3.000
G1 X-1.584 Y-7.946 Z-5.500 F30.000
G3 X-2.319 Y-11.670 Z-5.500 I-0.368 J-1.862 K0.000 F30.000
G3 X-0.089 Y-10.175 Z-5.500 I0.368 J1.862 K0.000 F30.000
G3 X-1.584 Y-7.946 Z-5.500 I-1.862 J0.368 K0.000 F30.000
G0 Z5.000
G0 X-1.172 Y-12.102 Z5.000
G0 X-1.172 Y-12.102 Z3.000
G1 X-1.172 Y-12.102 Z-6.000 F30.000
G1 X0.425 Y-10.280 Z-6.000 F30.000
G1 X-0.354 Y-7.986 Z-6.000 F30.000
G1 X-2.730 Y-7.514 Z-6.000 F30.000
G1 X-4.327 Y-9.335 Z-6.000 F30.000
G1 X-3.548 Y-11.629 Z-6.000 F30.000
G1 X-1.172 Y-12.102 Z-6.000 F30.000
G0 Z5.000
G0 X-1.584 Y-7.946 Z5.000
G0 X-1.584 Y-7.946 Z3.000
G1 X-1.584 Y-7.946 Z-6.000 F30.000
G3 X-2.319 Y-11.670 Z-6.000 I-0.368 J-1.862 K0.000 F30.000
G3 X-0.089 Y-10.175 Z-6.000 I0.368 J1.862 K0.000 F30.000
G3 X-1.584 Y-7.946 Z-6.000 I-1.862 J0.368 K0.000 F30.000
G0 Z5.000
G0 X-1.172 Y-12.102 Z5.000
G0 X-1.172 Y-12.102 Z3.000
G1 X-1.172 Y-12.102 Z-6.500 F30.000
G1 X0.425 Y-10.280 Z-6.500 F30.000
G1 X-0.354 Y-7.986 Z-6.500 F30.000
G1 X-2.730 Y-7.514 Z-6.500 F30.000
G1 X-4.327 Y-9.335 Z-6.500 F30.000
G1 X-3.548 Y-11.629 Z-6.500 F30.000
G1 X-1.172 Y-12.102 Z-6.500 F30.000
G0 Z5.000
G0 X-1.584 Y-7.946 Z5.000
G0 X-1.584 Y-7.946 Z3.000
G1 X-1.584 Y-7.946 Z-6.500 F30.000
G3 X-2.319 Y-11.670 Z-6.500 I-0.368 J-1.862 K0.000 F30.000
G3 X-0.089 Y-10.175 Z-6.500 I0.368 J1.862 K0.000 F30.000
G3 X-1.584 Y-7.946 Z-6.500 I-1.862 J0.368 K0.000 F30.000
G0 Z5.000
G0 X-1.172 Y-12.102 Z5.000
G0 X-1.172 Y-12.102 Z3.000
G1 X-1.172 Y-12.102 Z-7.000 F30.000
G1 X0.425 Y-10.280 Z-7.000 F30.000
G1 X-0.354 Y-7.986 Z-7.000 F30.000
G1 X-2.730 Y-7.514 Z-7.000 F30.000
G1 X-4.327 Y-9.335 Z-7.000 F30.000
G1 X-3.548 Y-11.629 Z-7.000 F30.000
G1 X-1.172 Y-12.102 Z-7.000 F30.000
G0 Z5.000
G0 X-1.584 Y-7.946 Z5.000
G0 X-1.584 Y-7.946 Z3.000
G1 X-1.584 Y-7.946 Z-7.000 F30.000
G3 X-2.319 Y-11.670 Z-7.000 I-0.368 J-1.862 K0.000 F30.000
G3 X-0.089 Y-10.175 Z-7.000 I0.368 J1.862 K0.000 F30.000
G3 X-1.584 Y-7.946 Z-7.000 I-1.862 J0.368 K0.000 F30.000
G0 Z5.000
G0 X-1.172 Y-12.102 Z5.000
G0 X-1.172 Y-12.102 Z3.000
G1 X-1.172 Y-12.102 Z-7.200 F30.000
G1 X0.425 Y-10.280 Z-7.200 F30.000
G1 X-0.354 Y-7.986 Z-7.200 F30.000
G1 X-2.730 Y-7.514 Z-7.200 F30.000
G1 X-4.327 Y-9.335 Z-7.200 F30.000
G1 X-3.548 Y-11.629 Z-7.200 F30.000
G1 X-1.172 Y-12.102 Z-7.200 F30.000
G0 Z5.000
G0 X-1.584 Y-7.946 Z5.000
G0 X-1.584 Y-7.946 Z3.000
G1 X-1.584 Y-7.946 Z-7.200 F30.000
G3 X-2.319 Y-11.670 Z-7.200 I-0.368 J-1.862 K0.000 F30.000
G3 X-0.089 Y-10.175 Z-7.200 I0.368 J1.862 K0.000 F30.000
G3 X-1.584 Y-7.946 Z-7.200 I-1.862 J0.368 K0.000 F30.000
G0 Z5.000
G0 Z5.000
(Finish operation: 1mm-nuts-pocket)
(Begin operation: 1mm-nuts-pocket-2)
(Path: 1mm-nuts-pocket-2)
(1mm-nuts-pocket-2)
G0 Z5.000
G0
G0 X9.335 Y-4.327
G0 X9.335 Y-4.327 Z3.000
G1 X9.335 Y-4.327 Z-5.500 F30.000
G1 X11.629 Y-3.548 Z-5.500 F30.000
G1 X12.102 Y-1.172 Z-5.500 F30.000
G1 X10.280 Y0.425 Z-5.500 F30.000
G1 X7.986 Y-0.354 Z-5.500 F30.000
G1 X7.514 Y-2.730 Z-5.500 F30.000
G1 X9.335 Y-4.327 Z-5.500 F30.000
G0 Z5.000
G0 X10.175 Y-0.089 Z5.000
G0 X10.175 Y-0.089 Z3.000
G1 X10.175 Y-0.089 Z-5.500 F30.000
G3 X9.440 Y-3.813 Z-5.500 I-0.368 J-1.862 K0.000 F30.000
G3 X11.670 Y-2.319 Z-5.500 I0.368 J1.862 K0.000 F30.000
G3 X10.175 Y-0.089 Z-5.500 I-1.862 J0.368 K0.000 F30.000
G0 Z5.000
G0 X9.335 Y-4.327 Z5.000
G0 X9.335 Y-4.327 Z3.000
G1 X9.335 Y-4.327 Z-6.000 F30.000
G1 X11.629 Y-3.548 Z-6.000 F30.000
G1 X12.102 Y-1.172 Z-6.000 F30.000
G1 X10.280 Y0.425 Z-6.000 F30.000
G1 X7.986 Y-0.354 Z-6.000 F30.000
G1 X7.514 Y-2.730 Z-6.000 F30.000
G1 X9.335 Y-4.327 Z-6.000 F30.000
G0 Z5.000
G0 X10.175 Y-0.089 Z5.000
G0 X10.175 Y-0.089 Z3.000
G1 X10.175 Y-0.089 Z-6.000 F30.000
G3 X9.440 Y-3.813 Z-6.000 I-0.368 J-1.862 K0.000 F30.000
G3 X11.670 Y-2.319 Z-6.000 I0.368 J1.862 K0.000 F30.000
G3 X10.175 Y-0.089 Z-6.000 I-1.862 J0.368 K0.000 F30.000
G0 Z5.000
G0 X9.335 Y-4.327 Z5.000
G0 X9.335 Y-4.327 Z3.000
G1 X9.335 Y-4.327 Z-6.500 F30.000
G1 X11.629 Y-3.548 Z-6.500 F30.000
G1 X12.102 Y-1.172 Z-6.500 F30.000
G1 X10.280 Y0.425 Z-6.500 F30.000
G1 X7.986 Y-0.354 Z-6.500 F30.000
G1 X7.514 Y-2.730 Z-6.500 F30.000
G1 X9.335 Y-4.327 Z-6.500 F30.000
G0 Z5.000
G0 X10.175 Y-0.089 Z5.000
G0 X10.175 Y-0.089 Z3.000
G1 X10.175 Y-0.089 Z-6.500 F30.000
G3 X9.440 Y-3.813 Z-6.500 I-0.368 J-1.862 K0.000 F30.000
G3 X11.670 Y-2.319 Z-6.500 I0.368 J1.862 K0.000 F30.000
G3 X10.175 Y-0.089 Z-6.500 I-1.862 J0.368 K0.000 F30.000
G0 Z5.000
G0 X9.335 Y-4.327 Z5.000
G0 X9.335 Y-4.327 Z3.000
G1 X9.335 Y-4.327 Z-7.000 F30.000
G1 X11.629 Y-3.548 Z-7.000 F30.000
G1 X12.102 Y-1.172 Z-7.000 F30.000
G1 X10.280 Y0.425 Z-7.000 F30.000
G1 X7.986 Y-0.354 Z-7.000 F30.000
G1 X7.514 Y-2.730 Z-7.000 F30.000
G1 X9.335 Y-4.327 Z-7.000 F30.000
G0 Z5.000
G0 X10.175 Y-0.089 Z5.000
G0 X10.175 Y-0.089 Z3.000
G1 X10.175 Y-0.089 Z-7.000 F30.000
G3 X9.440 Y-3.813 Z-7.000 I-0.368 J-1.862 K0.000 F30.000
G3 X11.670 Y-2.319 Z-7.000 I0.368 J1.862 K0.000 F30.000
G3 X10.175 Y-0.089 Z-7.000 I-1.862 J0.368 K0.000 F30.000
G0 Z5.000
G0 X9.335 Y-4.327 Z5.000
G0 X9.335 Y-4.327 Z3.000
G1 X9.335 Y-4.327 Z-7.200 F30.000
G1 X11.629 Y-3.548 Z-7.200 F30.000
G1 X12.102 Y-1.172 Z-7.200 F30.000
G1 X10.280 Y0.425 Z-7.200 F30.000
G1 X7.986 Y-0.354 Z-7.200 F30.000
G1 X7.514 Y-2.730 Z-7.200 F30.000
G1 X9.335 Y-4.327 Z-7.200 F30.000
G0 Z5.000
G0 X10.175 Y-0.089 Z5.000
G0 X10.175 Y-0.089 Z3.000
G1 X10.175 Y-0.089 Z-7.200 F30.000
G3 X9.440 Y-3.813 Z-7.200 I-0.368 J-1.862 K0.000 F30.000
G3 X11.670 Y-2.319 Z-7.200 I0.368 J1.862 K0.000 F30.000
G3 X10.175 Y-0.089 Z-7.200 I-1.862 J0.368 K0.000 F30.000
G0 Z5.000
G0 Z5.000
(Finish operation: 1mm-nuts-pocket-2)
(Begin operation: 1mm-nuts-pocket-3)
(Path: 1mm-nuts-pocket-3)
(1mm-nuts-pocket-3)
G0 Z5.000
G0
G0 X2.730 Y7.514
G0 X2.730 Y7.514 Z3.000
G1 X2.730 Y7.514 Z-5.500 F30.000
G1 X4.327 Y9.335 Z-5.500 F30.000
G1 X3.548 Y11.629 Z-5.500 F30.000
G1 X1.172 Y12.102 Z-5.500 F30.000
G1 X-0.425 Y10.280 Z-5.500 F30.000
G1 X0.354 Y7.986 Z-5.500 F30.000
G1 X2.730 Y7.514 Z-5.500 F30.000
G0 Z5.000
G0 X2.319 Y11.670 Z5.000
G0 X2.319 Y11.670 Z3.000
G1 X2.319 Y11.670 Z-5.500 F30.000
G3 X0.089 Y10.175 Z-5.500 I-0.368 J-1.862 K0.000 F30.000
G3 X1.584 Y7.946 Z-5.500 I1.862 J-0.368 K0.000 F30.000
G3 X2.319 Y11.670 Z-5.500 I0.368 J1.862 K0.000 F30.000
G0 Z5.000
G0 X2.730 Y7.514 Z5.000
G0 X2.730 Y7.514 Z3.000
G1 X2.730 Y7.514 Z-6.000 F30.000
G1 X4.327 Y9.335 Z-6.000 F30.000
G1 X3.548 Y11.629 Z-6.000 F30.000
G1 X1.172 Y12.102 Z-6.000 F30.000
G1 X-0.425 Y10.280 Z-6.000 F30.000
G1 X0.354 Y7.986 Z-6.000 F30.000
G1 X2.730 Y7.514 Z-6.000 F30.000
G0 Z5.000
G0 X2.319 Y11.670 Z5.000
G0 X2.319 Y11.670 Z3.000
G1 X2.319 Y11.670 Z-6.000 F30.000
G3 X0.089 Y10.175 Z-6.000 I-0.368 J-1.862 K0.000 F30.000
G3 X1.584 Y7.946 Z-6.000 I1.862 J-0.368 K0.000 F30.000
G3 X2.319 Y11.670 Z-6.000 I0.368 J1.862 K0.000 F30.000
G0 Z5.000
G0 X2.730 Y7.514 Z5.000
G0 X2.730 Y7.514 Z3.000
G1 X2.730 Y7.514 Z-6.500 F30.000
G1 X4.327 Y9.335 Z-6.500 F30.000
G1 X3.548 Y11.629 Z-6.500 F30.000
G1 X1.172 Y12.102 Z-6.500 F30.000
G1 X-0.425 Y10.280 Z-6.500 F30.000
G1 X0.354 Y7.986 Z-6.500 F30.000
G1 X2.730 Y7.514 Z-6.500 F30.000
G0 Z5.000
G0 X2.319 Y11.670 Z5.000
G0 X2.319 Y11.670 Z3.000
G1 X2.319 Y11.670 Z-6.500 F30.000
G3 X0.089 Y10.175 Z-6.500 I-0.368 J-1.862 K0.000 F30.000
G3 X1.584 Y7.946 Z-6.500 I1.862 J-0.368 K0.000 F30.000
G3 X2.319 Y11.670 Z-6.500 I0.368 J1.862 K0.000 F30.000
G0 Z5.000
G0 X2.730 Y7.514 Z5.000
G0 X2.730 Y7.514 Z3.000
G1 X2.730 Y7.514 Z-7.000 F30.000
G1 X4.327 Y9.335 Z-7.000 F30.000
G1 X3.548 Y11.629 Z-7.000 F30.000
G1 X1.172 Y12.102 Z-7.000 F30.000
G1 X-0.425 Y10.280 Z-7.000 F30.000
G1 X0.354 Y7.986 Z-7.000 F30.000
G1 X2.730 Y7.514 Z-7.000 F30.000
G0 Z5.000
G0 X2.319 Y11.670 Z5.000
G0 X2.319 Y11.670 Z3.000
G1 X2.319 Y11.670 Z-7.000 F30.000
G3 X0.089 Y10.175 Z-7.000 I-0.368 J-1.862 K0.000 F30.000
G3 X1.584 Y7.946 Z-7.000 I1.862 J-0.368 K0.000 F30.000
G3 X2.319 Y11.670 Z-7.000 I0.368 J1.862 K0.000 F30.000
G0 Z5.000
G0 X2.730 Y7.514 Z5.000
G0 X2.730 Y7.514 Z3.000
G1 X2.730 Y7.514 Z-7.200 F30.000
G1 X4.327 Y9.335 Z-7.200 F30.000
G1 X3.548 Y11.629 Z-7.200 F30.000
G1 X1.172 Y12.102 Z-7.200 F30.000
G1 X-0.425 Y10.280 Z-7.200 F30.000
G1 X0.354 Y7.986 Z-7.200 F30.000
G1 X2.730 Y7.514 Z-7.200 F30.000
G0 Z5.000
G0 X2.319 Y11.670 Z5.000
G0 X2.319 Y11.670 Z3.000
G1 X2.319 Y11.670 Z-7.200 F30.000
G3 X0.089 Y10.175 Z-7.200 I-0.368 J-1.862 K0.000 F30.000
G3 X1.584 Y7.946 Z-7.200 I1.862 J-0.368 K0.000 F30.000
G3 X2.319 Y11.670 Z-7.200 I0.368 J1.862 K0.000 F30.000
G0 Z5.000
G0 Z5.000
(Finish operation: 1mm-nuts-pocket-3)
(Begin operation: 1mm-nuts-pocket-4)
(Path: 1mm-nuts-pocket-4)
(1mm-nuts-pocket-4)
G0 Z5.000
G0
G0 X-10.280 Y-0.425
G0 X-10.280 Y-0.425 Z3.000
G1 X-10.280 Y-0.425 Z-5.500 F30.000
G1 X-7.986 Y0.354 Z-5.500 F30.000
G1 X-7.514 Y2.730 Z-5.500 F30.000
G1 X-9.335 Y4.327 Z-5.500 F30.000
G1 X-11.629 Y3.548 Z-5.500 F30.000
G1 X-12.102 Y1.172 Z-5.500 F30.000
G1 X-10.280 Y-0.425 Z-5.500 F30.000
G0 Z5.000
G0 X-9.440 Y3.813 Z5.000
G0 X-9.440 Y3.813 Z3.000
G1 X-9.440 Y3.813 Z-5.500 F30.000
G3 X-11.670 Y2.319 Z-5.500 I-0.368 J-1.862 K0.000 F30.000
G3 X-10.175 Y0.089 Z-5.500 I1.862 J-0.368 K0.000 F30.000
G3 X-9.440 Y3.813 Z-5.500 I0.368 J1.862 K0.000 F30.000
G0 Z5.000
G0 X-10.280 Y-0.425 Z5.000
G0 X-10.280 Y-0.425 Z3.000
G1 X-10.280 Y-0.425 Z-6.000 F30.000
G1 X-7.986 Y0.354 Z-6.000 F30.000
G1 X-7.514 Y2.730 Z-6.000 F30.000
G1 X-9.335 Y4.327 Z-6.000 F30.000
G1 X-11.629 Y3.548 Z-6.000 F30.000
G1 X-12.102 Y1.172 Z-6.000 F30.000
G1 X-10.280 Y-0.425 Z-6.000 F30.000
G0 Z5.000
G0 X-9.440 Y3.813 Z5.000
G0 X-9.440 Y3.813 Z3.000
G1 X-9.440 Y3.813 Z-6.000 F30.000
G3 X-11.670 Y2.319 Z-6.000 I-0.368 J-1.862 K0.000 F30.000
G3 X-10.175 Y0.089 Z-6.000 I1.862 J-0.368 K0.000 F30.000
G3 X-9.440 Y3.813 Z-6.000 I0.368 J1.862 K0.000 F30.000
G0 Z5.000
G0 X-10.280 Y-0.425 Z5.000
G0 X-10.280 Y-0.425 Z3.000
G1 X-10.280 Y-0.425 Z-6.500 F30.000
G1 X-7.986 Y0.354 Z-6.500 F30.000
G1 X-7.514 Y2.730 Z-6.500 F30.000
G1 X-9.335 Y4.327 Z-6.500 F30.000
G1 X-11.629 Y3.548 Z-6.500 F30.000
G1 X-12.102 Y1.172 Z-6.500 F30.000
G1 X-10.280 Y-0.425 Z-6.500 F30.000
G0 Z5.000
G0 X-9.440 Y3.813 Z5.000
G0 X-9.440 Y3.813 Z3.000
G1 X-9.440 Y3.813 Z-6.500 F30.000
G3 X-11.670 Y2.319 Z-6.500 I-0.368 J-1.862 K0.000 F30.000
G3 X-10.175 Y0.089 Z-6.500 I1.862 J-0.368 K0.000 F30.000
G3 X-9.440 Y3.813 Z-6.500 I0.368 J1.862 K0.000 F30.000
G0 Z5.000
G0 X-10.280 Y-0.425 Z5.000
G0 X-10.280 Y-0.425 Z3.000
G1 X-10.280 Y-0.425 Z-7.000 F30.000
G1 X-7.986 Y0.354 Z-7.000 F30.000
G1 X-7.514 Y2.730 Z-7.000 F30.000
G1 X-9.335 Y4.327 Z-7.000 F30.000
G1 X-11.629 Y3.548 Z-7.000 F30.000
G1 X-12.102 Y1.172 Z-7.000 F30.000
G1 X-10.280 Y-0.425 Z-7.000 F30.000
G0 Z5.000
G0 X-9.440 Y3.813 Z5.000
G0 X-9.440 Y3.813 Z3.000
G1 X-9.440 Y3.813 Z-7.000 F30.000
G3 X-11.670 Y2.319 Z-7.000 I-0.368 J-1.862 K0.000 F30.000
G3 X-10.175 Y0.089 Z-7.000 I1.862 J-0.368 K0.000 F30.000
G3 X-9.440 Y3.813 Z-7.000 I0.368 J1.862 K0.000 F30.000
G0 Z5.000
G0 X-10.280 Y-0.425 Z5.000
G0 X-10.280 Y-0.425 Z3.000
G1 X-10.280 Y-0.425 Z-7.200 F30.000
G1 X-7.986 Y0.354 Z-7.200 F30.000
G1 X-7.514 Y2.730 Z-7.200 F30.000
G1 X-9.335 Y4.327 Z-7.200 F30.000
G1 X-11.629 Y3.548 Z-7.200 F30.000
G1 X-12.102 Y1.172 Z-7.200 F30.000
G1 X-10.280 Y-0.425 Z-7.200 F30.000
G0 Z5.000
G0 X-9.440 Y3.813 Z5.000
G0 X-9.440 Y3.813 Z3.000
G1 X-9.440 Y3.813 Z-7.200 F30.000
G3 X-11.670 Y2.319 Z-7.200 I-0.368 J-1.862 K0.000 F30.000
G3 X-10.175 Y0.089 Z-7.200 I1.862 J-0.368 K0.000 F30.000
G3 X-9.440 Y3.813 Z-7.200 I0.368 J1.862 K0.000 F30.000
G0 Z5.000
G0 Z5.000
(Finish operation: 1mm-nuts-pocket-4)
(Begin postamble)
M5
G17 G90
M2
