(Exported by FreeCAD)
(Post Processor: grbl_post)
(Output Time:2025-08-19 08:55:28.878005)
(Begin preamble)
G17 G90
G21
(Begin operation: Fixture)
(Path: Fixture)
G54
(Finish operation: Fixture)
(Begin operation: 2mm-6-Endmill005)
(Path: 2mm-6-Endmill005)
(2mm-6-Endmill005)
(Begin toolchange)
( M6 T2 )
(Finish operation: 2mm-6-Endmill005)
(Begin operation: Profile)
(Path: Profile)
(Profile)
(Compensated Tool Path. Diameter: 2.0)
G0 Z3.000
G0 X-35.500 Y-11.250
G0 Z1.000
G1 X-35.500 Y-11.250 Z-0.500 F30.000
G1 X-39.000 Y-11.250 Z-0.500 F30.000
G1 X-39.000 Y-12.250 Z-0.500 F30.000
G1 X-35.500 Y-12.250 Z-0.500 F30.000
G1 X-35.500 Y-11.250 Z-0.500 F30.000
G1 X-35.500 Y-11.250 Z-1.000 F30.000
G1 X-39.000 Y-11.250 Z-1.000 F30.000
G1 X-39.000 Y-12.250 Z-1.000 F30.000
G1 X-35.500 Y-12.250 Z-1.000 F30.000
G1 X-35.500 Y-11.250 Z-1.000 F30.000
G1 X-35.500 Y-11.250 Z-1.500 F30.000
G1 X-39.000 Y-11.250 Z-1.500 F30.000
G1 X-39.000 Y-12.250 Z-1.500 F30.000
G1 X-35.500 Y-12.250 Z-1.500 F30.000
G1 X-35.500 Y-11.250 Z-1.500 F30.000
G1 X-35.500 Y-11.250 Z-2.000 F30.000
G1 X-39.000 Y-11.250 Z-2.000 F30.000
G1 X-39.000 Y-12.250 Z-2.000 F30.000
G1 X-35.500 Y-12.250 Z-2.000 F30.000
G1 X-35.500 Y-11.250 Z-2.000 F30.000
G1 X-35.500 Y-11.250 Z-2.500 F30.000
G1 X-39.000 Y-11.250 Z-2.500 F30.000
G1 X-39.000 Y-12.250 Z-2.500 F30.000
G1 X-35.500 Y-12.250 Z-2.500 F30.000
G1 X-35.500 Y-11.250 Z-2.500 F30.000
G1 X-35.500 Y-11.250 Z-3.000 F30.000
G1 X-39.000 Y-11.250 Z-3.000 F30.000
G1 X-39.000 Y-12.250 Z-3.000 F30.000
G1 X-35.500 Y-12.250 Z-3.000 F30.000
G1 X-35.500 Y-11.250 Z-3.000 F30.000
G0 Z3.000
G0 Z3.000
(Finish operation: Profile)
(Begin operation: Profile004)
(Path: Profile004)
(Profile004)
(Compensated Tool Path. Diameter: 2.0)
G0 Z3.000
G0 X-28.972 Y-6.972
G0 Z1.000
G1 X-28.972 Y-6.972 Z-0.500 F30.000
G3 X-29.421 Y-6.895 Z-0.500 I-0.278 J-0.278 K0.000 F30.000
G3 X-29.605 Y-7.421 Z-0.500 I0.171 J-0.355 K0.000 F30.000
G3 X-29.079 Y-7.605 Z-0.500 I0.355 J0.171 K0.000 F30.000
G3 X-28.972 Y-6.972 Z-0.500 I-0.171 J0.355 K0.000 F30.000
G1 X-28.972 Y-6.972 Z-1.000 F30.000
G3 X-29.421 Y-6.895 Z-1.000 I-0.278 J-0.278 K0.000 F30.000
G3 X-29.605 Y-7.421 Z-1.000 I0.171 J-0.355 K0.000 F30.000
G3 X-29.079 Y-7.605 Z-1.000 I0.355 J0.171 K0.000 F30.000
G3 X-28.972 Y-6.972 Z-1.000 I-0.171 J0.355 K0.000 F30.000
G1 X-28.972 Y-6.972 Z-1.500 F30.000
G3 X-29.421 Y-6.895 Z-1.500 I-0.278 J-0.278 K0.000 F30.000
G3 X-29.605 Y-7.421 Z-1.500 I0.171 J-0.355 K0.000 F30.000
G3 X-29.079 Y-7.605 Z-1.500 I0.355 J0.171 K0.000 F30.000
G3 X-28.972 Y-6.972 Z-1.500 I-0.171 J0.355 K0.000 F30.000
G1 X-28.972 Y-6.972 Z-2.000 F30.000
G3 X-29.421 Y-6.895 Z-2.000 I-0.278 J-0.278 K0.000 F30.000
G3 X-29.605 Y-7.421 Z-2.000 I0.171 J-0.355 K0.000 F30.000
G3 X-29.079 Y-7.605 Z-2.000 I0.355 J0.171 K0.000 F30.000
G3 X-28.972 Y-6.972 Z-2.000 I-0.171 J0.355 K0.000 F30.000
G1 X-28.972 Y-6.972 Z-2.500 F30.000
G3 X-29.421 Y-6.895 Z-2.500 I-0.278 J-0.278 K0.000 F30.000
G3 X-29.605 Y-7.421 Z-2.500 I0.171 J-0.355 K0.000 F30.000
G3 X-29.079 Y-7.605 Z-2.500 I0.355 J0.171 K0.000 F30.000
G3 X-28.972 Y-6.972 Z-2.500 I-0.171 J0.355 K0.000 F30.000
G1 X-28.972 Y-6.972 Z-3.000 F30.000
G3 X-29.421 Y-6.895 Z-3.000 I-0.278 J-0.278 K0.000 F30.000
G3 X-29.605 Y-7.421 Z-3.000 I0.171 J-0.355 K0.000 F30.000
G3 X-29.079 Y-7.605 Z-3.000 I0.355 J0.171 K0.000 F30.000
G3 X-28.972 Y-6.972 Z-3.000 I-0.171 J0.355 K0.000 F30.000
G0 Z3.000
G0 Z3.000
(Finish operation: Profile004)
(Begin operation: Profile005)
(Path: Profile005)
(Profile005)
(Compensated Tool Path. Diameter: 2.0)
G0 Z3.000
G0 X-14.972 Y-6.972
G0 Z1.000
G1 X-14.972 Y-6.972 Z-0.500 F30.000
G3 X-15.421 Y-6.895 Z-0.500 I-0.278 J-0.278 K0.000 F30.000
G3 X-15.605 Y-7.421 Z-0.500 I0.171 J-0.355 K0.000 F30.000
G3 X-15.079 Y-7.605 Z-0.500 I0.355 J0.171 K0.000 F30.000
G3 X-14.972 Y-6.972 Z-0.500 I-0.171 J0.355 K0.000 F30.000
G1 X-14.972 Y-6.972 Z-1.000 F30.000
G3 X-15.421 Y-6.895 Z-1.000 I-0.278 J-0.278 K0.000 F30.000
G3 X-15.605 Y-7.421 Z-1.000 I0.171 J-0.355 K0.000 F30.000
G3 X-15.079 Y-7.605 Z-1.000 I0.355 J0.171 K0.000 F30.000
G3 X-14.972 Y-6.972 Z-1.000 I-0.171 J0.355 K0.000 F30.000
G1 X-14.972 Y-6.972 Z-1.500 F30.000
G3 X-15.421 Y-6.895 Z-1.500 I-0.278 J-0.278 K0.000 F30.000
G3 X-15.605 Y-7.421 Z-1.500 I0.171 J-0.355 K0.000 F30.000
G3 X-15.079 Y-7.605 Z-1.500 I0.355 J0.171 K0.000 F30.000
G3 X-14.972 Y-6.972 Z-1.500 I-0.171 J0.355 K0.000 F30.000
G1 X-14.972 Y-6.972 Z-2.000 F30.000
G3 X-15.421 Y-6.895 Z-2.000 I-0.278 J-0.278 K0.000 F30.000
G3 X-15.605 Y-7.421 Z-2.000 I0.171 J-0.355 K0.000 F30.000
G3 X-15.079 Y-7.605 Z-2.000 I0.355 J0.171 K0.000 F30.000
G3 X-14.972 Y-6.972 Z-2.000 I-0.171 J0.355 K0.000 F30.000
G1 X-14.972 Y-6.972 Z-2.500 F30.000
G3 X-15.421 Y-6.895 Z-2.500 I-0.278 J-0.278 K0.000 F30.000
G3 X-15.605 Y-7.421 Z-2.500 I0.171 J-0.355 K0.000 F30.000
G3 X-15.079 Y-7.605 Z-2.500 I0.355 J0.171 K0.000 F30.000
G3 X-14.972 Y-6.972 Z-2.500 I-0.171 J0.355 K0.000 F30.000
G1 X-14.972 Y-6.972 Z-3.000 F30.000
G3 X-15.421 Y-6.895 Z-3.000 I-0.278 J-0.278 K0.000 F30.000
G3 X-15.605 Y-7.421 Z-3.000 I0.171 J-0.355 K0.000 F30.000
G3 X-15.079 Y-7.605 Z-3.000 I0.355 J0.171 K0.000 F30.000
G3 X-14.972 Y-6.972 Z-3.000 I-0.171 J0.355 K0.000 F30.000
G0 Z3.000
G0 Z3.000
(Finish operation: Profile005)
(Begin operation: Profile006)
(Path: Profile006)
(Profile006)
(Compensated Tool Path. Diameter: 2.0)
G0 Z3.000
G0 X-5.500 Y-11.250
G0 Z1.000
G1 X-5.500 Y-11.250 Z-0.500 F30.000
G1 X-9.000 Y-11.250 Z-0.500 F30.000
G1 X-9.000 Y-12.250 Z-0.500 F30.000
G1 X-5.500 Y-12.250 Z-0.500 F30.000
G1 X-5.500 Y-11.250 Z-0.500 F30.000
G1 X-5.500 Y-11.250 Z-1.000 F30.000
G1 X-9.000 Y-11.250 Z-1.000 F30.000
G1 X-9.000 Y-12.250 Z-1.000 F30.000
G1 X-5.500 Y-12.250 Z-1.000 F30.000
G1 X-5.500 Y-11.250 Z-1.000 F30.000
G1 X-5.500 Y-11.250 Z-1.500 F30.000
G1 X-9.000 Y-11.250 Z-1.500 F30.000
G1 X-9.000 Y-12.250 Z-1.500 F30.000
G1 X-5.500 Y-12.250 Z-1.500 F30.000
G1 X-5.500 Y-11.250 Z-1.500 F30.000
G1 X-5.500 Y-11.250 Z-2.000 F30.000
G1 X-9.000 Y-11.250 Z-2.000 F30.000
G1 X-9.000 Y-12.250 Z-2.000 F30.000
G1 X-5.500 Y-12.250 Z-2.000 F30.000
G1 X-5.500 Y-11.250 Z-2.000 F30.000
G1 X-5.500 Y-11.250 Z-2.500 F30.000
G1 X-9.000 Y-11.250 Z-2.500 F30.000
G1 X-9.000 Y-12.250 Z-2.500 F30.000
G1 X-5.500 Y-12.250 Z-2.500 F30.000
G1 X-5.500 Y-11.250 Z-2.500 F30.000
G1 X-5.500 Y-11.250 Z-3.000 F30.000
G1 X-9.000 Y-11.250 Z-3.000 F30.000
G1 X-9.000 Y-12.250 Z-3.000 F30.000
G1 X-5.500 Y-12.250 Z-3.000 F30.000
G1 X-5.500 Y-11.250 Z-3.000 F30.000
G0 Z3.000
G0 Z3.000
(Finish operation: Profile006)
(Begin operation: Profile009)
(Path: Profile009)
(Profile009)
(Compensated Tool Path. Diameter: 2.0)
G0 Z3.000
G0 X-15.222 Y-23.512
G0 Z1.000
G1 X-15.222 Y-23.512 Z-0.500 F30.000
G3 X-15.671 Y-23.436 Z-0.500 I-0.278 J-0.278 K0.000 F30.000
G3 X-15.855 Y-23.962 Z-0.500 I0.171 J-0.355 K0.000 F30.000
G3 X-15.329 Y-24.145 Z-0.500 I0.355 J0.171 K0.000 F30.000
G3 X-15.222 Y-23.512 Z-0.500 I-0.171 J0.355 K0.000 F30.000
G1 X-15.222 Y-23.512 Z-1.000 F30.000
G3 X-15.671 Y-23.436 Z-1.000 I-0.278 J-0.278 K0.000 F30.000
G3 X-15.855 Y-23.962 Z-1.000 I0.171 J-0.355 K0.000 F30.000
G3 X-15.329 Y-24.145 Z-1.000 I0.355 J0.171 K0.000 F30.000
G3 X-15.222 Y-23.512 Z-1.000 I-0.171 J0.355 K0.000 F30.000
G1 X-15.222 Y-23.512 Z-1.500 F30.000
G3 X-15.671 Y-23.436 Z-1.500 I-0.278 J-0.278 K0.000 F30.000
G3 X-15.855 Y-23.962 Z-1.500 I0.171 J-0.355 K0.000 F30.000
G3 X-15.329 Y-24.145 Z-1.500 I0.355 J0.171 K0.000 F30.000
G3 X-15.222 Y-23.512 Z-1.500 I-0.171 J0.355 K0.000 F30.000
G1 X-15.222 Y-23.512 Z-2.000 F30.000
G3 X-15.671 Y-23.436 Z-2.000 I-0.278 J-0.278 K0.000 F30.000
G3 X-15.855 Y-23.962 Z-2.000 I0.171 J-0.355 K0.000 F30.000
G3 X-15.329 Y-24.145 Z-2.000 I0.355 J0.171 K0.000 F30.000
G3 X-15.222 Y-23.512 Z-2.000 I-0.171 J0.355 K0.000 F30.000
G1 X-15.222 Y-23.512 Z-2.500 F30.000
G3 X-15.671 Y-23.436 Z-2.500 I-0.278 J-0.278 K0.000 F30.000
G3 X-15.855 Y-23.962 Z-2.500 I0.171 J-0.355 K0.000 F30.000
G3 X-15.329 Y-24.145 Z-2.500 I0.355 J0.171 K0.000 F30.000
G3 X-15.222 Y-23.512 Z-2.500 I-0.171 J0.355 K0.000 F30.000
G1 X-15.222 Y-23.512 Z-3.000 F30.000
G3 X-15.671 Y-23.436 Z-3.000 I-0.278 J-0.278 K0.000 F30.000
G3 X-15.855 Y-23.962 Z-3.000 I0.171 J-0.355 K0.000 F30.000
G3 X-15.329 Y-24.145 Z-3.000 I0.355 J0.171 K0.000 F30.000
G3 X-15.222 Y-23.512 Z-3.000 I-0.171 J0.355 K0.000 F30.000
G0 Z3.000
G0 Z3.000
(Finish operation: Profile009)
(Begin operation: Profile010)
(Path: Profile010)
(Profile010)
(Compensated Tool Path. Diameter: 2.0)
G0 Z3.000
G0 X-9.697 Y-28.253
G0 Z1.000
G1 X-9.697 Y-28.253 Z-0.500 F30.000
G3 X-10.146 Y-28.177 Z-0.500 I-0.278 J-0.278 K0.000 F30.000
G3 X-10.330 Y-28.702 Z-0.500 I0.171 J-0.355 K0.000 F30.000
G3 X-9.805 Y-28.886 Z-0.500 I0.355 J0.171 K0.000 F30.000
G3 X-9.697 Y-28.253 Z-0.500 I-0.171 J0.355 K0.000 F30.000
G1 X-9.697 Y-28.253 Z-1.000 F30.000
G3 X-10.146 Y-28.177 Z-1.000 I-0.278 J-0.278 K0.000 F30.000
G3 X-10.330 Y-28.702 Z-1.000 I0.171 J-0.355 K0.000 F30.000
G3 X-9.805 Y-28.886 Z-1.000 I0.355 J0.171 K0.000 F30.000
G3 X-9.697 Y-28.253 Z-1.000 I-0.171 J0.355 K0.000 F30.000
G1 X-9.697 Y-28.253 Z-1.500 F30.000
G3 X-10.146 Y-28.177 Z-1.500 I-0.278 J-0.278 K0.000 F30.000
G3 X-10.330 Y-28.702 Z-1.500 I0.171 J-0.355 K0.000 F30.000
G3 X-9.805 Y-28.886 Z-1.500 I0.355 J0.171 K0.000 F30.000
G3 X-9.697 Y-28.253 Z-1.500 I-0.171 J0.355 K0.000 F30.000
G1 X-9.697 Y-28.253 Z-2.000 F30.000
G3 X-10.146 Y-28.177 Z-2.000 I-0.278 J-0.278 K0.000 F30.000
G3 X-10.330 Y-28.702 Z-2.000 I0.171 J-0.355 K0.000 F30.000
G3 X-9.805 Y-28.886 Z-2.000 I0.355 J0.171 K0.000 F30.000
G3 X-9.697 Y-28.253 Z-2.000 I-0.171 J0.355 K0.000 F30.000
G1 X-9.697 Y-28.253 Z-2.500 F30.000
G3 X-10.146 Y-28.177 Z-2.500 I-0.278 J-0.278 K0.000 F30.000
G3 X-10.330 Y-28.702 Z-2.500 I0.171 J-0.355 K0.000 F30.000
G3 X-9.805 Y-28.886 Z-2.500 I0.355 J0.171 K0.000 F30.000
G3 X-9.697 Y-28.253 Z-2.500 I-0.171 J0.355 K0.000 F30.000
G1 X-9.697 Y-28.253 Z-3.000 F30.000
G3 X-10.146 Y-28.177 Z-3.000 I-0.278 J-0.278 K0.000 F30.000
G3 X-10.330 Y-28.702 Z-3.000 I0.171 J-0.355 K0.000 F30.000
G3 X-9.805 Y-28.886 Z-3.000 I0.355 J0.171 K0.000 F30.000
G3 X-9.697 Y-28.253 Z-3.000 I-0.171 J0.355 K0.000 F30.000
G0 Z3.000
G0 Z3.000
(Finish operation: Profile010)
(Begin operation: Profile011)
(Path: Profile011)
(Profile011)
(Compensated Tool Path. Diameter: 2.0)
G0 Z3.000
G0 X-35.500 Y-35.250
G0 Y-35.250
G0 Y-35.250 Z1.000
G1 X-35.500 Y-35.250 Z-0.500 F30.000
G1 X-39.000 Y-35.250 Z-0.500 F30.000
G1 X-39.000 Y-36.250 Z-0.500 F30.000
G1 X-35.500 Y-36.250 Z-0.500 F30.000
G1 X-35.500 Y-35.250 Z-0.500 F30.000
G1 X-35.500 Y-35.250 Z-1.000 F30.000
G1 X-39.000 Y-35.250 Z-1.000 F30.000
G1 X-39.000 Y-36.250 Z-1.000 F30.000
G1 X-35.500 Y-36.250 Z-1.000 F30.000
G1 X-35.500 Y-35.250 Z-1.000 F30.000
G1 X-35.500 Y-35.250 Z-1.500 F30.000
G1 X-39.000 Y-35.250 Z-1.500 F30.000
G1 X-39.000 Y-36.250 Z-1.500 F30.000
G1 X-35.500 Y-36.250 Z-1.500 F30.000
G1 X-35.500 Y-35.250 Z-1.500 F30.000
G1 X-35.500 Y-35.250 Z-2.000 F30.000
G1 X-39.000 Y-35.250 Z-2.000 F30.000
G1 X-39.000 Y-36.250 Z-2.000 F30.000
G1 X-35.500 Y-36.250 Z-2.000 F30.000
G1 X-35.500 Y-35.250 Z-2.000 F30.000
G1 X-35.500 Y-35.250 Z-2.500 F30.000
G1 X-39.000 Y-35.250 Z-2.500 F30.000
G1 X-39.000 Y-36.250 Z-2.500 F30.000
G1 X-35.500 Y-36.250 Z-2.500 F30.000
G1 X-35.500 Y-35.250 Z-2.500 F30.000
G1 X-35.500 Y-35.250 Z-3.000 F30.000
G1 X-39.000 Y-35.250 Z-3.000 F30.000
G1 X-39.000 Y-36.250 Z-3.000 F30.000
G1 X-35.500 Y-36.250 Z-3.000 F30.000
G1 X-35.500 Y-35.250 Z-3.000 F30.000
G0 Z3.000
G0 Z3.000
(Finish operation: Profile011)
(Begin operation: Profile012)
(Path: Profile012)
(Profile012)
(Compensated Tool Path. Diameter: 2.0)
G0 Z3.000
G0 X-28.246 Y-38.690
G0 Z1.000
G1 X-28.246 Y-38.690 Z-0.500 F30.000
G3 X-28.695 Y-38.614 Z-0.500 I-0.278 J-0.278 K0.000 F30.000
G3 X-28.879 Y-39.140 Z-0.500 I0.171 J-0.355 K0.000 F30.000
G3 X-28.354 Y-39.323 Z-0.500 I0.355 J0.171 K0.000 F30.000
G3 X-28.246 Y-38.690 Z-0.500 I-0.171 J0.355 K0.000 F30.000
G1 X-28.246 Y-38.690 Z-1.000 F30.000
G3 X-28.695 Y-38.614 Z-1.000 I-0.278 J-0.278 K0.000 F30.000
G3 X-28.879 Y-39.140 Z-1.000 I0.171 J-0.355 K0.000 F30.000
G3 X-28.354 Y-39.323 Z-1.000 I0.355 J0.171 K0.000 F30.000
G3 X-28.246 Y-38.690 Z-1.000 I-0.171 J0.355 K0.000 F30.000
G1 X-28.246 Y-38.690 Z-1.500 F30.000
G3 X-28.695 Y-38.614 Z-1.500 I-0.278 J-0.278 K0.000 F30.000
G3 X-28.879 Y-39.140 Z-1.500 I0.171 J-0.355 K0.000 F30.000
G3 X-28.354 Y-39.323 Z-1.500 I0.355 J0.171 K0.000 F30.000
G3 X-28.246 Y-38.690 Z-1.500 I-0.171 J0.355 K0.000 F30.000
G1 X-28.246 Y-38.690 Z-2.000 F30.000
G3 X-28.695 Y-38.614 Z-2.000 I-0.278 J-0.278 K0.000 F30.000
G3 X-28.879 Y-39.140 Z-2.000 I0.171 J-0.355 K0.000 F30.000
G3 X-28.354 Y-39.323 Z-2.000 I0.355 J0.171 K0.000 F30.000
G3 X-28.246 Y-38.690 Z-2.000 I-0.171 J0.355 K0.000 F30.000
G1 X-28.246 Y-38.690 Z-2.500 F30.000
G3 X-28.695 Y-38.614 Z-2.500 I-0.278 J-0.278 K0.000 F30.000
G3 X-28.879 Y-39.140 Z-2.500 I0.171 J-0.355 K0.000 F30.000
G3 X-28.354 Y-39.323 Z-2.500 I0.355 J0.171 K0.000 F30.000
G3 X-28.246 Y-38.690 Z-2.500 I-0.171 J0.355 K0.000 F30.000
G1 X-28.246 Y-38.690 Z-3.000 F30.000
G3 X-28.695 Y-38.614 Z-3.000 I-0.278 J-0.278 K0.000 F30.000
G3 X-28.879 Y-39.140 Z-3.000 I0.171 J-0.355 K0.000 F30.000
G3 X-28.354 Y-39.323 Z-3.000 I0.355 J0.171 K0.000 F30.000
G3 X-28.246 Y-38.690 Z-3.000 I-0.171 J0.355 K0.000 F30.000
G0 Z3.000
G0 Z3.000
(Finish operation: Profile012)
(Begin operation: Profile014)
(Path: Profile014)
(Profile014)
(Compensated Tool Path. Diameter: 2.0)
G0 Z3.000
G0 X-5.500 Y-35.250
G0 Z1.000
G1 X-5.500 Y-35.250 Z-0.500 F30.000
G1 X-9.000 Y-35.250 Z-0.500 F30.000
G1 X-9.000 Y-36.250 Z-0.500 F30.000
G1 X-5.500 Y-36.250 Z-0.500 F30.000
G1 X-5.500 Y-35.250 Z-0.500 F30.000
G1 X-5.500 Y-35.250 Z-1.000 F30.000
G1 X-9.000 Y-35.250 Z-1.000 F30.000
G1 X-9.000 Y-36.250 Z-1.000 F30.000
G1 X-5.500 Y-36.250 Z-1.000 F30.000
G1 X-5.500 Y-35.250 Z-1.000 F30.000
G1 X-5.500 Y-35.250 Z-1.500 F30.000
G1 X-9.000 Y-35.250 Z-1.500 F30.000
G1 X-9.000 Y-36.250 Z-1.500 F30.000
G1 X-5.500 Y-36.250 Z-1.500 F30.000
G1 X-5.500 Y-35.250 Z-1.500 F30.000
G1 X-5.500 Y-35.250 Z-2.000 F30.000
G1 X-9.000 Y-35.250 Z-2.000 F30.000
G1 X-9.000 Y-36.250 Z-2.000 F30.000
G1 X-5.500 Y-36.250 Z-2.000 F30.000
G1 X-5.500 Y-35.250 Z-2.000 F30.000
G1 X-5.500 Y-35.250 Z-2.500 F30.000
G1 X-9.000 Y-35.250 Z-2.500 F30.000
G1 X-9.000 Y-36.250 Z-2.500 F30.000
G1 X-5.500 Y-36.250 Z-2.500 F30.000
G1 X-5.500 Y-35.250 Z-2.500 F30.000
G1 X-5.500 Y-35.250 Z-3.000 F30.000
G1 X-9.000 Y-35.250 Z-3.000 F30.000
G1 X-9.000 Y-36.250 Z-3.000 F30.000
G1 X-5.500 Y-36.250 Z-3.000 F30.000
G1 X-5.500 Y-35.250 Z-3.000 F30.000
G0 Z3.000
G0 Z3.000
(Finish operation: Profile014)
(Begin operation: Profile015)
(Path: Profile015)
(Profile015)
(Compensated Tool Path. Diameter: 2.0)
G0 Z3.000
G0 X9.000 Y-11.250
G0 Z1.000
G1 X9.000 Y-11.250 Z-0.500 F30.000
G1 X5.500 Y-11.250 Z-0.500 F30.000
G1 X5.500 Y-12.250 Z-0.500 F30.000
G1 X9.000 Y-12.250 Z-0.500 F30.000
G1 X9.000 Y-11.250 Z-0.500 F30.000
G1 X9.000 Y-11.250 Z-1.000 F30.000
G1 X5.500 Y-11.250 Z-1.000 F30.000
G1 X5.500 Y-12.250 Z-1.000 F30.000
G1 X9.000 Y-12.250 Z-1.000 F30.000
G1 X9.000 Y-11.250 Z-1.000 F30.000
G1 X9.000 Y-11.250 Z-1.500 F30.000
G1 X5.500 Y-11.250 Z-1.500 F30.000
G1 X5.500 Y-12.250 Z-1.500 F30.000
G1 X9.000 Y-12.250 Z-1.500 F30.000
G1 X9.000 Y-11.250 Z-1.500 F30.000
G1 X9.000 Y-11.250 Z-2.000 F30.000
G1 X5.500 Y-11.250 Z-2.000 F30.000
G1 X5.500 Y-12.250 Z-2.000 F30.000
G1 X9.000 Y-12.250 Z-2.000 F30.000
G1 X9.000 Y-11.250 Z-2.000 F30.000
G1 X9.000 Y-11.250 Z-2.500 F30.000
G1 X5.500 Y-11.250 Z-2.500 F30.000
G1 X5.500 Y-12.250 Z-2.500 F30.000
G1 X9.000 Y-12.250 Z-2.500 F30.000
G1 X9.000 Y-11.250 Z-2.500 F30.000
G1 X9.000 Y-11.250 Z-3.000 F30.000
G1 X5.500 Y-11.250 Z-3.000 F30.000
G1 X5.500 Y-12.250 Z-3.000 F30.000
G1 X9.000 Y-12.250 Z-3.000 F30.000
G1 X9.000 Y-11.250 Z-3.000 F30.000
G0 Z3.000
G0 Z3.000
(Finish operation: Profile015)
(Begin operation: Profile016)
(Path: Profile016)
(Profile016)
(Compensated Tool Path. Diameter: 2.0)
G0 Z3.000
G0 X15.528 Y-6.972
G0 Z1.000
G1 X15.528 Y-6.972 Z-0.500 F30.000
G3 X15.079 Y-6.895 Z-0.500 I-0.278 J-0.278 K0.000 F30.000
G3 X15.421 Y-7.605 Z-0.500 I0.171 J-0.355 K0.000 F30.000
G3 X15.528 Y-6.972 Z-0.500 I-0.171 J0.355 K0.000 F30.000
G1 X15.528 Y-6.972 Z-1.000 F30.000
G3 X15.079 Y-6.895 Z-1.000 I-0.278 J-0.278 K0.000 F30.000
G3 X15.421 Y-7.605 Z-1.000 I0.171 J-0.355 K0.000 F30.000
G3 X15.528 Y-6.972 Z-1.000 I-0.171 J0.355 K0.000 F30.000
G1 X15.528 Y-6.972 Z-1.500 F30.000
G3 X15.079 Y-6.895 Z-1.500 I-0.278 J-0.278 K0.000 F30.000
G3 X15.421 Y-7.605 Z-1.500 I0.171 J-0.355 K0.000 F30.000
G3 X15.528 Y-6.972 Z-1.500 I-0.171 J0.355 K0.000 F30.000
G1 X15.528 Y-6.972 Z-2.000 F30.000
G3 X15.079 Y-6.895 Z-2.000 I-0.278 J-0.278 K0.000 F30.000
G3 X15.421 Y-7.605 Z-2.000 I0.171 J-0.355 K0.000 F30.000
G3 X15.528 Y-6.972 Z-2.000 I-0.171 J0.355 K0.000 F30.000
G1 X15.528 Y-6.972 Z-2.500 F30.000
G3 X15.079 Y-6.895 Z-2.500 I-0.278 J-0.278 K0.000 F30.000
G3 X15.421 Y-7.605 Z-2.500 I0.171 J-0.355 K0.000 F30.000
G3 X15.528 Y-6.972 Z-2.500 I-0.171 J0.355 K0.000 F30.000
G1 X15.528 Y-6.972 Z-3.000 F30.000
G3 X15.079 Y-6.895 Z-3.000 I-0.278 J-0.278 K0.000 F30.000
G3 X15.421 Y-7.605 Z-3.000 I0.171 J-0.355 K0.000 F30.000
G3 X15.528 Y-6.972 Z-3.000 I-0.171 J0.355 K0.000 F30.000
G0 Z3.000
G0 Z3.000
(Finish operation: Profile016)
(Begin operation: Profile017)
(Path: Profile017)
(Profile017)
(Compensated Tool Path. Diameter: 2.0)
G0 Z3.000
G0 X29.528 Y-6.972
G0 Z1.000
G1 X29.528 Y-6.972 Z-0.500 F30.000
G3 X29.079 Y-6.895 Z-0.500 I-0.278 J-0.278 K0.000 F30.000
G3 X29.421 Y-7.605 Z-0.500 I0.171 J-0.355 K0.000 F30.000
G3 X29.528 Y-6.972 Z-0.500 I-0.171 J0.355 K0.000 F30.000
G1 X29.528 Y-6.972 Z-1.000 F30.000
G3 X29.079 Y-6.895 Z-1.000 I-0.278 J-0.278 K0.000 F30.000
G3 X29.421 Y-7.605 Z-1.000 I0.171 J-0.355 K0.000 F30.000
G3 X29.528 Y-6.972 Z-1.000 I-0.171 J0.355 K0.000 F30.000
G1 X29.528 Y-6.972 Z-1.500 F30.000
G3 X29.079 Y-6.895 Z-1.500 I-0.278 J-0.278 K0.000 F30.000
G3 X29.421 Y-7.605 Z-1.500 I0.171 J-0.355 K0.000 F30.000
G3 X29.528 Y-6.972 Z-1.500 I-0.171 J0.355 K0.000 F30.000
G1 X29.528 Y-6.972 Z-2.000 F30.000
G3 X29.079 Y-6.895 Z-2.000 I-0.278 J-0.278 K0.000 F30.000
G3 X29.421 Y-7.605 Z-2.000 I0.171 J-0.355 K0.000 F30.000
G3 X29.528 Y-6.972 Z-2.000 I-0.171 J0.355 K0.000 F30.000
G1 X29.528 Y-6.972 Z-2.500 F30.000
G3 X29.079 Y-6.895 Z-2.500 I-0.278 J-0.278 K0.000 F30.000
G3 X29.421 Y-7.605 Z-2.500 I0.171 J-0.355 K0.000 F30.000
G3 X29.528 Y-6.972 Z-2.500 I-0.171 J0.355 K0.000 F30.000
G1 X29.528 Y-6.972 Z-3.000 F30.000
G3 X29.079 Y-6.895 Z-3.000 I-0.278 J-0.278 K0.000 F30.000
G3 X29.421 Y-7.605 Z-3.000 I0.171 J-0.355 K0.000 F30.000
G3 X29.528 Y-6.972 Z-3.000 I-0.171 J0.355 K0.000 F30.000
G0 Z3.000
G0 Z3.000
(Finish operation: Profile017)
(Begin operation: Profile018)
(Path: Profile018)
(Profile018)
(Compensated Tool Path. Diameter: 2.0)
G0 Z3.000
G0 X39.000 Y-11.250
G0 Z1.000
G1 X39.000 Y-11.250 Z-0.500 F30.000
G1 X35.500 Y-11.250 Z-0.500 F30.000
G1 X35.500 Y-12.250 Z-0.500 F30.000
G1 X39.000 Y-12.250 Z-0.500 F30.000
G1 X39.000 Y-11.250 Z-0.500 F30.000
G1 X39.000 Y-11.250 Z-1.000 F30.000
G1 X35.500 Y-11.250 Z-1.000 F30.000
G1 X35.500 Y-12.250 Z-1.000 F30.000
G1 X39.000 Y-12.250 Z-1.000 F30.000
G1 X39.000 Y-11.250 Z-1.000 F30.000
G1 X39.000 Y-11.250 Z-1.500 F30.000
G1 X35.500 Y-11.250 Z-1.500 F30.000
G1 X35.500 Y-12.250 Z-1.500 F30.000
G1 X39.000 Y-12.250 Z-1.500 F30.000
G1 X39.000 Y-11.250 Z-1.500 F30.000
G1 X39.000 Y-11.250 Z-2.000 F30.000
G1 X35.500 Y-11.250 Z-2.000 F30.000
G1 X35.500 Y-12.250 Z-2.000 F30.000
G1 X39.000 Y-12.250 Z-2.000 F30.000
G1 X39.000 Y-11.250 Z-2.000 F30.000
G1 X39.000 Y-11.250 Z-2.500 F30.000
G1 X35.500 Y-11.250 Z-2.500 F30.000
G1 X35.500 Y-12.250 Z-2.500 F30.000
G1 X39.000 Y-12.250 Z-2.500 F30.000
G1 X39.000 Y-11.250 Z-2.500 F30.000
G1 X39.000 Y-11.250 Z-3.000 F30.000
G1 X35.500 Y-11.250 Z-3.000 F30.000
G1 X35.500 Y-12.250 Z-3.000 F30.000
G1 X39.000 Y-12.250 Z-3.000 F30.000
G1 X39.000 Y-11.250 Z-3.000 F30.000
G0 Z3.000
G0 Z3.000
(Finish operation: Profile018)
(Begin operation: Profile019)
(Path: Profile019)
(Profile019)
(Compensated Tool Path. Diameter: 2.0)
G0 Z3.000
G0 X10.254 Y-28.253
G0 Z1.000
G1 X10.254 Y-28.253 Z-0.500 F30.000
G3 X9.805 Y-28.177 Z-0.500 I-0.278 J-0.278 K0.000 F30.000
G3 X10.146 Y-28.886 Z-0.500 I0.171 J-0.355 K0.000 F30.000
G3 X10.254 Y-28.253 Z-0.500 I-0.171 J0.355 K0.000 F30.000
G1 X10.254 Y-28.253 Z-1.000 F30.000
G3 X9.805 Y-28.177 Z-1.000 I-0.278 J-0.278 K0.000 F30.000
G3 X10.146 Y-28.886 Z-1.000 I0.171 J-0.355 K0.000 F30.000
G3 X10.254 Y-28.253 Z-1.000 I-0.171 J0.355 K0.000 F30.000
G1 X10.254 Y-28.253 Z-1.500 F30.000
G3 X9.805 Y-28.177 Z-1.500 I-0.278 J-0.278 K0.000 F30.000
G3 X10.146 Y-28.886 Z-1.500 I0.171 J-0.355 K0.000 F30.000
G3 X10.254 Y-28.253 Z-1.500 I-0.171 J0.355 K0.000 F30.000
G1 X10.254 Y-28.253 Z-2.000 F30.000
G3 X9.805 Y-28.177 Z-2.000 I-0.278 J-0.278 K0.000 F30.000
G3 X10.146 Y-28.886 Z-2.000 I0.171 J-0.355 K0.000 F30.000
G3 X10.254 Y-28.253 Z-2.000 I-0.171 J0.355 K0.000 F30.000
G1 X10.254 Y-28.253 Z-2.500 F30.000
G3 X9.805 Y-28.177 Z-2.500 I-0.278 J-0.278 K0.000 F30.000
G3 X10.146 Y-28.886 Z-2.500 I0.171 J-0.355 K0.000 F30.000
G3 X10.254 Y-28.253 Z-2.500 I-0.171 J0.355 K0.000 F30.000
G1 X10.254 Y-28.253 Z-3.000 F30.000
G3 X9.805 Y-28.177 Z-3.000 I-0.278 J-0.278 K0.000 F30.000
G3 X10.146 Y-28.886 Z-3.000 I0.171 J-0.355 K0.000 F30.000
G3 X10.254 Y-28.253 Z-3.000 I-0.171 J0.355 K0.000 F30.000
G0 Z3.000
G0 Z3.000
(Finish operation: Profile019)
(Begin operation: Profile020)
(Path: Profile020)
(Profile020)
(Compensated Tool Path. Diameter: 2.0)
G0 Z3.000
G0 X15.778 Y-23.512
G0 Z1.000
G1 X15.778 Y-23.512 Z-0.500 F30.000
G3 X15.329 Y-23.436 Z-0.500 I-0.278 J-0.278 K0.000 F30.000
G3 X15.671 Y-24.145 Z-0.500 I0.171 J-0.355 K0.000 F30.000
G3 X15.778 Y-23.512 Z-0.500 I-0.171 J0.355 K0.000 F30.000
G1 X15.778 Y-23.512 Z-1.000 F30.000
G3 X15.329 Y-23.436 Z-1.000 I-0.278 J-0.278 K0.000 F30.000
G3 X15.671 Y-24.145 Z-1.000 I0.171 J-0.355 K0.000 F30.000
G3 X15.778 Y-23.512 Z-1.000 I-0.171 J0.355 K0.000 F30.000
G1 X15.778 Y-23.512 Z-1.500 F30.000
G3 X15.329 Y-23.436 Z-1.500 I-0.278 J-0.278 K0.000 F30.000
G3 X15.671 Y-24.145 Z-1.500 I0.171 J-0.355 K0.000 F30.000
G3 X15.778 Y-23.512 Z-1.500 I-0.171 J0.355 K0.000 F30.000
G1 X15.778 Y-23.512 Z-2.000 F30.000
G3 X15.329 Y-23.436 Z-2.000 I-0.278 J-0.278 K0.000 F30.000
G3 X15.671 Y-24.145 Z-2.000 I0.171 J-0.355 K0.000 F30.000
G3 X15.778 Y-23.512 Z-2.000 I-0.171 J0.355 K0.000 F30.000
G1 X15.778 Y-23.512 Z-2.500 F30.000
G3 X15.329 Y-23.436 Z-2.500 I-0.278 J-0.278 K0.000 F30.000
G3 X15.671 Y-24.145 Z-2.500 I0.171 J-0.355 K0.000 F30.000
G3 X15.778 Y-23.512 Z-2.500 I-0.171 J0.355 K0.000 F30.000
G1 X15.778 Y-23.512 Z-3.000 F30.000
G3 X15.329 Y-23.436 Z-3.000 I-0.278 J-0.278 K0.000 F30.000
G3 X15.671 Y-24.145 Z-3.000 I0.171 J-0.355 K0.000 F30.000
G3 X15.778 Y-23.512 Z-3.000 I-0.171 J0.355 K0.000 F30.000
G0 Z3.000
G0 Z3.000
(Finish operation: Profile020)
(Begin operation: Profile023)
(Path: Profile023)
(Profile023)
(Compensated Tool Path. Diameter: 2.0)
G0 Z3.000
G0 X9.000 Y-35.250
G0 Y-35.250
G0 Y-35.250 Z1.000
G1 X9.000 Y-35.250 Z-0.500 F30.000
G1 X5.500 Y-35.250 Z-0.500 F30.000
G1 X5.500 Y-36.250 Z-0.500 F30.000
G1 X9.000 Y-36.250 Z-0.500 F30.000
G1 X9.000 Y-35.250 Z-0.500 F30.000
G1 X9.000 Y-35.250 Z-1.000 F30.000
G1 X5.500 Y-35.250 Z-1.000 F30.000
G1 X5.500 Y-36.250 Z-1.000 F30.000
G1 X9.000 Y-36.250 Z-1.000 F30.000
G1 X9.000 Y-35.250 Z-1.000 F30.000
G1 X9.000 Y-35.250 Z-1.500 F30.000
G1 X5.500 Y-35.250 Z-1.500 F30.000
G1 X5.500 Y-36.250 Z-1.500 F30.000
G1 X9.000 Y-36.250 Z-1.500 F30.000
G1 X9.000 Y-35.250 Z-1.500 F30.000
G1 X9.000 Y-35.250 Z-2.000 F30.000
G1 X5.500 Y-35.250 Z-2.000 F30.000
G1 X5.500 Y-36.250 Z-2.000 F30.000
G1 X9.000 Y-36.250 Z-2.000 F30.000
G1 X9.000 Y-35.250 Z-2.000 F30.000
G1 X9.000 Y-35.250 Z-2.500 F30.000
G1 X5.500 Y-35.250 Z-2.500 F30.000
G1 X5.500 Y-36.250 Z-2.500 F30.000
G1 X9.000 Y-36.250 Z-2.500 F30.000
G1 X9.000 Y-35.250 Z-2.500 F30.000
G1 X9.000 Y-35.250 Z-3.000 F30.000
G1 X5.500 Y-35.250 Z-3.000 F30.000
G1 X5.500 Y-36.250 Z-3.000 F30.000
G1 X9.000 Y-36.250 Z-3.000 F30.000
G1 X9.000 Y-35.250 Z-3.000 F30.000
G0 Z3.000
G0 Z3.000
(Finish operation: Profile023)
(Begin operation: Profile025)
(Path: Profile025)
(Profile025)
(Compensated Tool Path. Diameter: 2.0)
G0 Z3.000
G0 X28.803 Y-38.690
G0 Z1.000
G1 X28.803 Y-38.690 Z-0.500 F30.000
G3 X28.354 Y-38.614 Z-0.500 I-0.278 J-0.278 K0.000 F30.000
G3 X28.695 Y-39.323 Z-0.500 I0.171 J-0.355 K0.000 F30.000
G3 X28.803 Y-38.690 Z-0.500 I-0.171 J0.355 K0.000 F30.000
G1 X28.803 Y-38.690 Z-1.000 F30.000
G3 X28.354 Y-38.614 Z-1.000 I-0.278 J-0.278 K0.000 F30.000
G3 X28.695 Y-39.323 Z-1.000 I0.171 J-0.355 K0.000 F30.000
G3 X28.803 Y-38.690 Z-1.000 I-0.171 J0.355 K0.000 F30.000
G1 X28.803 Y-38.690 Z-1.500 F30.000
G3 X28.354 Y-38.614 Z-1.500 I-0.278 J-0.278 K0.000 F30.000
G3 X28.695 Y-39.323 Z-1.500 I0.171 J-0.355 K0.000 F30.000
G3 X28.803 Y-38.690 Z-1.500 I-0.171 J0.355 K0.000 F30.000
G1 X28.803 Y-38.690 Z-2.000 F30.000
G3 X28.354 Y-38.614 Z-2.000 I-0.278 J-0.278 K0.000 F30.000
G3 X28.695 Y-39.323 Z-2.000 I0.171 J-0.355 K0.000 F30.000
G3 X28.803 Y-38.690 Z-2.000 I-0.171 J0.355 K0.000 F30.000
G1 X28.803 Y-38.690 Z-2.500 F30.000
G3 X28.354 Y-38.614 Z-2.500 I-0.278 J-0.278 K0.000 F30.000
G3 X28.695 Y-39.323 Z-2.500 I0.171 J-0.355 K0.000 F30.000
G3 X28.803 Y-38.690 Z-2.500 I-0.171 J0.355 K0.000 F30.000
G1 X28.803 Y-38.690 Z-3.000 F30.000
G3 X28.354 Y-38.614 Z-3.000 I-0.278 J-0.278 K0.000 F30.000
G3 X28.695 Y-39.323 Z-3.000 I0.171 J-0.355 K0.000 F30.000
G3 X28.803 Y-38.690 Z-3.000 I-0.171 J0.355 K0.000 F30.000
G0 Z3.000
G0 Z3.000
(Finish operation: Profile025)
(Begin operation: Profile026)
(Path: Profile026)
(Profile026)
(Compensated Tool Path. Diameter: 2.0)
G0 Z3.000
G0 X39.000 Y-35.250
G0 Y-35.250
G0 Y-35.250 Z1.000
G1 X39.000 Y-35.250 Z-0.500 F30.000
G1 X35.500 Y-35.250 Z-0.500 F30.000
G1 X35.500 Y-36.250 Z-0.500 F30.000
G1 X39.000 Y-36.250 Z-0.500 F30.000
G1 X39.000 Y-35.250 Z-0.500 F30.000
G1 X39.000 Y-35.250 Z-1.000 F30.000
G1 X35.500 Y-35.250 Z-1.000 F30.000
G1 X35.500 Y-36.250 Z-1.000 F30.000
G1 X39.000 Y-36.250 Z-1.000 F30.000
G1 X39.000 Y-35.250 Z-1.000 F30.000
G1 X39.000 Y-35.250 Z-1.500 F30.000
G1 X35.500 Y-35.250 Z-1.500 F30.000
G1 X35.500 Y-36.250 Z-1.500 F30.000
G1 X39.000 Y-36.250 Z-1.500 F30.000
G1 X39.000 Y-35.250 Z-1.500 F30.000
G1 X39.000 Y-35.250 Z-2.000 F30.000
G1 X35.500 Y-35.250 Z-2.000 F30.000
G1 X35.500 Y-36.250 Z-2.000 F30.000
G1 X39.000 Y-36.250 Z-2.000 F30.000
G1 X39.000 Y-35.250 Z-2.000 F30.000
G1 X39.000 Y-35.250 Z-2.500 F30.000
G1 X35.500 Y-35.250 Z-2.500 F30.000
G1 X35.500 Y-36.250 Z-2.500 F30.000
G1 X39.000 Y-36.250 Z-2.500 F30.000
G1 X39.000 Y-35.250 Z-2.500 F30.000
G1 X39.000 Y-35.250 Z-3.000 F30.000
G1 X35.500 Y-35.250 Z-3.000 F30.000
G1 X35.500 Y-36.250 Z-3.000 F30.000
G1 X39.000 Y-36.250 Z-3.000 F30.000
G1 X39.000 Y-35.250 Z-3.000 F30.000
G0 Z3.000
G0 Z3.000
(Finish operation: Profile026)
(Begin operation: Profile027)
(Path: Profile027)
(Profile027)
(Compensated Tool Path. Diameter: 2.0)
G0 Z3.000
G0 X15.528 Y7.528
G0 Z1.000
G1 X15.528 Y7.528 Z-0.500 F30.000
G3 X15.079 Y7.605 Z-0.500 I-0.278 J-0.278 K0.000 F30.000
G3 X15.421 Y6.895 Z-0.500 I0.171 J-0.355 K0.000 F30.000
G3 X15.528 Y7.528 Z-0.500 I-0.171 J0.355 K0.000 F30.000
G1 X15.528 Y7.528 Z-1.000 F30.000
G3 X15.079 Y7.605 Z-1.000 I-0.278 J-0.278 K0.000 F30.000
G3 X15.421 Y6.895 Z-1.000 I0.171 J-0.355 K0.000 F30.000
G3 X15.528 Y7.528 Z-1.000 I-0.171 J0.355 K0.000 F30.000
G1 X15.528 Y7.528 Z-1.500 F30.000
G3 X15.079 Y7.605 Z-1.500 I-0.278 J-0.278 K0.000 F30.000
G3 X15.421 Y6.895 Z-1.500 I0.171 J-0.355 K0.000 F30.000
G3 X15.528 Y7.528 Z-1.500 I-0.171 J0.355 K0.000 F30.000
G1 X15.528 Y7.528 Z-2.000 F30.000
G3 X15.079 Y7.605 Z-2.000 I-0.278 J-0.278 K0.000 F30.000
G3 X15.421 Y6.895 Z-2.000 I0.171 J-0.355 K0.000 F30.000
G3 X15.528 Y7.528 Z-2.000 I-0.171 J0.355 K0.000 F30.000
G1 X15.528 Y7.528 Z-2.500 F30.000
G3 X15.079 Y7.605 Z-2.500 I-0.278 J-0.278 K0.000 F30.000
G3 X15.421 Y6.895 Z-2.500 I0.171 J-0.355 K0.000 F30.000
G3 X15.528 Y7.528 Z-2.500 I-0.171 J0.355 K0.000 F30.000
G1 X15.528 Y7.528 Z-3.000 F30.000
G3 X15.079 Y7.605 Z-3.000 I-0.278 J-0.278 K0.000 F30.000
G3 X15.421 Y6.895 Z-3.000 I0.171 J-0.355 K0.000 F30.000
G3 X15.528 Y7.528 Z-3.000 I-0.171 J0.355 K0.000 F30.000
G0 Z3.000
G0 Z3.000
(Finish operation: Profile027)
(Begin operation: Profile028)
(Path: Profile028)
(Profile028)
(Compensated Tool Path. Diameter: 2.0)
G0 Z3.000
G0 X29.528 Y7.528
G0 Z1.000
G1 X29.528 Y7.528 Z-0.500 F30.000
G3 X29.079 Y7.605 Z-0.500 I-0.278 J-0.278 K0.000 F30.000
G3 X29.421 Y6.895 Z-0.500 I0.171 J-0.355 K0.000 F30.000
G3 X29.528 Y7.528 Z-0.500 I-0.171 J0.355 K0.000 F30.000
G1 X29.528 Y7.528 Z-1.000 F30.000
G3 X29.079 Y7.605 Z-1.000 I-0.278 J-0.278 K0.000 F30.000
G3 X29.421 Y6.895 Z-1.000 I0.171 J-0.355 K0.000 F30.000
G3 X29.528 Y7.528 Z-1.000 I-0.171 J0.355 K0.000 F30.000
G1 X29.528 Y7.528 Z-1.500 F30.000
G3 X29.079 Y7.605 Z-1.500 I-0.278 J-0.278 K0.000 F30.000
G3 X29.421 Y6.895 Z-1.500 I0.171 J-0.355 K0.000 F30.000
G3 X29.528 Y7.528 Z-1.500 I-0.171 J0.355 K0.000 F30.000
G1 X29.528 Y7.528 Z-2.000 F30.000
G3 X29.079 Y7.605 Z-2.000 I-0.278 J-0.278 K0.000 F30.000
G3 X29.421 Y6.895 Z-2.000 I0.171 J-0.355 K0.000 F30.000
G3 X29.528 Y7.528 Z-2.000 I-0.171 J0.355 K0.000 F30.000
G1 X29.528 Y7.528 Z-2.500 F30.000
G3 X29.079 Y7.605 Z-2.500 I-0.278 J-0.278 K0.000 F30.000
G3 X29.421 Y6.895 Z-2.500 I0.171 J-0.355 K0.000 F30.000
G3 X29.528 Y7.528 Z-2.500 I-0.171 J0.355 K0.000 F30.000
G1 X29.528 Y7.528 Z-3.000 F30.000
G3 X29.079 Y7.605 Z-3.000 I-0.278 J-0.278 K0.000 F30.000
G3 X29.421 Y6.895 Z-3.000 I0.171 J-0.355 K0.000 F30.000
G3 X29.528 Y7.528 Z-3.000 I-0.171 J0.355 K0.000 F30.000
G0 Z3.000
G0 Z3.000
(Finish operation: Profile028)
(Begin operation: Profile029)
(Path: Profile029)
(Profile029)
(Compensated Tool Path. Diameter: 2.0)
G0 Z3.000
G0 X9.000 Y12.250
G0 Z1.000
G1 X9.000 Y12.250 Z-0.500 F30.000
G1 X5.500 Y12.250 Z-0.500 F30.000
G1 X5.500 Y11.250 Z-0.500 F30.000
G1 X9.000 Y11.250 Z-0.500 F30.000
G1 X9.000 Y12.250 Z-0.500 F30.000
G1 X9.000 Y12.250 Z-1.000 F30.000
G1 X5.500 Y12.250 Z-1.000 F30.000
G1 X5.500 Y11.250 Z-1.000 F30.000
G1 X9.000 Y11.250 Z-1.000 F30.000
G1 X9.000 Y12.250 Z-1.000 F30.000
G1 X9.000 Y12.250 Z-1.500 F30.000
G1 X5.500 Y12.250 Z-1.500 F30.000
G1 X5.500 Y11.250 Z-1.500 F30.000
G1 X9.000 Y11.250 Z-1.500 F30.000
G1 X9.000 Y12.250 Z-1.500 F30.000
G1 X9.000 Y12.250 Z-2.000 F30.000
G1 X5.500 Y12.250 Z-2.000 F30.000
G1 X5.500 Y11.250 Z-2.000 F30.000
G1 X9.000 Y11.250 Z-2.000 F30.000
G1 X9.000 Y12.250 Z-2.000 F30.000
G1 X9.000 Y12.250 Z-2.500 F30.000
G1 X5.500 Y12.250 Z-2.500 F30.000
G1 X5.500 Y11.250 Z-2.500 F30.000
G1 X9.000 Y11.250 Z-2.500 F30.000
G1 X9.000 Y12.250 Z-2.500 F30.000
G1 X9.000 Y12.250 Z-3.000 F30.000
G1 X5.500 Y12.250 Z-3.000 F30.000
G1 X5.500 Y11.250 Z-3.000 F30.000
G1 X9.000 Y11.250 Z-3.000 F30.000
G1 X9.000 Y12.250 Z-3.000 F30.000
G0 Z3.000
G0 Z3.000
(Finish operation: Profile029)
(Begin operation: Profile030)
(Path: Profile030)
(Profile030)
(Compensated Tool Path. Diameter: 2.0)
G0 Z3.000
G0 X39.000 Y12.250
G0 Z1.000
G1 X39.000 Y12.250 Z-0.500 F30.000
G1 X35.500 Y12.250 Z-0.500 F30.000
G1 X35.500 Y11.250 Z-0.500 F30.000
G1 X39.000 Y11.250 Z-0.500 F30.000
G1 X39.000 Y12.250 Z-0.500 F30.000
G1 X39.000 Y12.250 Z-1.000 F30.000
G1 X35.500 Y12.250 Z-1.000 F30.000
G1 X35.500 Y11.250 Z-1.000 F30.000
G1 X39.000 Y11.250 Z-1.000 F30.000
G1 X39.000 Y12.250 Z-1.000 F30.000
G1 X39.000 Y12.250 Z-1.500 F30.000
G1 X35.500 Y12.250 Z-1.500 F30.000
G1 X35.500 Y11.250 Z-1.500 F30.000
G1 X39.000 Y11.250 Z-1.500 F30.000
G1 X39.000 Y12.250 Z-1.500 F30.000
G1 X39.000 Y12.250 Z-2.000 F30.000
G1 X35.500 Y12.250 Z-2.000 F30.000
G1 X35.500 Y11.250 Z-2.000 F30.000
G1 X39.000 Y11.250 Z-2.000 F30.000
G1 X39.000 Y12.250 Z-2.000 F30.000
G1 X39.000 Y12.250 Z-2.500 F30.000
G1 X35.500 Y12.250 Z-2.500 F30.000
G1 X35.500 Y11.250 Z-2.500 F30.000
G1 X39.000 Y11.250 Z-2.500 F30.000
G1 X39.000 Y12.250 Z-2.500 F30.000
G1 X39.000 Y12.250 Z-3.000 F30.000
G1 X35.500 Y12.250 Z-3.000 F30.000
G1 X35.500 Y11.250 Z-3.000 F30.000
G1 X39.000 Y11.250 Z-3.000 F30.000
G1 X39.000 Y12.250 Z-3.000 F30.000
G0 Z3.000
G0 Z3.000
(Finish operation: Profile030)
(Begin operation: Profile031)
(Path: Profile031)
(Profile031)
(Compensated Tool Path. Diameter: 2.0)
G0 Z3.000
G0 X15.778 Y24.069
G0 Z1.000
G1 X15.778 Y24.069 Z-0.500 F30.000
G3 X15.329 Y24.145 Z-0.500 I-0.278 J-0.278 K0.000 F30.000
G3 X15.671 Y23.436 Z-0.500 I0.171 J-0.355 K0.000 F30.000
G3 X15.778 Y24.069 Z-0.500 I-0.171 J0.355 K0.000 F30.000
G1 X15.778 Y24.069 Z-1.000 F30.000
G3 X15.329 Y24.145 Z-1.000 I-0.278 J-0.278 K0.000 F30.000
G3 X15.671 Y23.436 Z-1.000 I0.171 J-0.355 K0.000 F30.000
G3 X15.778 Y24.069 Z-1.000 I-0.171 J0.355 K0.000 F30.000
G1 X15.778 Y24.069 Z-1.500 F30.000
G3 X15.329 Y24.145 Z-1.500 I-0.278 J-0.278 K0.000 F30.000
G3 X15.671 Y23.436 Z-1.500 I0.171 J-0.355 K0.000 F30.000
G3 X15.778 Y24.069 Z-1.500 I-0.171 J0.355 K0.000 F30.000
G1 X15.778 Y24.069 Z-2.000 F30.000
G3 X15.329 Y24.145 Z-2.000 I-0.278 J-0.278 K0.000 F30.000
G3 X15.671 Y23.436 Z-2.000 I0.171 J-0.355 K0.000 F30.000
G3 X15.778 Y24.069 Z-2.000 I-0.171 J0.355 K0.000 F30.000
G1 X15.778 Y24.069 Z-2.500 F30.000
G3 X15.329 Y24.145 Z-2.500 I-0.278 J-0.278 K0.000 F30.000
G3 X15.671 Y23.436 Z-2.500 I0.171 J-0.355 K0.000 F30.000
G3 X15.778 Y24.069 Z-2.500 I-0.171 J0.355 K0.000 F30.000
G1 X15.778 Y24.069 Z-3.000 F30.000
G3 X15.329 Y24.145 Z-3.000 I-0.278 J-0.278 K0.000 F30.000
G3 X15.671 Y23.436 Z-3.000 I0.171 J-0.355 K0.000 F30.000
G3 X15.778 Y24.069 Z-3.000 I-0.171 J0.355 K0.000 F30.000
G0 Z3.000
G0 Z3.000
(Finish operation: Profile031)
(Begin operation: Profile034)
(Path: Profile034)
(Profile034)
(Compensated Tool Path. Diameter: 2.0)
G0 Z3.000
G0 X10.254 Y28.810
G0 Z1.000
G1 X10.254 Y28.810 Z-0.500 F30.000
G3 X9.805 Y28.886 Z-0.500 I-0.278 J-0.278 K0.000 F30.000
G3 X10.146 Y28.177 Z-0.500 I0.171 J-0.355 K0.000 F30.000
G3 X10.254 Y28.810 Z-0.500 I-0.171 J0.355 K0.000 F30.000
G1 X10.254 Y28.810 Z-1.000 F30.000
G3 X9.805 Y28.886 Z-1.000 I-0.278 J-0.278 K0.000 F30.000
G3 X10.146 Y28.177 Z-1.000 I0.171 J-0.355 K0.000 F30.000
G3 X10.254 Y28.810 Z-1.000 I-0.171 J0.355 K0.000 F30.000
G1 X10.254 Y28.810 Z-1.500 F30.000
G3 X9.805 Y28.886 Z-1.500 I-0.278 J-0.278 K0.000 F30.000
G3 X10.146 Y28.177 Z-1.500 I0.171 J-0.355 K0.000 F30.000
G3 X10.254 Y28.810 Z-1.500 I-0.171 J0.355 K0.000 F30.000
G1 X10.254 Y28.810 Z-2.000 F30.000
G3 X9.805 Y28.886 Z-2.000 I-0.278 J-0.278 K0.000 F30.000
G3 X10.146 Y28.177 Z-2.000 I0.171 J-0.355 K0.000 F30.000
G3 X10.254 Y28.810 Z-2.000 I-0.171 J0.355 K0.000 F30.000
G1 X10.254 Y28.810 Z-2.500 F30.000
G3 X9.805 Y28.886 Z-2.500 I-0.278 J-0.278 K0.000 F30.000
G3 X10.146 Y28.177 Z-2.500 I0.171 J-0.355 K0.000 F30.000
G3 X10.254 Y28.810 Z-2.500 I-0.171 J0.355 K0.000 F30.000
G1 X10.254 Y28.810 Z-3.000 F30.000
G3 X9.805 Y28.886 Z-3.000 I-0.278 J-0.278 K0.000 F30.000
G3 X10.146 Y28.177 Z-3.000 I0.171 J-0.355 K0.000 F30.000
G3 X10.254 Y28.810 Z-3.000 I-0.171 J0.355 K0.000 F30.000
G0 Z3.000
G0 Z3.000
(Finish operation: Profile034)
(Begin operation: Profile035)
(Path: Profile035)
(Profile035)
(Compensated Tool Path. Diameter: 2.0)
G0 Z3.000
G0 X9.000 Y36.250
G0 Y36.250
G0 Y36.250 Z1.000
G1 X9.000 Y36.250 Z-0.500 F30.000
G1 X5.500 Y36.250 Z-0.500 F30.000
G1 X5.500 Y35.250 Z-0.500 F30.000
G1 X9.000 Y35.250 Z-0.500 F30.000
G1 X9.000 Y36.250 Z-0.500 F30.000
G1 X9.000 Y36.250 Z-1.000 F30.000
G1 X5.500 Y36.250 Z-1.000 F30.000
G1 X5.500 Y35.250 Z-1.000 F30.000
G1 X9.000 Y35.250 Z-1.000 F30.000
G1 X9.000 Y36.250 Z-1.000 F30.000
G1 X9.000 Y36.250 Z-1.500 F30.000
G1 X5.500 Y36.250 Z-1.500 F30.000
G1 X5.500 Y35.250 Z-1.500 F30.000
G1 X9.000 Y35.250 Z-1.500 F30.000
G1 X9.000 Y36.250 Z-1.500 F30.000
G1 X9.000 Y36.250 Z-2.000 F30.000
G1 X5.500 Y36.250 Z-2.000 F30.000
G1 X5.500 Y35.250 Z-2.000 F30.000
G1 X9.000 Y35.250 Z-2.000 F30.000
G1 X9.000 Y36.250 Z-2.000 F30.000
G1 X9.000 Y36.250 Z-2.500 F30.000
G1 X5.500 Y36.250 Z-2.500 F30.000
G1 X5.500 Y35.250 Z-2.500 F30.000
G1 X9.000 Y35.250 Z-2.500 F30.000
G1 X9.000 Y36.250 Z-2.500 F30.000
G1 X9.000 Y36.250 Z-3.000 F30.000
G1 X5.500 Y36.250 Z-3.000 F30.000
G1 X5.500 Y35.250 Z-3.000 F30.000
G1 X9.000 Y35.250 Z-3.000 F30.000
G1 X9.000 Y36.250 Z-3.000 F30.000
G0 Z3.000
G0 Z3.000
(Finish operation: Profile035)
(Begin operation: Profile037)
(Path: Profile037)
(Profile037)
(Compensated Tool Path. Diameter: 2.0)
G0 Z3.000
G0 X28.803 Y39.247
G0 Z1.000
G1 X28.803 Y39.247 Z-0.500 F30.000
G3 X28.354 Y39.323 Z-0.500 I-0.278 J-0.278 K0.000 F30.000
G3 X28.695 Y38.614 Z-0.500 I0.171 J-0.355 K0.000 F30.000
G3 X28.803 Y39.247 Z-0.500 I-0.171 J0.355 K0.000 F30.000
G1 X28.803 Y39.247 Z-1.000 F30.000
G3 X28.354 Y39.323 Z-1.000 I-0.278 J-0.278 K0.000 F30.000
G3 X28.695 Y38.614 Z-1.000 I0.171 J-0.355 K0.000 F30.000
G3 X28.803 Y39.247 Z-1.000 I-0.171 J0.355 K0.000 F30.000
G1 X28.803 Y39.247 Z-1.500 F30.000
G3 X28.354 Y39.323 Z-1.500 I-0.278 J-0.278 K0.000 F30.000
G3 X28.695 Y38.614 Z-1.500 I0.171 J-0.355 K0.000 F30.000
G3 X28.803 Y39.247 Z-1.500 I-0.171 J0.355 K0.000 F30.000
G1 X28.803 Y39.247 Z-2.000 F30.000
G3 X28.354 Y39.323 Z-2.000 I-0.278 J-0.278 K0.000 F30.000
G3 X28.695 Y38.614 Z-2.000 I0.171 J-0.355 K0.000 F30.000
G3 X28.803 Y39.247 Z-2.000 I-0.171 J0.355 K0.000 F30.000
G1 X28.803 Y39.247 Z-2.500 F30.000
G3 X28.354 Y39.323 Z-2.500 I-0.278 J-0.278 K0.000 F30.000
G3 X28.695 Y38.614 Z-2.500 I0.171 J-0.355 K0.000 F30.000
G3 X28.803 Y39.247 Z-2.500 I-0.171 J0.355 K0.000 F30.000
G1 X28.803 Y39.247 Z-3.000 F30.000
G3 X28.354 Y39.323 Z-3.000 I-0.278 J-0.278 K0.000 F30.000
G3 X28.695 Y38.614 Z-3.000 I0.171 J-0.355 K0.000 F30.000
G3 X28.803 Y39.247 Z-3.000 I-0.171 J0.355 K0.000 F30.000
G0 Z3.000
G0 Z3.000
(Finish operation: Profile037)
(Begin operation: Profile038)
(Path: Profile038)
(Profile038)
(Compensated Tool Path. Diameter: 2.0)
G0 Z3.000
G0 X39.000 Y36.250
G0 Y36.250
G0 Y36.250 Z1.000
G1 X39.000 Y36.250 Z-0.500 F30.000
G1 X35.500 Y36.250 Z-0.500 F30.000
G1 X35.500 Y35.250 Z-0.500 F30.000
G1 X39.000 Y35.250 Z-0.500 F30.000
G1 X39.000 Y36.250 Z-0.500 F30.000
G1 X39.000 Y36.250 Z-1.000 F30.000
G1 X35.500 Y36.250 Z-1.000 F30.000
G1 X35.500 Y35.250 Z-1.000 F30.000
G1 X39.000 Y35.250 Z-1.000 F30.000
G1 X39.000 Y36.250 Z-1.000 F30.000
G1 X39.000 Y36.250 Z-1.500 F30.000
G1 X35.500 Y36.250 Z-1.500 F30.000
G1 X35.500 Y35.250 Z-1.500 F30.000
G1 X39.000 Y35.250 Z-1.500 F30.000
G1 X39.000 Y36.250 Z-1.500 F30.000
G1 X39.000 Y36.250 Z-2.000 F30.000
G1 X35.500 Y36.250 Z-2.000 F30.000
G1 X35.500 Y35.250 Z-2.000 F30.000
G1 X39.000 Y35.250 Z-2.000 F30.000
G1 X39.000 Y36.250 Z-2.000 F30.000
G1 X39.000 Y36.250 Z-2.500 F30.000
G1 X35.500 Y36.250 Z-2.500 F30.000
G1 X35.500 Y35.250 Z-2.500 F30.000
G1 X39.000 Y35.250 Z-2.500 F30.000
G1 X39.000 Y36.250 Z-2.500 F30.000
G1 X39.000 Y36.250 Z-3.000 F30.000
G1 X35.500 Y36.250 Z-3.000 F30.000
G1 X35.500 Y35.250 Z-3.000 F30.000
G1 X39.000 Y35.250 Z-3.000 F30.000
G1 X39.000 Y36.250 Z-3.000 F30.000
G0 Z3.000
G0 Z3.000
(Finish operation: Profile038)
(Begin operation: Profile039)
(Path: Profile039)
(Profile039)
(Compensated Tool Path. Diameter: 2.0)
G0 Z3.000
G0 X-28.972 Y7.528
G0 Z1.000
G1 X-28.972 Y7.528 Z-0.500 F30.000
G3 X-29.421 Y7.605 Z-0.500 I-0.278 J-0.278 K0.000 F30.000
G3 X-29.605 Y7.079 Z-0.500 I0.171 J-0.355 K0.000 F30.000
G3 X-29.079 Y6.895 Z-0.500 I0.355 J0.171 K0.000 F30.000
G3 X-28.972 Y7.528 Z-0.500 I-0.171 J0.355 K0.000 F30.000
G1 X-28.972 Y7.528 Z-1.000 F30.000
G3 X-29.421 Y7.605 Z-1.000 I-0.278 J-0.278 K0.000 F30.000
G3 X-29.605 Y7.079 Z-1.000 I0.171 J-0.355 K0.000 F30.000
G3 X-29.079 Y6.895 Z-1.000 I0.355 J0.171 K0.000 F30.000
G3 X-28.972 Y7.528 Z-1.000 I-0.171 J0.355 K0.000 F30.000
G1 X-28.972 Y7.528 Z-1.500 F30.000
G3 X-29.421 Y7.605 Z-1.500 I-0.278 J-0.278 K0.000 F30.000
G3 X-29.605 Y7.079 Z-1.500 I0.171 J-0.355 K0.000 F30.000
G3 X-29.079 Y6.895 Z-1.500 I0.355 J0.171 K0.000 F30.000
G3 X-28.972 Y7.528 Z-1.500 I-0.171 J0.355 K0.000 F30.000
G1 X-28.972 Y7.528 Z-2.000 F30.000
G3 X-29.421 Y7.605 Z-2.000 I-0.278 J-0.278 K0.000 F30.000
G3 X-29.605 Y7.079 Z-2.000 I0.171 J-0.355 K0.000 F30.000
G3 X-29.079 Y6.895 Z-2.000 I0.355 J0.171 K0.000 F30.000
G3 X-28.972 Y7.528 Z-2.000 I-0.171 J0.355 K0.000 F30.000
G1 X-28.972 Y7.528 Z-2.500 F30.000
G3 X-29.421 Y7.605 Z-2.500 I-0.278 J-0.278 K0.000 F30.000
G3 X-29.605 Y7.079 Z-2.500 I0.171 J-0.355 K0.000 F30.000
G3 X-29.079 Y6.895 Z-2.500 I0.355 J0.171 K0.000 F30.000
G3 X-28.972 Y7.528 Z-2.500 I-0.171 J0.355 K0.000 F30.000
G1 X-28.972 Y7.528 Z-3.000 F30.000
G3 X-29.421 Y7.605 Z-3.000 I-0.278 J-0.278 K0.000 F30.000
G3 X-29.605 Y7.079 Z-3.000 I0.171 J-0.355 K0.000 F30.000
G3 X-29.079 Y6.895 Z-3.000 I0.355 J0.171 K0.000 F30.000
G3 X-28.972 Y7.528 Z-3.000 I-0.171 J0.355 K0.000 F30.000
G0 Z3.000
G0 Z3.000
(Finish operation: Profile039)
(Begin operation: Profile040)
(Path: Profile040)
(Profile040)
(Compensated Tool Path. Diameter: 2.0)
G0 Z3.000
G0 X-14.972 Y7.528
G0 Z1.000
G1 X-14.972 Y7.528 Z-0.500 F30.000
G3 X-15.421 Y7.605 Z-0.500 I-0.278 J-0.278 K0.000 F30.000
G3 X-15.605 Y7.079 Z-0.500 I0.171 J-0.355 K0.000 F30.000
G3 X-15.079 Y6.895 Z-0.500 I0.355 J0.171 K0.000 F30.000
G3 X-14.972 Y7.528 Z-0.500 I-0.171 J0.355 K0.000 F30.000
G1 X-14.972 Y7.528 Z-1.000 F30.000
G3 X-15.421 Y7.605 Z-1.000 I-0.278 J-0.278 K0.000 F30.000
G3 X-15.605 Y7.079 Z-1.000 I0.171 J-0.355 K0.000 F30.000
G3 X-15.079 Y6.895 Z-1.000 I0.355 J0.171 K0.000 F30.000
G3 X-14.972 Y7.528 Z-1.000 I-0.171 J0.355 K0.000 F30.000
G1 X-14.972 Y7.528 Z-1.500 F30.000
G3 X-15.421 Y7.605 Z-1.500 I-0.278 J-0.278 K0.000 F30.000
G3 X-15.605 Y7.079 Z-1.500 I0.171 J-0.355 K0.000 F30.000
G3 X-15.079 Y6.895 Z-1.500 I0.355 J0.171 K0.000 F30.000
G3 X-14.972 Y7.528 Z-1.500 I-0.171 J0.355 K0.000 F30.000
G1 X-14.972 Y7.528 Z-2.000 F30.000
G3 X-15.421 Y7.605 Z-2.000 I-0.278 J-0.278 K0.000 F30.000
G3 X-15.605 Y7.079 Z-2.000 I0.171 J-0.355 K0.000 F30.000
G3 X-15.079 Y6.895 Z-2.000 I0.355 J0.171 K0.000 F30.000
G3 X-14.972 Y7.528 Z-2.000 I-0.171 J0.355 K0.000 F30.000
G1 X-14.972 Y7.528 Z-2.500 F30.000
G3 X-15.421 Y7.605 Z-2.500 I-0.278 J-0.278 K0.000 F30.000
G3 X-15.605 Y7.079 Z-2.500 I0.171 J-0.355 K0.000 F30.000
G3 X-15.079 Y6.895 Z-2.500 I0.355 J0.171 K0.000 F30.000
G3 X-14.972 Y7.528 Z-2.500 I-0.171 J0.355 K0.000 F30.000
G1 X-14.972 Y7.528 Z-3.000 F30.000
G3 X-15.421 Y7.605 Z-3.000 I-0.278 J-0.278 K0.000 F30.000
G3 X-15.605 Y7.079 Z-3.000 I0.171 J-0.355 K0.000 F30.000
G3 X-15.079 Y6.895 Z-3.000 I0.355 J0.171 K0.000 F30.000
G3 X-14.972 Y7.528 Z-3.000 I-0.171 J0.355 K0.000 F30.000
G0 Z3.000
G0 Z3.000
(Finish operation: Profile040)
(Begin operation: Profile041)
(Path: Profile041)
(Profile041)
(Compensated Tool Path. Diameter: 2.0)
G0 Z3.000
G0 X-5.500 Y12.250
G0 Z1.000
G1 X-5.500 Y12.250 Z-0.500 F30.000
G1 X-9.000 Y12.250 Z-0.500 F30.000
G1 X-9.000 Y11.250 Z-0.500 F30.000
G1 X-5.500 Y11.250 Z-0.500 F30.000
G1 X-5.500 Y12.250 Z-0.500 F30.000
G1 X-5.500 Y12.250 Z-1.000 F30.000
G1 X-9.000 Y12.250 Z-1.000 F30.000
G1 X-9.000 Y11.250 Z-1.000 F30.000
G1 X-5.500 Y11.250 Z-1.000 F30.000
G1 X-5.500 Y12.250 Z-1.000 F30.000
G1 X-5.500 Y12.250 Z-1.500 F30.000
G1 X-9.000 Y12.250 Z-1.500 F30.000
G1 X-9.000 Y11.250 Z-1.500 F30.000
G1 X-5.500 Y11.250 Z-1.500 F30.000
G1 X-5.500 Y12.250 Z-1.500 F30.000
G1 X-5.500 Y12.250 Z-2.000 F30.000
G1 X-9.000 Y12.250 Z-2.000 F30.000
G1 X-9.000 Y11.250 Z-2.000 F30.000
G1 X-5.500 Y11.250 Z-2.000 F30.000
G1 X-5.500 Y12.250 Z-2.000 F30.000
G1 X-5.500 Y12.250 Z-2.500 F30.000
G1 X-9.000 Y12.250 Z-2.500 F30.000
G1 X-9.000 Y11.250 Z-2.500 F30.000
G1 X-5.500 Y11.250 Z-2.500 F30.000
G1 X-5.500 Y12.250 Z-2.500 F30.000
G1 X-5.500 Y12.250 Z-3.000 F30.000
G1 X-9.000 Y12.250 Z-3.000 F30.000
G1 X-9.000 Y11.250 Z-3.000 F30.000
G1 X-5.500 Y11.250 Z-3.000 F30.000
G1 X-5.500 Y12.250 Z-3.000 F30.000
G0 Z3.000
G0 Z3.000
(Finish operation: Profile041)
(Begin operation: Profile042)
(Path: Profile042)
(Profile042)
(Compensated Tool Path. Diameter: 2.0)
G0 Z3.000
G0 X-35.500 Y12.250
G0 Z1.000
G1 X-35.500 Y12.250 Z-0.500 F30.000
G1 X-39.000 Y12.250 Z-0.500 F30.000
G1 X-39.000 Y11.250 Z-0.500 F30.000
G1 X-35.500 Y11.250 Z-0.500 F30.000
G1 X-35.500 Y12.250 Z-0.500 F30.000
G1 X-35.500 Y12.250 Z-1.000 F30.000
G1 X-39.000 Y12.250 Z-1.000 F30.000
G1 X-39.000 Y11.250 Z-1.000 F30.000
G1 X-35.500 Y11.250 Z-1.000 F30.000
G1 X-35.500 Y12.250 Z-1.000 F30.000
G1 X-35.500 Y12.250 Z-1.500 F30.000
G1 X-39.000 Y12.250 Z-1.500 F30.000
G1 X-39.000 Y11.250 Z-1.500 F30.000
G1 X-35.500 Y11.250 Z-1.500 F30.000
G1 X-35.500 Y12.250 Z-1.500 F30.000
G1 X-35.500 Y12.250 Z-2.000 F30.000
G1 X-39.000 Y12.250 Z-2.000 F30.000
G1 X-39.000 Y11.250 Z-2.000 F30.000
G1 X-35.500 Y11.250 Z-2.000 F30.000
G1 X-35.500 Y12.250 Z-2.000 F30.000
G1 X-35.500 Y12.250 Z-2.500 F30.000
G1 X-39.000 Y12.250 Z-2.500 F30.000
G1 X-39.000 Y11.250 Z-2.500 F30.000
G1 X-35.500 Y11.250 Z-2.500 F30.000
G1 X-35.500 Y12.250 Z-2.500 F30.000
G1 X-35.500 Y12.250 Z-3.000 F30.000
G1 X-39.000 Y12.250 Z-3.000 F30.000
G1 X-39.000 Y11.250 Z-3.000 F30.000
G1 X-35.500 Y11.250 Z-3.000 F30.000
G1 X-35.500 Y12.250 Z-3.000 F30.000
G0 Z3.000
G0 Z3.000
(Finish operation: Profile042)
(Begin operation: Profile045)
(Path: Profile045)
(Profile045)
(Compensated Tool Path. Diameter: 2.0)
G0 Z3.000
G0 X-15.222 Y24.069
G0 Z1.000
G1 X-15.222 Y24.069 Z-0.500 F30.000
G3 X-15.671 Y24.145 Z-0.500 I-0.278 J-0.278 K0.000 F30.000
G3 X-15.855 Y23.620 Z-0.500 I0.171 J-0.355 K0.000 F30.000
G3 X-15.329 Y23.436 Z-0.500 I0.355 J0.171 K0.000 F30.000
G3 X-15.222 Y24.069 Z-0.500 I-0.171 J0.355 K0.000 F30.000
G1 X-15.222 Y24.069 Z-1.000 F30.000
G3 X-15.671 Y24.145 Z-1.000 I-0.278 J-0.278 K0.000 F30.000
G3 X-15.855 Y23.620 Z-1.000 I0.171 J-0.355 K0.000 F30.000
G3 X-15.329 Y23.436 Z-1.000 I0.355 J0.171 K0.000 F30.000
G3 X-15.222 Y24.069 Z-1.000 I-0.171 J0.355 K0.000 F30.000
G1 X-15.222 Y24.069 Z-1.500 F30.000
G3 X-15.671 Y24.145 Z-1.500 I-0.278 J-0.278 K0.000 F30.000
G3 X-15.855 Y23.620 Z-1.500 I0.171 J-0.355 K0.000 F30.000
G3 X-15.329 Y23.436 Z-1.500 I0.355 J0.171 K0.000 F30.000
G3 X-15.222 Y24.069 Z-1.500 I-0.171 J0.355 K0.000 F30.000
G1 X-15.222 Y24.069 Z-2.000 F30.000
G3 X-15.671 Y24.145 Z-2.000 I-0.278 J-0.278 K0.000 F30.000
G3 X-15.855 Y23.620 Z-2.000 I0.171 J-0.355 K0.000 F30.000
G3 X-15.329 Y23.436 Z-2.000 I0.355 J0.171 K0.000 F30.000
G3 X-15.222 Y24.069 Z-2.000 I-0.171 J0.355 K0.000 F30.000
G1 X-15.222 Y24.069 Z-2.500 F30.000
G3 X-15.671 Y24.145 Z-2.500 I-0.278 J-0.278 K0.000 F30.000
G3 X-15.855 Y23.620 Z-2.500 I0.171 J-0.355 K0.000 F30.000
G3 X-15.329 Y23.436 Z-2.500 I0.355 J0.171 K0.000 F30.000
G3 X-15.222 Y24.069 Z-2.500 I-0.171 J0.355 K0.000 F30.000
G1 X-15.222 Y24.069 Z-3.000 F30.000
G3 X-15.671 Y24.145 Z-3.000 I-0.278 J-0.278 K0.000 F30.000
G3 X-15.855 Y23.620 Z-3.000 I0.171 J-0.355 K0.000 F30.000
G3 X-15.329 Y23.436 Z-3.000 I0.355 J0.171 K0.000 F30.000
G3 X-15.222 Y24.069 Z-3.000 I-0.171 J0.355 K0.000 F30.000
G0 Z3.000
G0 Z3.000
(Finish operation: Profile045)
(Begin operation: Profile046)
(Path: Profile046)
(Profile046)
(Compensated Tool Path. Diameter: 2.0)
G0 Z3.000
G0 X-9.697 Y28.810
G0 Z1.000
G1 X-9.697 Y28.810 Z-0.500 F30.000
G3 X-10.146 Y28.886 Z-0.500 I-0.278 J-0.278 K0.000 F30.000
G3 X-10.330 Y28.360 Z-0.500 I0.171 J-0.355 K0.000 F30.000
G3 X-9.805 Y28.177 Z-0.500 I0.355 J0.171 K0.000 F30.000
G3 X-9.697 Y28.810 Z-0.500 I-0.171 J0.355 K0.000 F30.000
G1 X-9.697 Y28.810 Z-1.000 F30.000
G3 X-10.146 Y28.886 Z-1.000 I-0.278 J-0.278 K0.000 F30.000
G3 X-10.330 Y28.360 Z-1.000 I0.171 J-0.355 K0.000 F30.000
G3 X-9.805 Y28.177 Z-1.000 I0.355 J0.171 K0.000 F30.000
G3 X-9.697 Y28.810 Z-1.000 I-0.171 J0.355 K0.000 F30.000
G1 X-9.697 Y28.810 Z-1.500 F30.000
G3 X-10.146 Y28.886 Z-1.500 I-0.278 J-0.278 K0.000 F30.000
G3 X-10.330 Y28.360 Z-1.500 I0.171 J-0.355 K0.000 F30.000
G3 X-9.805 Y28.177 Z-1.500 I0.355 J0.171 K0.000 F30.000
G3 X-9.697 Y28.810 Z-1.500 I-0.171 J0.355 K0.000 F30.000
G1 X-9.697 Y28.810 Z-2.000 F30.000
G3 X-10.146 Y28.886 Z-2.000 I-0.278 J-0.278 K0.000 F30.000
G3 X-10.330 Y28.360 Z-2.000 I0.171 J-0.355 K0.000 F30.000
G3 X-9.805 Y28.177 Z-2.000 I0.355 J0.171 K0.000 F30.000
G3 X-9.697 Y28.810 Z-2.000 I-0.171 J0.355 K0.000 F30.000
G1 X-9.697 Y28.810 Z-2.500 F30.000
G3 X-10.146 Y28.886 Z-2.500 I-0.278 J-0.278 K0.000 F30.000
G3 X-10.330 Y28.360 Z-2.500 I0.171 J-0.355 K0.000 F30.000
G3 X-9.805 Y28.177 Z-2.500 I0.355 J0.171 K0.000 F30.000
G3 X-9.697 Y28.810 Z-2.500 I-0.171 J0.355 K0.000 F30.000
G1 X-9.697 Y28.810 Z-3.000 F30.000
G3 X-10.146 Y28.886 Z-3.000 I-0.278 J-0.278 K0.000 F30.000
G3 X-10.330 Y28.360 Z-3.000 I0.171 J-0.355 K0.000 F30.000
G3 X-9.805 Y28.177 Z-3.000 I0.355 J0.171 K0.000 F30.000
G3 X-9.697 Y28.810 Z-3.000 I-0.171 J0.355 K0.000 F30.000
G0 Z3.000
G0 Z3.000
(Finish operation: Profile046)
(Begin operation: Profile047)
(Path: Profile047)
(Profile047)
(Compensated Tool Path. Diameter: 2.0)
G0 Z3.000
G0 X-35.500 Y36.250
G0 Y36.250
G0 Y36.250 Z1.000
G1 X-35.500 Y36.250 Z-0.500 F30.000
G1 X-39.000 Y36.250 Z-0.500 F30.000
G1 X-39.000 Y35.250 Z-0.500 F30.000
G1 X-35.500 Y35.250 Z-0.500 F30.000
G1 X-35.500 Y36.250 Z-0.500 F30.000
G1 X-35.500 Y36.250 Z-1.000 F30.000
G1 X-39.000 Y36.250 Z-1.000 F30.000
G1 X-39.000 Y35.250 Z-1.000 F30.000
G1 X-35.500 Y35.250 Z-1.000 F30.000
G1 X-35.500 Y36.250 Z-1.000 F30.000
G1 X-35.500 Y36.250 Z-1.500 F30.000
G1 X-39.000 Y36.250 Z-1.500 F30.000
G1 X-39.000 Y35.250 Z-1.500 F30.000
G1 X-35.500 Y35.250 Z-1.500 F30.000
G1 X-35.500 Y36.250 Z-1.500 F30.000
G1 X-35.500 Y36.250 Z-2.000 F30.000
G1 X-39.000 Y36.250 Z-2.000 F30.000
G1 X-39.000 Y35.250 Z-2.000 F30.000
G1 X-35.500 Y35.250 Z-2.000 F30.000
G1 X-35.500 Y36.250 Z-2.000 F30.000
G1 X-35.500 Y36.250 Z-2.500 F30.000
G1 X-39.000 Y36.250 Z-2.500 F30.000
G1 X-39.000 Y35.250 Z-2.500 F30.000
G1 X-35.500 Y35.250 Z-2.500 F30.000
G1 X-35.500 Y36.250 Z-2.500 F30.000
G1 X-35.500 Y36.250 Z-3.000 F30.000
G1 X-39.000 Y36.250 Z-3.000 F30.000
G1 X-39.000 Y35.250 Z-3.000 F30.000
G1 X-35.500 Y35.250 Z-3.000 F30.000
G1 X-35.500 Y36.250 Z-3.000 F30.000
G0 Z3.000
G0 Z3.000
(Finish operation: Profile047)
(Begin operation: Profile048)
(Path: Profile048)
(Profile048)
(Compensated Tool Path. Diameter: 2.0)
G0 Z3.000
G0 X-28.246 Y39.247
G0 Z1.000
G1 X-28.246 Y39.247 Z-0.500 F30.000
G3 X-28.695 Y39.323 Z-0.500 I-0.278 J-0.278 K0.000 F30.000
G3 X-28.879 Y38.798 Z-0.500 I0.171 J-0.355 K0.000 F30.000
G3 X-28.354 Y38.614 Z-0.500 I0.355 J0.171 K0.000 F30.000
G3 X-28.246 Y39.247 Z-0.500 I-0.171 J0.355 K0.000 F30.000
G1 X-28.246 Y39.247 Z-1.000 F30.000
G3 X-28.695 Y39.323 Z-1.000 I-0.278 J-0.278 K0.000 F30.000
G3 X-28.879 Y38.798 Z-1.000 I0.171 J-0.355 K0.000 F30.000
G3 X-28.354 Y38.614 Z-1.000 I0.355 J0.171 K0.000 F30.000
G3 X-28.246 Y39.247 Z-1.000 I-0.171 J0.355 K0.000 F30.000
G1 X-28.246 Y39.247 Z-1.500 F30.000
G3 X-28.695 Y39.323 Z-1.500 I-0.278 J-0.278 K0.000 F30.000
G3 X-28.879 Y38.798 Z-1.500 I0.171 J-0.355 K0.000 F30.000
G3 X-28.354 Y38.614 Z-1.500 I0.355 J0.171 K0.000 F30.000
G3 X-28.246 Y39.247 Z-1.500 I-0.171 J0.355 K0.000 F30.000
G1 X-28.246 Y39.247 Z-2.000 F30.000
G3 X-28.695 Y39.323 Z-2.000 I-0.278 J-0.278 K0.000 F30.000
G3 X-28.879 Y38.798 Z-2.000 I0.171 J-0.355 K0.000 F30.000
G3 X-28.354 Y38.614 Z-2.000 I0.355 J0.171 K0.000 F30.000
G3 X-28.246 Y39.247 Z-2.000 I-0.171 J0.355 K0.000 F30.000
G1 X-28.246 Y39.247 Z-2.500 F30.000
G3 X-28.695 Y39.323 Z-2.500 I-0.278 J-0.278 K0.000 F30.000
G3 X-28.879 Y38.798 Z-2.500 I0.171 J-0.355 K0.000 F30.000
G3 X-28.354 Y38.614 Z-2.500 I0.355 J0.171 K0.000 F30.000
G3 X-28.246 Y39.247 Z-2.500 I-0.171 J0.355 K0.000 F30.000
G1 X-28.246 Y39.247 Z-3.000 F30.000
G3 X-28.695 Y39.323 Z-3.000 I-0.278 J-0.278 K0.000 F30.000
G3 X-28.879 Y38.798 Z-3.000 I0.171 J-0.355 K0.000 F30.000
G3 X-28.354 Y38.614 Z-3.000 I0.355 J0.171 K0.000 F30.000
G3 X-28.246 Y39.247 Z-3.000 I-0.171 J0.355 K0.000 F30.000
G0 Z3.000
G0 Z3.000
(Finish operation: Profile048)
(Begin operation: Profile050)
(Path: Profile050)
(Profile050)
(Compensated Tool Path. Diameter: 2.0)
G0 Z3.000
G0 X-5.500 Y36.250
G0 Z1.000
G1 X-5.500 Y36.250 Z-0.500 F30.000
G1 X-9.000 Y36.250 Z-0.500 F30.000
G1 X-9.000 Y35.250 Z-0.500 F30.000
G1 X-5.500 Y35.250 Z-0.500 F30.000
G1 X-5.500 Y36.250 Z-0.500 F30.000
G1 X-5.500 Y36.250 Z-1.000 F30.000
G1 X-9.000 Y36.250 Z-1.000 F30.000
G1 X-9.000 Y35.250 Z-1.000 F30.000
G1 X-5.500 Y35.250 Z-1.000 F30.000
G1 X-5.500 Y36.250 Z-1.000 F30.000
G1 X-5.500 Y36.250 Z-1.500 F30.000
G1 X-9.000 Y36.250 Z-1.500 F30.000
G1 X-9.000 Y35.250 Z-1.500 F30.000
G1 X-5.500 Y35.250 Z-1.500 F30.000
G1 X-5.500 Y36.250 Z-1.500 F30.000
G1 X-5.500 Y36.250 Z-2.000 F30.000
G1 X-9.000 Y36.250 Z-2.000 F30.000
G1 X-9.000 Y35.250 Z-2.000 F30.000
G1 X-5.500 Y35.250 Z-2.000 F30.000
G1 X-5.500 Y36.250 Z-2.000 F30.000
G1 X-5.500 Y36.250 Z-2.500 F30.000
G1 X-9.000 Y36.250 Z-2.500 F30.000
G1 X-9.000 Y35.250 Z-2.500 F30.000
G1 X-5.500 Y35.250 Z-2.500 F30.000
G1 X-5.500 Y36.250 Z-2.500 F30.000
G1 X-5.500 Y36.250 Z-3.000 F30.000
G1 X-9.000 Y36.250 Z-3.000 F30.000
G1 X-9.000 Y35.250 Z-3.000 F30.000
G1 X-5.500 Y35.250 Z-3.000 F30.000
G1 X-5.500 Y36.250 Z-3.000 F30.000
G0 Z3.000
G0 Z3.000
(Finish operation: Profile050)
(Begin operation: Profile051)
(Path: Profile051)
(Profile051)
(Compensated Tool Path. Diameter: 2.0)
G0 Z3.000
G0 X-34.222 Y-23.512
G0 Z1.000
G1 X-34.222 Y-23.512 Z-0.500 F30.000
G3 X-34.671 Y-23.436 Z-0.500 I-0.278 J-0.278 K0.000 F30.000
G3 X-34.855 Y-23.962 Z-0.500 I0.171 J-0.355 K0.000 F30.000
G3 X-34.329 Y-24.145 Z-0.500 I0.355 J0.171 K0.000 F30.000
G3 X-34.222 Y-23.512 Z-0.500 I-0.171 J0.355 K0.000 F30.000
G1 X-34.222 Y-23.512 Z-1.000 F30.000
G3 X-34.671 Y-23.436 Z-1.000 I-0.278 J-0.278 K0.000 F30.000
G3 X-34.855 Y-23.962 Z-1.000 I0.171 J-0.355 K0.000 F30.000
G3 X-34.329 Y-24.145 Z-1.000 I0.355 J0.171 K0.000 F30.000
G3 X-34.222 Y-23.512 Z-1.000 I-0.171 J0.355 K0.000 F30.000
G1 X-34.222 Y-23.512 Z-1.500 F30.000
G3 X-34.671 Y-23.436 Z-1.500 I-0.278 J-0.278 K0.000 F30.000
G3 X-34.855 Y-23.962 Z-1.500 I0.171 J-0.355 K0.000 F30.000
G3 X-34.329 Y-24.145 Z-1.500 I0.355 J0.171 K0.000 F30.000
G3 X-34.222 Y-23.512 Z-1.500 I-0.171 J0.355 K0.000 F30.000
G1 X-34.222 Y-23.512 Z-2.000 F30.000
G3 X-34.671 Y-23.436 Z-2.000 I-0.278 J-0.278 K0.000 F30.000
G3 X-34.855 Y-23.962 Z-2.000 I0.171 J-0.355 K0.000 F30.000
G3 X-34.329 Y-24.145 Z-2.000 I0.355 J0.171 K0.000 F30.000
G3 X-34.222 Y-23.512 Z-2.000 I-0.171 J0.355 K0.000 F30.000
G1 X-34.222 Y-23.512 Z-2.500 F30.000
G3 X-34.671 Y-23.436 Z-2.500 I-0.278 J-0.278 K0.000 F30.000
G3 X-34.855 Y-23.962 Z-2.500 I0.171 J-0.355 K0.000 F30.000
G3 X-34.329 Y-24.145 Z-2.500 I0.355 J0.171 K0.000 F30.000
G3 X-34.222 Y-23.512 Z-2.500 I-0.171 J0.355 K0.000 F30.000
G1 X-34.222 Y-23.512 Z-3.000 F30.000
G3 X-34.671 Y-23.436 Z-3.000 I-0.278 J-0.278 K0.000 F30.000
G3 X-34.855 Y-23.962 Z-3.000 I0.171 J-0.355 K0.000 F30.000
G3 X-34.329 Y-24.145 Z-3.000 I0.355 J0.171 K0.000 F30.000
G3 X-34.222 Y-23.512 Z-3.000 I-0.171 J0.355 K0.000 F30.000
G0 Z3.000
G0 Z3.000
(Finish operation: Profile051)
(Begin operation: Profile052)
(Path: Profile052)
(Profile052)
(Compensated Tool Path. Diameter: 2.0)
G0 Z3.000
G0 X-24.261 Y-23.052
G0 Z1.000
G1 X-24.261 Y-23.052 Z-0.500 F30.000
G3 X-25.400 Y-22.825 Z-0.500 I-0.739 J-0.739 K0.000 F30.000
G3 X-24.600 Y-24.756 Z-0.500 I0.400 J-0.966 K0.000 F30.000
G3 X-24.261 Y-23.052 Z-0.500 I-0.400 J0.966 K0.000 F30.000
G1 X-24.261 Y-23.052 Z-1.000 F30.000
G3 X-25.400 Y-22.825 Z-1.000 I-0.739 J-0.739 K0.000 F30.000
G3 X-24.600 Y-24.756 Z-1.000 I0.400 J-0.966 K0.000 F30.000
G3 X-24.261 Y-23.052 Z-1.000 I-0.400 J0.966 K0.000 F30.000
G1 X-24.261 Y-23.052 Z-1.500 F30.000
G3 X-25.400 Y-22.825 Z-1.500 I-0.739 J-0.739 K0.000 F30.000
G3 X-24.600 Y-24.756 Z-1.500 I0.400 J-0.966 K0.000 F30.000
G3 X-24.261 Y-23.052 Z-1.500 I-0.400 J0.966 K0.000 F30.000
G1 X-24.261 Y-23.052 Z-2.000 F30.000
G3 X-25.400 Y-22.825 Z-2.000 I-0.739 J-0.739 K0.000 F30.000
G3 X-24.600 Y-24.756 Z-2.000 I0.400 J-0.966 K0.000 F30.000
G3 X-24.261 Y-23.052 Z-2.000 I-0.400 J0.966 K0.000 F30.000
G1 X-24.261 Y-23.052 Z-2.500 F30.000
G3 X-25.400 Y-22.825 Z-2.500 I-0.739 J-0.739 K0.000 F30.000
G3 X-24.600 Y-24.756 Z-2.500 I0.400 J-0.966 K0.000 F30.000
G3 X-24.261 Y-23.052 Z-2.500 I-0.400 J0.966 K0.000 F30.000
G1 X-24.261 Y-23.052 Z-3.000 F30.000
G3 X-25.400 Y-22.825 Z-3.000 I-0.739 J-0.739 K0.000 F30.000
G3 X-24.600 Y-24.756 Z-3.000 I0.400 J-0.966 K0.000 F30.000
G3 X-24.261 Y-23.052 Z-3.000 I-0.400 J0.966 K0.000 F30.000
G0 Z3.000
G0 Z3.000
(Finish operation: Profile052)
(Begin operation: Profile053)
(Path: Profile053)
(Profile053)
(Compensated Tool Path. Diameter: 2.0)
G0 Z3.000
G0 X-18.617 Y-33.117
G0 Z1.000
G1 X-18.617 Y-33.117 Z-0.500 F30.000
G3 X-19.593 Y-32.923 Z-0.500 I-0.633 J-0.633 K0.000 F30.000
G3 X-18.907 Y-34.577 Z-0.500 I0.343 J-0.827 K0.000 F30.000
G3 X-18.617 Y-33.117 Z-0.500 I-0.343 J0.827 K0.000 F30.000
G1 X-18.617 Y-33.117 Z-1.000 F30.000
G3 X-19.593 Y-32.923 Z-1.000 I-0.633 J-0.633 K0.000 F30.000
G3 X-18.907 Y-34.577 Z-1.000 I0.343 J-0.827 K0.000 F30.000
G3 X-18.617 Y-33.117 Z-1.000 I-0.343 J0.827 K0.000 F30.000
G1 X-18.617 Y-33.117 Z-1.500 F30.000
G3 X-19.593 Y-32.923 Z-1.500 I-0.633 J-0.633 K0.000 F30.000
G3 X-18.907 Y-34.577 Z-1.500 I0.343 J-0.827 K0.000 F30.000
G3 X-18.617 Y-33.117 Z-1.500 I-0.343 J0.827 K0.000 F30.000
G1 X-18.617 Y-33.117 Z-2.000 F30.000
G3 X-19.593 Y-32.923 Z-2.000 I-0.633 J-0.633 K0.000 F30.000
G3 X-18.907 Y-34.577 Z-2.000 I0.343 J-0.827 K0.000 F30.000
G3 X-18.617 Y-33.117 Z-2.000 I-0.343 J0.827 K0.000 F30.000
G1 X-18.617 Y-33.117 Z-2.500 F30.000
G3 X-19.593 Y-32.923 Z-2.500 I-0.633 J-0.633 K0.000 F30.000
G3 X-18.907 Y-34.577 Z-2.500 I0.343 J-0.827 K0.000 F30.000
G3 X-18.617 Y-33.117 Z-2.500 I-0.343 J0.827 K0.000 F30.000
G1 X-18.617 Y-33.117 Z-3.000 F30.000
G3 X-19.593 Y-32.923 Z-3.000 I-0.633 J-0.633 K0.000 F30.000
G3 X-18.907 Y-34.577 Z-3.000 I0.343 J-0.827 K0.000 F30.000
G3 X-18.617 Y-33.117 Z-3.000 I-0.343 J0.827 K0.000 F30.000
G0 Z3.000
G0 Z3.000
(Finish operation: Profile053)
(Begin operation: Profile054)
(Path: Profile054)
(Profile054)
(Compensated Tool Path. Diameter: 2.0)
G0 Z3.000
G0 X19.883 Y-33.117
G0 Z1.000
G1 X19.883 Y-33.117 Z-0.500 F30.000
G3 X18.907 Y-32.923 Z-0.500 I-0.633 J-0.633 K0.000 F30.000
G3 X19.593 Y-34.577 Z-0.500 I0.343 J-0.827 K0.000 F30.000
G3 X19.883 Y-33.117 Z-0.500 I-0.343 J0.827 K0.000 F30.000
G1 X19.883 Y-33.117 Z-1.000 F30.000
G3 X18.907 Y-32.923 Z-1.000 I-0.633 J-0.633 K0.000 F30.000
G3 X19.593 Y-34.577 Z-1.000 I0.343 J-0.827 K0.000 F30.000
G3 X19.883 Y-33.117 Z-1.000 I-0.343 J0.827 K0.000 F30.000
G1 X19.883 Y-33.117 Z-1.500 F30.000
G3 X18.907 Y-32.923 Z-1.500 I-0.633 J-0.633 K0.000 F30.000
G3 X19.593 Y-34.577 Z-1.500 I0.343 J-0.827 K0.000 F30.000
G3 X19.883 Y-33.117 Z-1.500 I-0.343 J0.827 K0.000 F30.000
G1 X19.883 Y-33.117 Z-2.000 F30.000
G3 X18.907 Y-32.923 Z-2.000 I-0.633 J-0.633 K0.000 F30.000
G3 X19.593 Y-34.577 Z-2.000 I0.343 J-0.827 K0.000 F30.000
G3 X19.883 Y-33.117 Z-2.000 I-0.343 J0.827 K0.000 F30.000
G1 X19.883 Y-33.117 Z-2.500 F30.000
G3 X18.907 Y-32.923 Z-2.500 I-0.633 J-0.633 K0.000 F30.000
G3 X19.593 Y-34.577 Z-2.500 I0.343 J-0.827 K0.000 F30.000
G3 X19.883 Y-33.117 Z-2.500 I-0.343 J0.827 K0.000 F30.000
G1 X19.883 Y-33.117 Z-3.000 F30.000
G3 X18.907 Y-32.923 Z-3.000 I-0.633 J-0.633 K0.000 F30.000
G3 X19.593 Y-34.577 Z-3.000 I0.343 J-0.827 K0.000 F30.000
G3 X19.883 Y-33.117 Z-3.000 I-0.343 J0.827 K0.000 F30.000
G0 Z3.000
G0 Z3.000
(Finish operation: Profile054)
(Begin operation: Profile055)
(Path: Profile055)
(Profile055)
(Compensated Tool Path. Diameter: 2.0)
G0 Z3.000
G0 X25.739 Y-23.052
G0 Z1.000
G1 X25.739 Y-23.052 Z-0.500 F30.000
G3 X24.600 Y-22.825 Z-0.500 I-0.739 J-0.739 K0.000 F30.000
G3 X24.034 Y-24.191 Z-0.500 I0.400 J-0.966 K0.000 F30.000
G3 X25.400 Y-24.756 Z-0.500 I0.966 J0.400 K0.000 F30.000
G3 X25.739 Y-23.052 Z-0.500 I-0.400 J0.966 K0.000 F30.000
G1 X25.739 Y-23.052 Z-1.000 F30.000
G3 X24.600 Y-22.825 Z-1.000 I-0.739 J-0.739 K0.000 F30.000
G3 X24.034 Y-24.191 Z-1.000 I0.400 J-0.966 K0.000 F30.000
G3 X25.400 Y-24.756 Z-1.000 I0.966 J0.400 K0.000 F30.000
G3 X25.739 Y-23.052 Z-1.000 I-0.400 J0.966 K0.000 F30.000
G1 X25.739 Y-23.052 Z-1.500 F30.000
G3 X24.600 Y-22.825 Z-1.500 I-0.739 J-0.739 K0.000 F30.000
G3 X24.034 Y-24.191 Z-1.500 I0.400 J-0.966 K0.000 F30.000
G3 X25.400 Y-24.756 Z-1.500 I0.966 J0.400 K0.000 F30.000
G3 X25.739 Y-23.052 Z-1.500 I-0.400 J0.966 K0.000 F30.000
G1 X25.739 Y-23.052 Z-2.000 F30.000
G3 X24.600 Y-22.825 Z-2.000 I-0.739 J-0.739 K0.000 F30.000
G3 X24.034 Y-24.191 Z-2.000 I0.400 J-0.966 K0.000 F30.000
G3 X25.400 Y-24.756 Z-2.000 I0.966 J0.400 K0.000 F30.000
G3 X25.739 Y-23.052 Z-2.000 I-0.400 J0.966 K0.000 F30.000
G1 X25.739 Y-23.052 Z-2.500 F30.000
G3 X24.600 Y-22.825 Z-2.500 I-0.739 J-0.739 K0.000 F30.000
G3 X24.034 Y-24.191 Z-2.500 I0.400 J-0.966 K0.000 F30.000
G3 X25.400 Y-24.756 Z-2.500 I0.966 J0.400 K0.000 F30.000
G3 X25.739 Y-23.052 Z-2.500 I-0.400 J0.966 K0.000 F30.000
G1 X25.739 Y-23.052 Z-3.000 F30.000
G3 X24.600 Y-22.825 Z-3.000 I-0.739 J-0.739 K0.000 F30.000
G3 X24.034 Y-24.191 Z-3.000 I0.400 J-0.966 K0.000 F30.000
G3 X25.400 Y-24.756 Z-3.000 I0.966 J0.400 K0.000 F30.000
G3 X25.739 Y-23.052 Z-3.000 I-0.400 J0.966 K0.000 F30.000
G0 Z3.000
G0 Z3.000
(Finish operation: Profile055)
(Begin operation: Profile056)
(Path: Profile056)
(Profile056)
(Compensated Tool Path. Diameter: 2.0)
G0 Z3.000
G0 X34.778 Y-23.512
G0 Z1.000
G1 X34.778 Y-23.512 Z-0.500 F30.000
G3 X34.329 Y-23.436 Z-0.500 I-0.278 J-0.278 K0.000 F30.000
G3 X34.671 Y-24.145 Z-0.500 I0.171 J-0.355 K0.000 F30.000
G3 X34.778 Y-23.512 Z-0.500 I-0.171 J0.355 K0.000 F30.000
G1 X34.778 Y-23.512 Z-1.000 F30.000
G3 X34.329 Y-23.436 Z-1.000 I-0.278 J-0.278 K0.000 F30.000
G3 X34.671 Y-24.145 Z-1.000 I0.171 J-0.355 K0.000 F30.000
G3 X34.778 Y-23.512 Z-1.000 I-0.171 J0.355 K0.000 F30.000
G1 X34.778 Y-23.512 Z-1.500 F30.000
G3 X34.329 Y-23.436 Z-1.500 I-0.278 J-0.278 K0.000 F30.000
G3 X34.671 Y-24.145 Z-1.500 I0.171 J-0.355 K0.000 F30.000
G3 X34.778 Y-23.512 Z-1.500 I-0.171 J0.355 K0.000 F30.000
G1 X34.778 Y-23.512 Z-2.000 F30.000
G3 X34.329 Y-23.436 Z-2.000 I-0.278 J-0.278 K0.000 F30.000
G3 X34.671 Y-24.145 Z-2.000 I0.171 J-0.355 K0.000 F30.000
G3 X34.778 Y-23.512 Z-2.000 I-0.171 J0.355 K0.000 F30.000
G1 X34.778 Y-23.512 Z-2.500 F30.000
G3 X34.329 Y-23.436 Z-2.500 I-0.278 J-0.278 K0.000 F30.000
G3 X34.671 Y-24.145 Z-2.500 I0.171 J-0.355 K0.000 F30.000
G3 X34.778 Y-23.512 Z-2.500 I-0.171 J0.355 K0.000 F30.000
G1 X34.778 Y-23.512 Z-3.000 F30.000
G3 X34.329 Y-23.436 Z-3.000 I-0.278 J-0.278 K0.000 F30.000
G3 X34.671 Y-24.145 Z-3.000 I0.171 J-0.355 K0.000 F30.000
G3 X34.778 Y-23.512 Z-3.000 I-0.171 J0.355 K0.000 F30.000
G0 Z3.000
G0 Z3.000
(Finish operation: Profile056)
(Begin operation: Profile057)
(Path: Profile057)
(Profile057)
(Compensated Tool Path. Diameter: 2.0)
G0 Z3.000
G0 X-34.222 Y24.069
G0 Z1.000
G1 X-34.222 Y24.069 Z-0.500 F30.000
G3 X-34.671 Y24.145 Z-0.500 I-0.278 J-0.278 K0.000 F30.000
G3 X-34.855 Y23.620 Z-0.500 I0.171 J-0.355 K0.000 F30.000
G3 X-34.329 Y23.436 Z-0.500 I0.355 J0.171 K0.000 F30.000
G3 X-34.222 Y24.069 Z-0.500 I-0.171 J0.355 K0.000 F30.000
G1 X-34.222 Y24.069 Z-1.000 F30.000
G3 X-34.671 Y24.145 Z-1.000 I-0.278 J-0.278 K0.000 F30.000
G3 X-34.855 Y23.620 Z-1.000 I0.171 J-0.355 K0.000 F30.000
G3 X-34.329 Y23.436 Z-1.000 I0.355 J0.171 K0.000 F30.000
G3 X-34.222 Y24.069 Z-1.000 I-0.171 J0.355 K0.000 F30.000
G1 X-34.222 Y24.069 Z-1.500 F30.000
G3 X-34.671 Y24.145 Z-1.500 I-0.278 J-0.278 K0.000 F30.000
G3 X-34.855 Y23.620 Z-1.500 I0.171 J-0.355 K0.000 F30.000
G3 X-34.329 Y23.436 Z-1.500 I0.355 J0.171 K0.000 F30.000
G3 X-34.222 Y24.069 Z-1.500 I-0.171 J0.355 K0.000 F30.000
G1 X-34.222 Y24.069 Z-2.000 F30.000
G3 X-34.671 Y24.145 Z-2.000 I-0.278 J-0.278 K0.000 F30.000
G3 X-34.855 Y23.620 Z-2.000 I0.171 J-0.355 K0.000 F30.000
G3 X-34.329 Y23.436 Z-2.000 I0.355 J0.171 K0.000 F30.000
G3 X-34.222 Y24.069 Z-2.000 I-0.171 J0.355 K0.000 F30.000
G1 X-34.222 Y24.069 Z-2.500 F30.000
G3 X-34.671 Y24.145 Z-2.500 I-0.278 J-0.278 K0.000 F30.000
G3 X-34.855 Y23.620 Z-2.500 I0.171 J-0.355 K0.000 F30.000
G3 X-34.329 Y23.436 Z-2.500 I0.355 J0.171 K0.000 F30.000
G3 X-34.222 Y24.069 Z-2.500 I-0.171 J0.355 K0.000 F30.000
G1 X-34.222 Y24.069 Z-3.000 F30.000
G3 X-34.671 Y24.145 Z-3.000 I-0.278 J-0.278 K0.000 F30.000
G3 X-34.855 Y23.620 Z-3.000 I0.171 J-0.355 K0.000 F30.000
G3 X-34.329 Y23.436 Z-3.000 I0.355 J0.171 K0.000 F30.000
G3 X-34.222 Y24.069 Z-3.000 I-0.171 J0.355 K0.000 F30.000
G0 Z3.000
G0 Z3.000
(Finish operation: Profile057)
(Begin operation: Profile058)
(Path: Profile058)
(Profile058)
(Compensated Tool Path. Diameter: 2.0)
G0 Z3.000
G0 X-24.261 Y24.530
G0 Z1.000
G1 X-24.261 Y24.530 Z-0.500 F30.000
G3 X-25.400 Y24.756 Z-0.500 I-0.739 J-0.739 K0.000 F30.000
G3 X-24.600 Y22.825 Z-0.500 I0.400 J-0.966 K0.000 F30.000
G3 X-24.261 Y24.530 Z-0.500 I-0.400 J0.966 K0.000 F30.000
G1 X-24.261 Y24.530 Z-1.000 F30.000
G3 X-25.400 Y24.756 Z-1.000 I-0.739 J-0.739 K0.000 F30.000
G3 X-24.600 Y22.825 Z-1.000 I0.400 J-0.966 K0.000 F30.000
G3 X-24.261 Y24.530 Z-1.000 I-0.400 J0.966 K0.000 F30.000
G1 X-24.261 Y24.530 Z-1.500 F30.000
G3 X-25.400 Y24.756 Z-1.500 I-0.739 J-0.739 K0.000 F30.000
G3 X-24.600 Y22.825 Z-1.500 I0.400 J-0.966 K0.000 F30.000
G3 X-24.261 Y24.530 Z-1.500 I-0.400 J0.966 K0.000 F30.000
G1 X-24.261 Y24.530 Z-2.000 F30.000
G3 X-25.400 Y24.756 Z-2.000 I-0.739 J-0.739 K0.000 F30.000
G3 X-24.600 Y22.825 Z-2.000 I0.400 J-0.966 K0.000 F30.000
G3 X-24.261 Y24.530 Z-2.000 I-0.400 J0.966 K0.000 F30.000
G1 X-24.261 Y24.530 Z-2.500 F30.000
G3 X-25.400 Y24.756 Z-2.500 I-0.739 J-0.739 K0.000 F30.000
G3 X-24.600 Y22.825 Z-2.500 I0.400 J-0.966 K0.000 F30.000
G3 X-24.261 Y24.530 Z-2.500 I-0.400 J0.966 K0.000 F30.000
G1 X-24.261 Y24.530 Z-3.000 F30.000
G3 X-25.400 Y24.756 Z-3.000 I-0.739 J-0.739 K0.000 F30.000
G3 X-24.600 Y22.825 Z-3.000 I0.400 J-0.966 K0.000 F30.000
G3 X-24.261 Y24.530 Z-3.000 I-0.400 J0.966 K0.000 F30.000
G0 Z3.000
G0 Z3.000
(Finish operation: Profile058)
(Begin operation: Profile059)
(Path: Profile059)
(Profile059)
(Compensated Tool Path. Diameter: 2.0)
G0 Z3.000
G0 X-18.617 Y34.383
G0 Z1.000
G1 X-18.617 Y34.383 Z-0.500 F30.000
G3 X-19.593 Y34.577 Z-0.500 I-0.633 J-0.633 K0.000 F30.000
G3 X-18.907 Y32.923 Z-0.500 I0.343 J-0.827 K0.000 F30.000
G3 X-18.617 Y34.383 Z-0.500 I-0.343 J0.827 K0.000 F30.000
G1 X-18.617 Y34.383 Z-1.000 F30.000
G3 X-19.593 Y34.577 Z-1.000 I-0.633 J-0.633 K0.000 F30.000
G3 X-18.907 Y32.923 Z-1.000 I0.343 J-0.827 K0.000 F30.000
G3 X-18.617 Y34.383 Z-1.000 I-0.343 J0.827 K0.000 F30.000
G1 X-18.617 Y34.383 Z-1.500 F30.000
G3 X-19.593 Y34.577 Z-1.500 I-0.633 J-0.633 K0.000 F30.000
G3 X-18.907 Y32.923 Z-1.500 I0.343 J-0.827 K0.000 F30.000
G3 X-18.617 Y34.383 Z-1.500 I-0.343 J0.827 K0.000 F30.000
G1 X-18.617 Y34.383 Z-2.000 F30.000
G3 X-19.593 Y34.577 Z-2.000 I-0.633 J-0.633 K0.000 F30.000
G3 X-18.907 Y32.923 Z-2.000 I0.343 J-0.827 K0.000 F30.000
G3 X-18.617 Y34.383 Z-2.000 I-0.343 J0.827 K0.000 F30.000
G1 X-18.617 Y34.383 Z-2.500 F30.000
G3 X-19.593 Y34.577 Z-2.500 I-0.633 J-0.633 K0.000 F30.000
G3 X-18.907 Y32.923 Z-2.500 I0.343 J-0.827 K0.000 F30.000
G3 X-18.617 Y34.383 Z-2.500 I-0.343 J0.827 K0.000 F30.000
G1 X-18.617 Y34.383 Z-3.000 F30.000
G3 X-19.593 Y34.577 Z-3.000 I-0.633 J-0.633 K0.000 F30.000
G3 X-18.907 Y32.923 Z-3.000 I0.343 J-0.827 K0.000 F30.000
G3 X-18.617 Y34.383 Z-3.000 I-0.343 J0.827 K0.000 F30.000
G0 Z3.000
G0 Z3.000
(Finish operation: Profile059)
(Begin operation: Profile060)
(Path: Profile060)
(Profile060)
(Compensated Tool Path. Diameter: 2.0)
G0 Z3.000
G0 X19.883 Y34.383
G0 Z1.000
G1 X19.883 Y34.383 Z-0.500 F30.000
G3 X18.907 Y34.577 Z-0.500 I-0.633 J-0.633 K0.000 F30.000
G3 X19.593 Y32.923 Z-0.500 I0.343 J-0.827 K0.000 F30.000
G3 X19.883 Y34.383 Z-0.500 I-0.343 J0.827 K0.000 F30.000
G1 X19.883 Y34.383 Z-1.000 F30.000
G3 X18.907 Y34.577 Z-1.000 I-0.633 J-0.633 K0.000 F30.000
G3 X19.593 Y32.923 Z-1.000 I0.343 J-0.827 K0.000 F30.000
G3 X19.883 Y34.383 Z-1.000 I-0.343 J0.827 K0.000 F30.000
G1 X19.883 Y34.383 Z-1.500 F30.000
G3 X18.907 Y34.577 Z-1.500 I-0.633 J-0.633 K0.000 F30.000
G3 X19.593 Y32.923 Z-1.500 I0.343 J-0.827 K0.000 F30.000
G3 X19.883 Y34.383 Z-1.500 I-0.343 J0.827 K0.000 F30.000
G1 X19.883 Y34.383 Z-2.000 F30.000
G3 X18.907 Y34.577 Z-2.000 I-0.633 J-0.633 K0.000 F30.000
G3 X19.593 Y32.923 Z-2.000 I0.343 J-0.827 K0.000 F30.000
G3 X19.883 Y34.383 Z-2.000 I-0.343 J0.827 K0.000 F30.000
G1 X19.883 Y34.383 Z-2.500 F30.000
G3 X18.907 Y34.577 Z-2.500 I-0.633 J-0.633 K0.000 F30.000
G3 X19.593 Y32.923 Z-2.500 I0.343 J-0.827 K0.000 F30.000
G3 X19.883 Y34.383 Z-2.500 I-0.343 J0.827 K0.000 F30.000
G1 X19.883 Y34.383 Z-3.000 F30.000
G3 X18.907 Y34.577 Z-3.000 I-0.633 J-0.633 K0.000 F30.000
G3 X19.593 Y32.923 Z-3.000 I0.343 J-0.827 K0.000 F30.000
G3 X19.883 Y34.383 Z-3.000 I-0.343 J0.827 K0.000 F30.000
G0 Z3.000
G0 Z3.000
(Finish operation: Profile060)
(Begin operation: Profile061)
(Path: Profile061)
(Profile061)
(Compensated Tool Path. Diameter: 2.0)
G0 Z3.000
G0 X25.739 Y24.530
G0 Z1.000
G1 X25.739 Y24.530 Z-0.500 F30.000
G3 X24.600 Y24.756 Z-0.500 I-0.739 J-0.739 K0.000 F30.000
G3 X24.034 Y23.391 Z-0.500 I0.400 J-0.966 K0.000 F30.000
G3 X25.400 Y22.825 Z-0.500 I0.966 J0.400 K0.000 F30.000
G3 X25.739 Y24.530 Z-0.500 I-0.400 J0.966 K0.000 F30.000
G1 X25.739 Y24.530 Z-1.000 F30.000
G3 X24.600 Y24.756 Z-1.000 I-0.739 J-0.739 K0.000 F30.000
G3 X24.034 Y23.391 Z-1.000 I0.400 J-0.966 K0.000 F30.000
G3 X25.400 Y22.825 Z-1.000 I0.966 J0.400 K0.000 F30.000
G3 X25.739 Y24.530 Z-1.000 I-0.400 J0.966 K0.000 F30.000
G1 X25.739 Y24.530 Z-1.500 F30.000
G3 X24.600 Y24.756 Z-1.500 I-0.739 J-0.739 K0.000 F30.000
G3 X24.034 Y23.391 Z-1.500 I0.400 J-0.966 K0.000 F30.000
G3 X25.400 Y22.825 Z-1.500 I0.966 J0.400 K0.000 F30.000
G3 X25.739 Y24.530 Z-1.500 I-0.400 J0.966 K0.000 F30.000
G1 X25.739 Y24.530 Z-2.000 F30.000
G3 X24.600 Y24.756 Z-2.000 I-0.739 J-0.739 K0.000 F30.000
G3 X24.034 Y23.391 Z-2.000 I0.400 J-0.966 K0.000 F30.000
G3 X25.400 Y22.825 Z-2.000 I0.966 J0.400 K0.000 F30.000
G3 X25.739 Y24.530 Z-2.000 I-0.400 J0.966 K0.000 F30.000
G1 X25.739 Y24.530 Z-2.500 F30.000
G3 X24.600 Y24.756 Z-2.500 I-0.739 J-0.739 K0.000 F30.000
G3 X24.034 Y23.391 Z-2.500 I0.400 J-0.966 K0.000 F30.000
G3 X25.400 Y22.825 Z-2.500 I0.966 J0.400 K0.000 F30.000
G3 X25.739 Y24.530 Z-2.500 I-0.400 J0.966 K0.000 F30.000
G1 X25.739 Y24.530 Z-3.000 F30.000
G3 X24.600 Y24.756 Z-3.000 I-0.739 J-0.739 K0.000 F30.000
G3 X24.034 Y23.391 Z-3.000 I0.400 J-0.966 K0.000 F30.000
G3 X25.400 Y22.825 Z-3.000 I0.966 J0.400 K0.000 F30.000
G3 X25.739 Y24.530 Z-3.000 I-0.400 J0.966 K0.000 F30.000
G0 Z3.000
G0 Z3.000
(Finish operation: Profile061)
(Begin operation: Profile062)
(Path: Profile062)
(Profile062)
(Compensated Tool Path. Diameter: 2.0)
G0 Z3.000
G0 X34.778 Y24.069
G0 Z1.000
G1 X34.778 Y24.069 Z-0.500 F30.000
G3 X34.329 Y24.145 Z-0.500 I-0.278 J-0.278 K0.000 F30.000
G3 X34.671 Y23.436 Z-0.500 I0.171 J-0.355 K0.000 F30.000
G3 X34.778 Y24.069 Z-0.500 I-0.171 J0.355 K0.000 F30.000
G1 X34.778 Y24.069 Z-1.000 F30.000
G3 X34.329 Y24.145 Z-1.000 I-0.278 J-0.278 K0.000 F30.000
G3 X34.671 Y23.436 Z-1.000 I0.171 J-0.355 K0.000 F30.000
G3 X34.778 Y24.069 Z-1.000 I-0.171 J0.355 K0.000 F30.000
G1 X34.778 Y24.069 Z-1.500 F30.000
G3 X34.329 Y24.145 Z-1.500 I-0.278 J-0.278 K0.000 F30.000
G3 X34.671 Y23.436 Z-1.500 I0.171 J-0.355 K0.000 F30.000
G3 X34.778 Y24.069 Z-1.500 I-0.171 J0.355 K0.000 F30.000
G1 X34.778 Y24.069 Z-2.000 F30.000
G3 X34.329 Y24.145 Z-2.000 I-0.278 J-0.278 K0.000 F30.000
G3 X34.671 Y23.436 Z-2.000 I0.171 J-0.355 K0.000 F30.000
G3 X34.778 Y24.069 Z-2.000 I-0.171 J0.355 K0.000 F30.000
G1 X34.778 Y24.069 Z-2.500 F30.000
G3 X34.329 Y24.145 Z-2.500 I-0.278 J-0.278 K0.000 F30.000
G3 X34.671 Y23.436 Z-2.500 I0.171 J-0.355 K0.000 F30.000
G3 X34.778 Y24.069 Z-2.500 I-0.171 J0.355 K0.000 F30.000
G1 X34.778 Y24.069 Z-3.000 F30.000
G3 X34.329 Y24.145 Z-3.000 I-0.278 J-0.278 K0.000 F30.000
G3 X34.671 Y23.436 Z-3.000 I0.171 J-0.355 K0.000 F30.000
G3 X34.778 Y24.069 Z-3.000 I-0.171 J0.355 K0.000 F30.000
G0 Z3.000
G0 Z3.000
(Finish operation: Profile062)
(Begin postamble)
M5
G17 G90
M2
