(Exported by FreeCAD)
(Post Processor: grbl_post)
(Output Time:2025-08-19 09:29:26.980762)
(Begin preamble)
G17 G90
G21
(Begin operation: Fixture)
(Path: Fixture)
G54
(Finish operation: Fixture)
(Begin operation: 2mm-6-Endmill001)
(Path: 2mm-6-Endmill001)
(2mm-6-Endmill001)
(Begin toolchange)
( M6 T2 )
(Finish operation: 2mm-6-Endmill001)
(Begin operation: Profile003)
(Path: Profile003)
(Profile003)
(Compensated Tool Path. Diameter: 2.0)
G0 Z5.000
G0 X43.957 Y46.957
G0 Z3.000
G1 X43.957 Y46.957 Z-0.500 F30.000
G2 X44.250 Y46.250 Z-0.500 I-0.707 J-0.707 K0.000 F30.000
G1 X44.250 Y1.250 Z-0.500 F30.000
G2 X43.250 Y0.250 Z-0.500 I-1.000 J0.000 K0.000 F30.000
G1 X1.250 Y0.250 Z-0.500 F30.000
G2 X0.250 Y1.250 Z-0.500 I0.000 J1.000 K0.000 F30.000
G1 X0.250 Y46.250 Z-0.500 F30.000
G2 X1.250 Y47.250 Z-0.500 I1.000 J-0.000 K0.000 F30.000
G1 X43.250 Y47.250 Z-0.500 F30.000
G2 X43.957 Y46.957 Z-0.500 I-0.000 J-1.000 K0.000 F30.000
G0 Z5.000
G0 X-0.250 Y46.266 Z5.000
G0 X-0.250 Y46.266 Z3.000
G1 X-0.250 Y46.266 Z-0.500 F30.000
G2 X-0.250 Y46.250 Z-0.500 I-1.000 J-0.016 K0.000 F30.000
G1 X-0.250 Y1.250 Z-0.500 F30.000
G2 X-1.250 Y0.250 Z-0.500 I-1.000 J0.000 K0.000 F30.000
G1 X-43.250 Y0.250 Z-0.500 F30.000
G2 X-44.250 Y1.250 Z-0.500 I0.000 J1.000 K0.000 F30.000
G1 X-44.250 Y46.250 Z-0.500 F30.000
G2 X-43.250 Y47.250 Z-0.500 I1.000 J-0.000 K0.000 F30.000
G1 X-1.250 Y47.250 Z-0.500 F30.000
G2 X-0.250 Y46.266 Z-0.500 I-0.000 J-1.000 K0.000 F30.000
G0 Z5.000
G0 X-1.229 Y-0.250 Z5.000
G0 X-1.229 Y-0.250 Z3.000
G1 X-1.229 Y-0.250 Z-0.500 F30.000
G2 X-0.250 Y-1.250 Z-0.500 I-0.021 J-1.000 K0.000 F30.000
G1 X-0.250 Y-46.250 Z-0.500 F30.000
G2 X-1.250 Y-47.250 Z-0.500 I-1.000 J0.000 K0.000 F30.000
G1 X-43.250 Y-47.250 Z-0.500 F30.000
G2 X-44.250 Y-46.250 Z-0.500 I0.000 J1.000 K0.000 F30.000
G1 X-44.250 Y-1.250 Z-0.500 F30.000
G2 X-43.250 Y-0.250 Z-0.500 I1.000 J-0.000 K0.000 F30.000
G1 X-1.250 Y-0.250 Z-0.500 F30.000
G2 X-1.229 Y-0.250 Z-0.500 I-0.000 J-1.000 K0.000 F30.000
G0 Z5.000
G0 X0.323 Y-0.876 Z5.000
G0 X0.323 Y-0.876 Z3.000
G1 X0.323 Y-0.876 Z-0.500 F30.000
G2 X1.250 Y-0.250 Z-0.500 I0.927 J-0.374 K0.000 F30.000
G1 X43.250 Y-0.250 Z-0.500 F30.000
G2 X44.250 Y-1.250 Z-0.500 I-0.000 J-1.000 K0.000 F30.000
G1 X44.250 Y-46.250 Z-0.500 F30.000
G2 X43.250 Y-47.250 Z-0.500 I-1.000 J0.000 K0.000 F30.000
G1 X1.250 Y-47.250 Z-0.500 F30.000
G2 X0.250 Y-46.250 Z-0.500 I0.000 J1.000 K0.000 F30.000
G1 X0.250 Y-1.250 Z-0.500 F30.000
G2 X0.323 Y-0.876 Z-0.500 I1.000 J-0.000 K0.000 F30.000
G1 X0.323 Y-0.876 Z-1.000 F30.000
G2 X1.250 Y-0.250 Z-1.000 I0.927 J-0.374 K0.000 F30.000
G1 X43.250 Y-0.250 Z-1.000 F30.000
G2 X44.250 Y-1.250 Z-1.000 I-0.000 J-1.000 K0.000 F30.000
G1 X44.250 Y-46.250 Z-1.000 F30.000
G2 X43.250 Y-47.250 Z-1.000 I-1.000 J0.000 K0.000 F30.000
G1 X1.250 Y-47.250 Z-1.000 F30.000
G2 X0.250 Y-46.250 Z-1.000 I0.000 J1.000 K0.000 F30.000
G1 X0.250 Y-1.250 Z-1.000 F30.000
G2 X0.323 Y-0.876 Z-1.000 I1.000 J-0.000 K0.000 F30.000
G0 Z5.000
G0 X-0.277 Y-1.019 Z5.000
G0 X-0.277 Y-1.019 Z3.000
G1 X-0.277 Y-1.019 Z-1.000 F30.000
G2 X-0.250 Y-1.250 Z-1.000 I-0.973 J-0.231 K0.000 F30.000
G1 X-0.250 Y-46.250 Z-1.000 F30.000
G2 X-1.250 Y-47.250 Z-1.000 I-1.000 J0.000 K0.000 F30.000
G1 X-43.250 Y-47.250 Z-1.000 F30.000
G2 X-44.250 Y-46.250 Z-1.000 I0.000 J1.000 K0.000 F30.000
G1 X-44.250 Y-1.250 Z-1.000 F30.000
G2 X-43.250 Y-0.250 Z-1.000 I1.000 J-0.000 K0.000 F30.000
G1 X-1.250 Y-0.250 Z-1.000 F30.000
G2 X-0.277 Y-1.019 Z-1.000 I-0.000 J-1.000 K0.000 F30.000
G0 Z5.000
G0 X-0.856 Y0.331 Z5.000
G0 X-0.856 Y0.331 Z3.000
G1 X-0.856 Y0.331 Z-1.000 F30.000
G2 X-1.250 Y0.250 Z-1.000 I-0.394 J0.919 K0.000 F30.000
G1 X-43.250 Y0.250 Z-1.000 F30.000
G2 X-44.250 Y1.250 Z-1.000 I0.000 J1.000 K0.000 F30.000
G1 X-44.250 Y46.250 Z-1.000 F30.000
G2 X-43.250 Y47.250 Z-1.000 I1.000 J-0.000 K0.000 F30.000
G1 X-1.250 Y47.250 Z-1.000 F30.000
G2 X-0.250 Y46.250 Z-1.000 I-0.000 J-1.000 K0.000 F30.000
G1 X-0.250 Y1.250 Z-1.000 F30.000
G2 X-0.856 Y0.331 Z-1.000 I-1.000 J0.000 K0.000 F30.000
G0 Z5.000
G0 X0.333 Y0.850 Z5.000
G0 X0.333 Y0.850 Z3.000
G1 X0.333 Y0.850 Z-1.000 F30.000
G2 X0.250 Y1.250 Z-1.000 I0.917 J0.400 K0.000 F30.000
G1 X0.250 Y46.250 Z-1.000 F30.000
G2 X1.250 Y47.250 Z-1.000 I1.000 J-0.000 K0.000 F30.000
G1 X43.250 Y47.250 Z-1.000 F30.000
G2 X44.250 Y46.250 Z-1.000 I-0.000 J-1.000 K0.000 F30.000
G1 X44.250 Y1.250 Z-1.000 F30.000
G2 X43.250 Y0.250 Z-1.000 I-1.000 J0.000 K0.000 F30.000
G1 X1.250 Y0.250 Z-1.000 F30.000
G2 X0.333 Y0.850 Z-1.000 I0.000 J1.000 K0.000 F30.000
G1 X0.333 Y0.850 Z-1.500 F30.000
G2 X0.250 Y1.250 Z-1.500 I0.917 J0.400 K0.000 F30.000
G1 X0.250 Y46.250 Z-1.500 F30.000
G2 X1.250 Y47.250 Z-1.500 I1.000 J-0.000 K0.000 F30.000
G1 X43.250 Y47.250 Z-1.500 F30.000
G2 X44.250 Y46.250 Z-1.500 I-0.000 J-1.000 K0.000 F30.000
G1 X44.250 Y1.250 Z-1.500 F30.000
G2 X43.250 Y0.250 Z-1.500 I-1.000 J0.000 K0.000 F30.000
G1 X1.250 Y0.250 Z-1.500 F30.000
G2 X0.333 Y0.850 Z-1.500 I0.000 J1.000 K0.000 F30.000
G0 Z5.000
G0 X-0.280 Y1.005 Z5.000
G0 X-0.280 Y1.005 Z3.000
G1 X-0.280 Y1.005 Z-1.500 F30.000
G2 X-1.250 Y0.250 Z-1.500 I-0.970 J0.245 K0.000 F30.000
G1 X-43.250 Y0.250 Z-1.500 F30.000
G2 X-44.250 Y1.250 Z-1.500 I0.000 J1.000 K0.000 F30.000
G1 X-44.250 Y46.250 Z-1.500 F30.000
G2 X-43.250 Y47.250 Z-1.500 I1.000 J-0.000 K0.000 F30.000
G1 X-1.250 Y47.250 Z-1.500 F30.000
G2 X-0.250 Y46.250 Z-1.500 I-0.000 J-1.000 K0.000 F30.000
G1 X-0.250 Y1.250 Z-1.500 F30.000
G2 X-0.280 Y1.005 Z-1.500 I-1.000 J0.000 K0.000 F30.000
G0 Z5.000
G0 X-0.855 Y-0.331 Z5.000
G0 X-0.855 Y-0.331 Z3.000
G1 X-0.855 Y-0.331 Z-1.500 F30.000
G2 X-0.250 Y-1.250 Z-1.500 I-0.395 J-0.919 K0.000 F30.000
G1 X-0.250 Y-46.250 Z-1.500 F30.000
G2 X-1.250 Y-47.250 Z-1.500 I-1.000 J0.000 K0.000 F30.000
G1 X-43.250 Y-47.250 Z-1.500 F30.000
G2 X-44.250 Y-46.250 Z-1.500 I0.000 J1.000 K0.000 F30.000
G1 X-44.250 Y-1.250 Z-1.500 F30.000
G2 X-43.250 Y-0.250 Z-1.500 I1.000 J-0.000 K0.000 F30.000
G1 X-1.250 Y-0.250 Z-1.500 F30.000
G2 X-0.855 Y-0.331 Z-1.500 I-0.000 J-1.000 K0.000 F30.000
G0 Z5.000
G0 X0.333 Y-0.850 Z5.000
G0 X0.333 Y-0.850 Z3.000
G1 X0.333 Y-0.850 Z-1.500 F30.000
G2 X1.250 Y-0.250 Z-1.500 I0.917 J-0.400 K0.000 F30.000
G1 X43.250 Y-0.250 Z-1.500 F30.000
G2 X44.250 Y-1.250 Z-1.500 I-0.000 J-1.000 K0.000 F30.000
G1 X44.250 Y-46.250 Z-1.500 F30.000
G2 X43.250 Y-47.250 Z-1.500 I-1.000 J0.000 K0.000 F30.000
G1 X1.250 Y-47.250 Z-1.500 F30.000
G2 X0.250 Y-46.250 Z-1.500 I0.000 J1.000 K0.000 F30.000
G1 X0.250 Y-1.250 Z-1.500 F30.000
G2 X0.333 Y-0.850 Z-1.500 I1.000 J-0.000 K0.000 F30.000
G1 X0.333 Y-0.850 Z-2.000 F30.000
G2 X1.250 Y-0.250 Z-2.000 I0.917 J-0.400 K0.000 F30.000
G1 X43.250 Y-0.250 Z-2.000 F30.000
G2 X44.250 Y-1.250 Z-2.000 I-0.000 J-1.000 K0.000 F30.000
G1 X44.250 Y-46.250 Z-2.000 F30.000
G2 X43.250 Y-47.250 Z-2.000 I-1.000 J0.000 K0.000 F30.000
G1 X1.250 Y-47.250 Z-2.000 F30.000
G2 X0.250 Y-46.250 Z-2.000 I0.000 J1.000 K0.000 F30.000
G1 X0.250 Y-1.250 Z-2.000 F30.000
G2 X0.333 Y-0.850 Z-2.000 I1.000 J-0.000 K0.000 F30.000
G0 Z5.000
G0 X-0.280 Y-1.005 Z5.000
G0 X-0.280 Y-1.005 Z3.000
G1 X-0.280 Y-1.005 Z-2.000 F30.000
G2 X-0.250 Y-1.250 Z-2.000 I-0.970 J-0.245 K0.000 F30.000
G1 X-0.250 Y-46.250 Z-2.000 F30.000
G2 X-1.250 Y-47.250 Z-2.000 I-1.000 J0.000 K0.000 F30.000
G1 X-43.250 Y-47.250 Z-2.000 F30.000
G2 X-44.250 Y-46.250 Z-2.000 I0.000 J1.000 K0.000 F30.000
G1 X-44.250 Y-1.250 Z-2.000 F30.000
G2 X-43.250 Y-0.250 Z-2.000 I1.000 J-0.000 K0.000 F30.000
G1 X-1.250 Y-0.250 Z-2.000 F30.000
G2 X-0.280 Y-1.005 Z-2.000 I-0.000 J-1.000 K0.000 F30.000
G0 Z5.000
G0 X-0.855 Y0.331 Z5.000
G0 X-0.855 Y0.331 Z3.000
G1 X-0.855 Y0.331 Z-2.000 F30.000
G2 X-1.250 Y0.250 Z-2.000 I-0.395 J0.919 K0.000 F30.000
G1 X-43.250 Y0.250 Z-2.000 F30.000
G2 X-44.250 Y1.250 Z-2.000 I0.000 J1.000 K0.000 F30.000
G1 X-44.250 Y46.250 Z-2.000 F30.000
G2 X-43.250 Y47.250 Z-2.000 I1.000 J-0.000 K0.000 F30.000
G1 X-1.250 Y47.250 Z-2.000 F30.000
G2 X-0.250 Y46.250 Z-2.000 I-0.000 J-1.000 K0.000 F30.000
G1 X-0.250 Y1.250 Z-2.000 F30.000
G2 X-0.855 Y0.331 Z-2.000 I-1.000 J0.000 K0.000 F30.000
G0 Z5.000
G0 X0.333 Y0.850 Z5.000
G0 X0.333 Y0.850 Z3.000
G1 X0.333 Y0.850 Z-2.000 F30.000
G2 X0.250 Y1.250 Z-2.000 I0.917 J0.400 K0.000 F30.000
G1 X0.250 Y46.250 Z-2.000 F30.000
G2 X1.250 Y47.250 Z-2.000 I1.000 J-0.000 K0.000 F30.000
G1 X43.250 Y47.250 Z-2.000 F30.000
G2 X44.250 Y46.250 Z-2.000 I-0.000 J-1.000 K0.000 F30.000
G1 X44.250 Y1.250 Z-2.000 F30.000
G2 X43.250 Y0.250 Z-2.000 I-1.000 J0.000 K0.000 F30.000
G1 X1.250 Y0.250 Z-2.000 F30.000
G2 X0.333 Y0.850 Z-2.000 I0.000 J1.000 K0.000 F30.000
G1 X0.333 Y0.850 Z-2.500 F30.000
G2 X0.250 Y1.250 Z-2.500 I0.917 J0.400 K0.000 F30.000
G1 X0.250 Y46.250 Z-2.500 F30.000
G2 X1.250 Y47.250 Z-2.500 I1.000 J-0.000 K0.000 F30.000
G1 X43.250 Y47.250 Z-2.500 F30.000
G2 X44.250 Y46.250 Z-2.500 I-0.000 J-1.000 K0.000 F30.000
G1 X44.250 Y1.250 Z-2.500 F30.000
G2 X43.250 Y0.250 Z-2.500 I-1.000 J0.000 K0.000 F30.000
G1 X1.250 Y0.250 Z-2.500 F30.000
G2 X0.333 Y0.850 Z-2.500 I0.000 J1.000 K0.000 F30.000
G0 Z5.000
G0 X-0.280 Y1.005 Z5.000
G0 X-0.280 Y1.005 Z3.000
G1 X-0.280 Y1.005 Z-2.500 F30.000
G2 X-1.250 Y0.250 Z-2.500 I-0.970 J0.245 K0.000 F30.000
G1 X-43.250 Y0.250 Z-2.500 F30.000
G2 X-44.250 Y1.250 Z-2.500 I0.000 J1.000 K0.000 F30.000
G1 X-44.250 Y46.250 Z-2.500 F30.000
G2 X-43.250 Y47.250 Z-2.500 I1.000 J-0.000 K0.000 F30.000
G1 X-1.250 Y47.250 Z-2.500 F30.000
G2 X-0.250 Y46.250 Z-2.500 I-0.000 J-1.000 K0.000 F30.000
G1 X-0.250 Y1.250 Z-2.500 F30.000
G2 X-0.280 Y1.005 Z-2.500 I-1.000 J0.000 K0.000 F30.000
G0 Z5.000
G0 X-0.855 Y-0.331 Z5.000
G0 X-0.855 Y-0.331 Z3.000
G1 X-0.855 Y-0.331 Z-2.500 F30.000
G2 X-0.250 Y-1.250 Z-2.500 I-0.395 J-0.919 K0.000 F30.000
G1 X-0.250 Y-46.250 Z-2.500 F30.000
G2 X-1.250 Y-47.250 Z-2.500 I-1.000 J0.000 K0.000 F30.000
G1 X-43.250 Y-47.250 Z-2.500 F30.000
G2 X-44.250 Y-46.250 Z-2.500 I0.000 J1.000 K0.000 F30.000
G1 X-44.250 Y-1.250 Z-2.500 F30.000
G2 X-43.250 Y-0.250 Z-2.500 I1.000 J-0.000 K0.000 F30.000
G1 X-1.250 Y-0.250 Z-2.500 F30.000
G2 X-0.855 Y-0.331 Z-2.500 I-0.000 J-1.000 K0.000 F30.000
G0 Z5.000
G0 X0.333 Y-0.850 Z5.000
G0 X0.333 Y-0.850 Z3.000
G1 X0.333 Y-0.850 Z-2.500 F30.000
G2 X1.250 Y-0.250 Z-2.500 I0.917 J-0.400 K0.000 F30.000
G1 X43.250 Y-0.250 Z-2.500 F30.000
G2 X44.250 Y-1.250 Z-2.500 I-0.000 J-1.000 K0.000 F30.000
G1 X44.250 Y-46.250 Z-2.500 F30.000
G2 X43.250 Y-47.250 Z-2.500 I-1.000 J0.000 K0.000 F30.000
G1 X1.250 Y-47.250 Z-2.500 F30.000
G2 X0.250 Y-46.250 Z-2.500 I0.000 J1.000 K0.000 F30.000
G1 X0.250 Y-1.250 Z-2.500 F30.000
G2 X0.333 Y-0.850 Z-2.500 I1.000 J-0.000 K0.000 F30.000
G1 X0.333 Y-0.850 Z-3.000 F30.000
G2 X1.250 Y-0.250 Z-3.000 I0.917 J-0.400 K0.000 F30.000
G1 X43.250 Y-0.250 Z-3.000 F30.000
G2 X44.250 Y-1.250 Z-3.000 I-0.000 J-1.000 K0.000 F30.000
G1 X44.250 Y-46.250 Z-3.000 F30.000
G2 X43.250 Y-47.250 Z-3.000 I-1.000 J0.000 K0.000 F30.000
G1 X1.250 Y-47.250 Z-3.000 F30.000
G2 X0.250 Y-46.250 Z-3.000 I0.000 J1.000 K0.000 F30.000
G1 X0.250 Y-1.250 Z-3.000 F30.000
G2 X0.333 Y-0.850 Z-3.000 I1.000 J-0.000 K0.000 F30.000
G0 Z5.000
G0 X-0.280 Y-1.005 Z5.000
G0 X-0.280 Y-1.005 Z3.000
G1 X-0.280 Y-1.005 Z-3.000 F30.000
G2 X-0.250 Y-1.250 Z-3.000 I-0.970 J-0.245 K0.000 F30.000
G1 X-0.250 Y-46.250 Z-3.000 F30.000
G2 X-1.250 Y-47.250 Z-3.000 I-1.000 J0.000 K0.000 F30.000
G1 X-43.250 Y-47.250 Z-3.000 F30.000
G2 X-44.250 Y-46.250 Z-3.000 I0.000 J1.000 K0.000 F30.000
G1 X-44.250 Y-1.250 Z-3.000 F30.000
G2 X-43.250 Y-0.250 Z-3.000 I1.000 J-0.000 K0.000 F30.000
G1 X-1.250 Y-0.250 Z-3.000 F30.000
G2 X-0.280 Y-1.005 Z-3.000 I-0.000 J-1.000 K0.000 F30.000
G0 Z5.000
G0 X-0.855 Y0.331 Z5.000
G0 X-0.855 Y0.331 Z3.000
G1 X-0.855 Y0.331 Z-3.000 F30.000
G2 X-1.250 Y0.250 Z-3.000 I-0.395 J0.919 K0.000 F30.000
G1 X-43.250 Y0.250 Z-3.000 F30.000
G2 X-44.250 Y1.250 Z-3.000 I0.000 J1.000 K0.000 F30.000
G1 X-44.250 Y46.250 Z-3.000 F30.000
G2 X-43.250 Y47.250 Z-3.000 I1.000 J-0.000 K0.000 F30.000
G1 X-1.250 Y47.250 Z-3.000 F30.000
G2 X-0.250 Y46.250 Z-3.000 I-0.000 J-1.000 K0.000 F30.000
G1 X-0.250 Y1.250 Z-3.000 F30.000
G2 X-0.855 Y0.331 Z-3.000 I-1.000 J0.000 K0.000 F30.000
G0 Z5.000
G0 X0.333 Y0.850 Z5.000
G0 X0.333 Y0.850 Z3.000
G1 X0.333 Y0.850 Z-3.000 F30.000
G2 X0.250 Y1.250 Z-3.000 I0.917 J0.400 K0.000 F30.000
G1 X0.250 Y46.250 Z-3.000 F30.000
G2 X1.250 Y47.250 Z-3.000 I1.000 J-0.000 K0.000 F30.000
G1 X43.250 Y47.250 Z-3.000 F30.000
G2 X44.250 Y46.250 Z-3.000 I-0.000 J-1.000 K0.000 F30.000
G1 X44.250 Y1.250 Z-3.000 F30.000
G2 X43.250 Y0.250 Z-3.000 I-1.000 J0.000 K0.000 F30.000
G1 X1.250 Y0.250 Z-3.000 F30.000
G2 X0.333 Y0.850 Z-3.000 I0.000 J1.000 K0.000 F30.000
G1 X0.333 Y0.850 Z-3.500 F30.000
G2 X0.250 Y1.250 Z-3.500 I0.917 J0.400 K0.000 F30.000
G1 X0.250 Y46.250 Z-3.500 F30.000
G2 X1.250 Y47.250 Z-3.500 I1.000 J-0.000 K0.000 F30.000
G1 X43.250 Y47.250 Z-3.500 F30.000
G2 X44.250 Y46.250 Z-3.500 I-0.000 J-1.000 K0.000 F30.000
G1 X44.250 Y1.250 Z-3.500 F30.000
G2 X43.250 Y0.250 Z-3.500 I-1.000 J0.000 K0.000 F30.000
G1 X1.250 Y0.250 Z-3.500 F30.000
G2 X0.333 Y0.850 Z-3.500 I0.000 J1.000 K0.000 F30.000
G0 Z5.000
G0 X-0.280 Y1.005 Z5.000
G0 X-0.280 Y1.005 Z3.000
G1 X-0.280 Y1.005 Z-3.500 F30.000
G2 X-1.250 Y0.250 Z-3.500 I-0.970 J0.245 K0.000 F30.000
G1 X-43.250 Y0.250 Z-3.500 F30.000
G2 X-44.250 Y1.250 Z-3.500 I0.000 J1.000 K0.000 F30.000
G1 X-44.250 Y46.250 Z-3.500 F30.000
G2 X-43.250 Y47.250 Z-3.500 I1.000 J-0.000 K0.000 F30.000
G1 X-1.250 Y47.250 Z-3.500 F30.000
G2 X-0.250 Y46.250 Z-3.500 I-0.000 J-1.000 K0.000 F30.000
G1 X-0.250 Y1.250 Z-3.500 F30.000
G2 X-0.280 Y1.005 Z-3.500 I-1.000 J0.000 K0.000 F30.000
G0 Z5.000
G0 X-0.855 Y-0.331 Z5.000
G0 X-0.855 Y-0.331 Z3.000
G1 X-0.855 Y-0.331 Z-3.500 F30.000
G2 X-0.250 Y-1.250 Z-3.500 I-0.395 J-0.919 K0.000 F30.000
G1 X-0.250 Y-46.250 Z-3.500 F30.000
G2 X-1.250 Y-47.250 Z-3.500 I-1.000 J0.000 K0.000 F30.000
G1 X-43.250 Y-47.250 Z-3.500 F30.000
G2 X-44.250 Y-46.250 Z-3.500 I0.000 J1.000 K0.000 F30.000
G1 X-44.250 Y-1.250 Z-3.500 F30.000
G2 X-43.250 Y-0.250 Z-3.500 I1.000 J-0.000 K0.000 F30.000
G1 X-1.250 Y-0.250 Z-3.500 F30.000
G2 X-0.855 Y-0.331 Z-3.500 I-0.000 J-1.000 K0.000 F30.000
G0 Z5.000
G0 X0.333 Y-0.850 Z5.000
G0 X0.333 Y-0.850 Z3.000
G1 X0.333 Y-0.850 Z-3.500 F30.000
G2 X1.250 Y-0.250 Z-3.500 I0.917 J-0.400 K0.000 F30.000
G1 X43.250 Y-0.250 Z-3.500 F30.000
G2 X44.250 Y-1.250 Z-3.500 I-0.000 J-1.000 K0.000 F30.000
G1 X44.250 Y-46.250 Z-3.500 F30.000
G2 X43.250 Y-47.250 Z-3.500 I-1.000 J0.000 K0.000 F30.000
G1 X1.250 Y-47.250 Z-3.500 F30.000
G2 X0.250 Y-46.250 Z-3.500 I0.000 J1.000 K0.000 F30.000
G1 X0.250 Y-1.250 Z-3.500 F30.000
G2 X0.333 Y-0.850 Z-3.500 I1.000 J-0.000 K0.000 F30.000
G1 X0.333 Y-0.850 Z-4.000 F30.000
G2 X1.250 Y-0.250 Z-4.000 I0.917 J-0.400 K0.000 F30.000
G1 X43.250 Y-0.250 Z-4.000 F30.000
G2 X44.250 Y-1.250 Z-4.000 I-0.000 J-1.000 K0.000 F30.000
G1 X44.250 Y-46.250 Z-4.000 F30.000
G2 X43.250 Y-47.250 Z-4.000 I-1.000 J0.000 K0.000 F30.000
G1 X1.250 Y-47.250 Z-4.000 F30.000
G2 X0.250 Y-46.250 Z-4.000 I0.000 J1.000 K0.000 F30.000
G1 X0.250 Y-1.250 Z-4.000 F30.000
G2 X0.333 Y-0.850 Z-4.000 I1.000 J-0.000 K0.000 F30.000
G0 Z5.000
G0 X-0.280 Y-1.005 Z5.000
G0 X-0.280 Y-1.005 Z3.000
G1 X-0.280 Y-1.005 Z-4.000 F30.000
G2 X-0.250 Y-1.250 Z-4.000 I-0.970 J-0.245 K0.000 F30.000
G1 X-0.250 Y-46.250 Z-4.000 F30.000
G2 X-1.250 Y-47.250 Z-4.000 I-1.000 J0.000 K0.000 F30.000
G1 X-43.250 Y-47.250 Z-4.000 F30.000
G2 X-44.250 Y-46.250 Z-4.000 I0.000 J1.000 K0.000 F30.000
G1 X-44.250 Y-1.250 Z-4.000 F30.000
G2 X-43.250 Y-0.250 Z-4.000 I1.000 J-0.000 K0.000 F30.000
G1 X-1.250 Y-0.250 Z-4.000 F30.000
G2 X-0.280 Y-1.005 Z-4.000 I-0.000 J-1.000 K0.000 F30.000
G0 Z5.000
G0 X-0.855 Y0.331 Z5.000
G0 X-0.855 Y0.331 Z3.000
G1 X-0.855 Y0.331 Z-4.000 F30.000
G2 X-1.250 Y0.250 Z-4.000 I-0.395 J0.919 K0.000 F30.000
G1 X-43.250 Y0.250 Z-4.000 F30.000
G2 X-44.250 Y1.250 Z-4.000 I0.000 J1.000 K0.000 F30.000
G1 X-44.250 Y46.250 Z-4.000 F30.000
G2 X-43.250 Y47.250 Z-4.000 I1.000 J-0.000 K0.000 F30.000
G1 X-1.250 Y47.250 Z-4.000 F30.000
G2 X-0.250 Y46.250 Z-4.000 I-0.000 J-1.000 K0.000 F30.000
G1 X-0.250 Y1.250 Z-4.000 F30.000
G2 X-0.855 Y0.331 Z-4.000 I-1.000 J0.000 K0.000 F30.000
G0 Z5.000
G0 X0.333 Y0.850 Z5.000
G0 X0.333 Y0.850 Z3.000
G1 X0.333 Y0.850 Z-4.000 F30.000
G2 X0.250 Y1.250 Z-4.000 I0.917 J0.400 K0.000 F30.000
G1 X0.250 Y46.250 Z-4.000 F30.000
G2 X1.250 Y47.250 Z-4.000 I1.000 J-0.000 K0.000 F30.000
G1 X43.250 Y47.250 Z-4.000 F30.000
G2 X44.250 Y46.250 Z-4.000 I-0.000 J-1.000 K0.000 F30.000
G1 X44.250 Y1.250 Z-4.000 F30.000
G2 X43.250 Y0.250 Z-4.000 I-1.000 J0.000 K0.000 F30.000
G1 X1.250 Y0.250 Z-4.000 F30.000
G2 X0.333 Y0.850 Z-4.000 I0.000 J1.000 K0.000 F30.000
G1 X0.333 Y0.850 Z-4.500 F30.000
G2 X0.250 Y1.250 Z-4.500 I0.917 J0.400 K0.000 F30.000
G1 X0.250 Y46.250 Z-4.500 F30.000
G2 X1.250 Y47.250 Z-4.500 I1.000 J-0.000 K0.000 F30.000
G1 X43.250 Y47.250 Z-4.500 F30.000
G2 X44.250 Y46.250 Z-4.500 I-0.000 J-1.000 K0.000 F30.000
G1 X44.250 Y1.250 Z-4.500 F30.000
G2 X43.250 Y0.250 Z-4.500 I-1.000 J0.000 K0.000 F30.000
G1 X1.250 Y0.250 Z-4.500 F30.000
G2 X0.333 Y0.850 Z-4.500 I0.000 J1.000 K0.000 F30.000
G0 Z5.000
G0 X-0.280 Y1.005 Z5.000
G0 X-0.280 Y1.005 Z3.000
G1 X-0.280 Y1.005 Z-4.500 F30.000
G2 X-1.250 Y0.250 Z-4.500 I-0.970 J0.245 K0.000 F30.000
G1 X-43.250 Y0.250 Z-4.500 F30.000
G2 X-44.250 Y1.250 Z-4.500 I0.000 J1.000 K0.000 F30.000
G1 X-44.250 Y46.250 Z-4.500 F30.000
G2 X-43.250 Y47.250 Z-4.500 I1.000 J-0.000 K0.000 F30.000
G1 X-1.250 Y47.250 Z-4.500 F30.000
G2 X-0.250 Y46.250 Z-4.500 I-0.000 J-1.000 K0.000 F30.000
G1 X-0.250 Y1.250 Z-4.500 F30.000
G2 X-0.280 Y1.005 Z-4.500 I-1.000 J0.000 K0.000 F30.000
G0 Z5.000
G0 X-0.855 Y-0.331 Z5.000
G0 X-0.855 Y-0.331 Z3.000
G1 X-0.855 Y-0.331 Z-4.500 F30.000
G2 X-0.250 Y-1.250 Z-4.500 I-0.395 J-0.919 K0.000 F30.000
G1 X-0.250 Y-46.250 Z-4.500 F30.000
G2 X-1.250 Y-47.250 Z-4.500 I-1.000 J0.000 K0.000 F30.000
G1 X-43.250 Y-47.250 Z-4.500 F30.000
G2 X-44.250 Y-46.250 Z-4.500 I0.000 J1.000 K0.000 F30.000
G1 X-44.250 Y-1.250 Z-4.500 F30.000
G2 X-43.250 Y-0.250 Z-4.500 I1.000 J-0.000 K0.000 F30.000
G1 X-1.250 Y-0.250 Z-4.500 F30.000
G2 X-0.855 Y-0.331 Z-4.500 I-0.000 J-1.000 K0.000 F30.000
G0 Z5.000
G0 X0.333 Y-0.850 Z5.000
G0 X0.333 Y-0.850 Z3.000
G1 X0.333 Y-0.850 Z-4.500 F30.000
G2 X1.250 Y-0.250 Z-4.500 I0.917 J-0.400 K0.000 F30.000
G1 X43.250 Y-0.250 Z-4.500 F30.000
G2 X44.250 Y-1.250 Z-4.500 I-0.000 J-1.000 K0.000 F30.000
G1 X44.250 Y-46.250 Z-4.500 F30.000
G2 X43.250 Y-47.250 Z-4.500 I-1.000 J0.000 K0.000 F30.000
G1 X1.250 Y-47.250 Z-4.500 F30.000
G2 X0.250 Y-46.250 Z-4.500 I0.000 J1.000 K0.000 F30.000
G1 X0.250 Y-1.250 Z-4.500 F30.000
G2 X0.333 Y-0.850 Z-4.500 I1.000 J-0.000 K0.000 F30.000
G1 X0.333 Y-0.850 Z-5.000 F30.000
G2 X1.250 Y-0.250 Z-5.000 I0.917 J-0.400 K0.000 F30.000
G1 X43.250 Y-0.250 Z-5.000 F30.000
G2 X44.250 Y-1.250 Z-5.000 I-0.000 J-1.000 K0.000 F30.000
G1 X44.250 Y-46.250 Z-5.000 F30.000
G2 X43.250 Y-47.250 Z-5.000 I-1.000 J0.000 K0.000 F30.000
G1 X1.250 Y-47.250 Z-5.000 F30.000
G2 X0.250 Y-46.250 Z-5.000 I0.000 J1.000 K0.000 F30.000
G1 X0.250 Y-1.250 Z-5.000 F30.000
G2 X0.333 Y-0.850 Z-5.000 I1.000 J-0.000 K0.000 F30.000
G0 Z5.000
G0 X-0.280 Y-1.005 Z5.000
G0 X-0.280 Y-1.005 Z3.000
G1 X-0.280 Y-1.005 Z-5.000 F30.000
G2 X-0.250 Y-1.250 Z-5.000 I-0.970 J-0.245 K0.000 F30.000
G1 X-0.250 Y-46.250 Z-5.000 F30.000
G2 X-1.250 Y-47.250 Z-5.000 I-1.000 J0.000 K0.000 F30.000
G1 X-43.250 Y-47.250 Z-5.000 F30.000
G2 X-44.250 Y-46.250 Z-5.000 I0.000 J1.000 K0.000 F30.000
G1 X-44.250 Y-1.250 Z-5.000 F30.000
G2 X-43.250 Y-0.250 Z-5.000 I1.000 J-0.000 K0.000 F30.000
G1 X-1.250 Y-0.250 Z-5.000 F30.000
G2 X-0.280 Y-1.005 Z-5.000 I-0.000 J-1.000 K0.000 F30.000
G0 Z5.000
G0 X-0.855 Y0.331 Z5.000
G0 X-0.855 Y0.331 Z3.000
G1 X-0.855 Y0.331 Z-5.000 F30.000
G2 X-1.250 Y0.250 Z-5.000 I-0.395 J0.919 K0.000 F30.000
G1 X-43.250 Y0.250 Z-5.000 F30.000
G2 X-44.250 Y1.250 Z-5.000 I0.000 J1.000 K0.000 F30.000
G1 X-44.250 Y46.250 Z-5.000 F30.000
G2 X-43.250 Y47.250 Z-5.000 I1.000 J-0.000 K0.000 F30.000
G1 X-1.250 Y47.250 Z-5.000 F30.000
G2 X-0.250 Y46.250 Z-5.000 I-0.000 J-1.000 K0.000 F30.000
G1 X-0.250 Y1.250 Z-5.000 F30.000
G2 X-0.855 Y0.331 Z-5.000 I-1.000 J0.000 K0.000 F30.000
G0 Z5.000
G0 X0.333 Y0.850 Z5.000
G0 X0.333 Y0.850 Z3.000
G1 X0.333 Y0.850 Z-5.000 F30.000
G2 X0.250 Y1.250 Z-5.000 I0.917 J0.400 K0.000 F30.000
G1 X0.250 Y46.250 Z-5.000 F30.000
G2 X1.250 Y47.250 Z-5.000 I1.000 J-0.000 K0.000 F30.000
G1 X43.250 Y47.250 Z-5.000 F30.000
G2 X44.250 Y46.250 Z-5.000 I-0.000 J-1.000 K0.000 F30.000
G1 X44.250 Y1.250 Z-5.000 F30.000
G2 X43.250 Y0.250 Z-5.000 I-1.000 J0.000 K0.000 F30.000
G1 X1.250 Y0.250 Z-5.000 F30.000
G2 X0.333 Y0.850 Z-5.000 I0.000 J1.000 K0.000 F30.000
G0 Z5.000
G0 Z5.000
(Finish operation: Profile003)
(Begin postamble)
M5
G17 G90
M2
