(Exported by FreeCAD)
(Post Processor: grbl_post)
(Output Time:2025-08-20 19:05:02.100587)
(Begin preamble)
G17 G90
G21
(Begin operation: Fixture)
(Path: Fixture)
G54
(Finish operation: Fixture)
(Begin operation: 2mm-6-Endmill005)
(Path: 2mm-6-Endmill005)
(2mm-6-Endmill005)
(Begin toolchange)
( M6 T2 )
(Finish operation: 2mm-6-Endmill005)
(Begin operation: Profile)
(Path: Profile)
(Profile)
(Compensated Tool Path. Diameter: 2.0)
G0 Z5.000
G0 X-35.500 Y-11.250
G0 Z3.000
G1 X-35.500 Y-11.250 Z-0.500 F30.000
G1 X-39.000 Y-11.250 Z-0.500 F30.000
G1 X-39.000 Y-12.250 Z-0.500 F30.000
G1 X-35.500 Y-12.250 Z-0.500 F30.000
G1 X-35.500 Y-11.250 Z-0.500 F30.000
G1 X-35.500 Y-11.250 Z-1.000 F30.000
G1 X-39.000 Y-11.250 Z-1.000 F30.000
G1 X-39.000 Y-12.250 Z-1.000 F30.000
G1 X-35.500 Y-12.250 Z-1.000 F30.000
G1 X-35.500 Y-11.250 Z-1.000 F30.000
G1 X-35.500 Y-11.250 Z-1.500 F30.000
G1 X-39.000 Y-11.250 Z-1.500 F30.000
G1 X-39.000 Y-12.250 Z-1.500 F30.000
G1 X-35.500 Y-12.250 Z-1.500 F30.000
G1 X-35.500 Y-11.250 Z-1.500 F30.000
G1 X-35.500 Y-11.250 Z-2.000 F30.000
G1 X-39.000 Y-11.250 Z-2.000 F30.000
G1 X-39.000 Y-12.250 Z-2.000 F30.000
G1 X-35.500 Y-12.250 Z-2.000 F30.000
G1 X-35.500 Y-11.250 Z-2.000 F30.000
G1 X-35.500 Y-11.250 Z-2.500 F30.000
G1 X-39.000 Y-11.250 Z-2.500 F30.000
G1 X-39.000 Y-12.250 Z-2.500 F30.000
G1 X-35.500 Y-12.250 Z-2.500 F30.000
G1 X-35.500 Y-11.250 Z-2.500 F30.000
G1 X-35.500 Y-11.250 Z-3.000 F30.000
G1 X-39.000 Y-11.250 Z-3.000 F30.000
G1 X-39.000 Y-12.250 Z-3.000 F30.000
G1 X-35.500 Y-12.250 Z-3.000 F30.000
G1 X-35.500 Y-11.250 Z-3.000 F30.000
G1 X-35.500 Y-11.250 Z-3.500 F30.000
G1 X-39.000 Y-11.250 Z-3.500 F30.000
G1 X-39.000 Y-12.250 Z-3.500 F30.000
G1 X-35.500 Y-12.250 Z-3.500 F30.000
G1 X-35.500 Y-11.250 Z-3.500 F30.000
G1 X-35.500 Y-11.250 Z-4.000 F30.000
G1 X-39.000 Y-11.250 Z-4.000 F30.000
G1 X-39.000 Y-12.250 Z-4.000 F30.000
G1 X-35.500 Y-12.250 Z-4.000 F30.000
G1 X-35.500 Y-11.250 Z-4.000 F30.000
G1 X-35.500 Y-11.250 Z-4.500 F30.000
G1 X-39.000 Y-11.250 Z-4.500 F30.000
G1 X-39.000 Y-12.250 Z-4.500 F30.000
G1 X-35.500 Y-12.250 Z-4.500 F30.000
G1 X-35.500 Y-11.250 Z-4.500 F30.000
G1 X-35.500 Y-11.250 Z-5.000 F30.000
G1 X-39.000 Y-11.250 Z-5.000 F30.000
G1 X-39.000 Y-12.250 Z-5.000 F30.000
G1 X-35.500 Y-12.250 Z-5.000 F30.000
G1 X-35.500 Y-11.250 Z-5.000 F30.000
G0 Z5.000
G0 Z5.000
(Finish operation: Profile)
(Begin operation: Profile004)
(Path: Profile004)
(Profile004)
(Compensated Tool Path. Diameter: 2.0)
G0 Z5.000
G0 X-28.972 Y-6.972
G0 Z3.000
G1 X-28.972 Y-6.972 Z-0.500 F30.000
G3 X-29.421 Y-6.895 Z-0.500 I-0.278 J-0.278 K0.000 F30.000
G3 X-29.605 Y-7.421 Z-0.500 I0.171 J-0.355 K0.000 F30.000
G3 X-29.079 Y-7.605 Z-0.500 I0.355 J0.171 K0.000 F30.000
G3 X-28.972 Y-6.972 Z-0.500 I-0.171 J0.355 K0.000 F30.000
G1 X-28.972 Y-6.972 Z-1.000 F30.000
G3 X-29.421 Y-6.895 Z-1.000 I-0.278 J-0.278 K0.000 F30.000
G3 X-29.605 Y-7.421 Z-1.000 I0.171 J-0.355 K0.000 F30.000
G3 X-29.079 Y-7.605 Z-1.000 I0.355 J0.171 K0.000 F30.000
G3 X-28.972 Y-6.972 Z-1.000 I-0.171 J0.355 K0.000 F30.000
G1 X-28.972 Y-6.972 Z-1.500 F30.000
G3 X-29.421 Y-6.895 Z-1.500 I-0.278 J-0.278 K0.000 F30.000
G3 X-29.605 Y-7.421 Z-1.500 I0.171 J-0.355 K0.000 F30.000
G3 X-29.079 Y-7.605 Z-1.500 I0.355 J0.171 K0.000 F30.000
G3 X-28.972 Y-6.972 Z-1.500 I-0.171 J0.355 K0.000 F30.000
G1 X-28.972 Y-6.972 Z-2.000 F30.000
G3 X-29.421 Y-6.895 Z-2.000 I-0.278 J-0.278 K0.000 F30.000
G3 X-29.605 Y-7.421 Z-2.000 I0.171 J-0.355 K0.000 F30.000
G3 X-29.079 Y-7.605 Z-2.000 I0.355 J0.171 K0.000 F30.000
G3 X-28.972 Y-6.972 Z-2.000 I-0.171 J0.355 K0.000 F30.000
G1 X-28.972 Y-6.972 Z-2.500 F30.000
G3 X-29.421 Y-6.895 Z-2.500 I-0.278 J-0.278 K0.000 F30.000
G3 X-29.605 Y-7.421 Z-2.500 I0.171 J-0.355 K0.000 F30.000
G3 X-29.079 Y-7.605 Z-2.500 I0.355 J0.171 K0.000 F30.000
G3 X-28.972 Y-6.972 Z-2.500 I-0.171 J0.355 K0.000 F30.000
G1 X-28.972 Y-6.972 Z-3.000 F30.000
G3 X-29.421 Y-6.895 Z-3.000 I-0.278 J-0.278 K0.000 F30.000
G3 X-29.605 Y-7.421 Z-3.000 I0.171 J-0.355 K0.000 F30.000
G3 X-29.079 Y-7.605 Z-3.000 I0.355 J0.171 K0.000 F30.000
G3 X-28.972 Y-6.972 Z-3.000 I-0.171 J0.355 K0.000 F30.000
G1 X-28.972 Y-6.972 Z-3.500 F30.000
G3 X-29.421 Y-6.895 Z-3.500 I-0.278 J-0.278 K0.000 F30.000
G3 X-29.605 Y-7.421 Z-3.500 I0.171 J-0.355 K0.000 F30.000
G3 X-29.079 Y-7.605 Z-3.500 I0.355 J0.171 K0.000 F30.000
G3 X-28.972 Y-6.972 Z-3.500 I-0.171 J0.355 K0.000 F30.000
G1 X-28.972 Y-6.972 Z-4.000 F30.000
G3 X-29.421 Y-6.895 Z-4.000 I-0.278 J-0.278 K0.000 F30.000
G3 X-29.605 Y-7.421 Z-4.000 I0.171 J-0.355 K0.000 F30.000
G3 X-29.079 Y-7.605 Z-4.000 I0.355 J0.171 K0.000 F30.000
G3 X-28.972 Y-6.972 Z-4.000 I-0.171 J0.355 K0.000 F30.000
G1 X-28.972 Y-6.972 Z-4.500 F30.000
G3 X-29.421 Y-6.895 Z-4.500 I-0.278 J-0.278 K0.000 F30.000
G3 X-29.605 Y-7.421 Z-4.500 I0.171 J-0.355 K0.000 F30.000
G3 X-29.079 Y-7.605 Z-4.500 I0.355 J0.171 K0.000 F30.000
G3 X-28.972 Y-6.972 Z-4.500 I-0.171 J0.355 K0.000 F30.000
G1 X-28.972 Y-6.972 Z-5.000 F30.000
G3 X-29.421 Y-6.895 Z-5.000 I-0.278 J-0.278 K0.000 F30.000
G3 X-29.605 Y-7.421 Z-5.000 I0.171 J-0.355 K0.000 F30.000
G3 X-29.079 Y-7.605 Z-5.000 I0.355 J0.171 K0.000 F30.000
G3 X-28.972 Y-6.972 Z-5.000 I-0.171 J0.355 K0.000 F30.000
G0 Z5.000
G0 Z5.000
(Finish operation: Profile004)
(Begin operation: Profile005)
(Path: Profile005)
(Profile005)
(Compensated Tool Path. Diameter: 2.0)
G0 Z5.000
G0 X-14.972 Y-6.972
G0 Z3.000
G1 X-14.972 Y-6.972 Z-0.500 F30.000
G3 X-15.421 Y-6.895 Z-0.500 I-0.278 J-0.278 K0.000 F30.000
G3 X-15.605 Y-7.421 Z-0.500 I0.171 J-0.355 K0.000 F30.000
G3 X-15.079 Y-7.605 Z-0.500 I0.355 J0.171 K0.000 F30.000
G3 X-14.972 Y-6.972 Z-0.500 I-0.171 J0.355 K0.000 F30.000
G1 X-14.972 Y-6.972 Z-1.000 F30.000
G3 X-15.421 Y-6.895 Z-1.000 I-0.278 J-0.278 K0.000 F30.000
G3 X-15.605 Y-7.421 Z-1.000 I0.171 J-0.355 K0.000 F30.000
G3 X-15.079 Y-7.605 Z-1.000 I0.355 J0.171 K0.000 F30.000
G3 X-14.972 Y-6.972 Z-1.000 I-0.171 J0.355 K0.000 F30.000
G1 X-14.972 Y-6.972 Z-1.500 F30.000
G3 X-15.421 Y-6.895 Z-1.500 I-0.278 J-0.278 K0.000 F30.000
G3 X-15.605 Y-7.421 Z-1.500 I0.171 J-0.355 K0.000 F30.000
G3 X-15.079 Y-7.605 Z-1.500 I0.355 J0.171 K0.000 F30.000
G3 X-14.972 Y-6.972 Z-1.500 I-0.171 J0.355 K0.000 F30.000
G1 X-14.972 Y-6.972 Z-2.000 F30.000
G3 X-15.421 Y-6.895 Z-2.000 I-0.278 J-0.278 K0.000 F30.000
G3 X-15.605 Y-7.421 Z-2.000 I0.171 J-0.355 K0.000 F30.000
G3 X-15.079 Y-7.605 Z-2.000 I0.355 J0.171 K0.000 F30.000
G3 X-14.972 Y-6.972 Z-2.000 I-0.171 J0.355 K0.000 F30.000
G1 X-14.972 Y-6.972 Z-2.500 F30.000
G3 X-15.421 Y-6.895 Z-2.500 I-0.278 J-0.278 K0.000 F30.000
G3 X-15.605 Y-7.421 Z-2.500 I0.171 J-0.355 K0.000 F30.000
G3 X-15.079 Y-7.605 Z-2.500 I0.355 J0.171 K0.000 F30.000
G3 X-14.972 Y-6.972 Z-2.500 I-0.171 J0.355 K0.000 F30.000
G1 X-14.972 Y-6.972 Z-3.000 F30.000
G3 X-15.421 Y-6.895 Z-3.000 I-0.278 J-0.278 K0.000 F30.000
G3 X-15.605 Y-7.421 Z-3.000 I0.171 J-0.355 K0.000 F30.000
G3 X-15.079 Y-7.605 Z-3.000 I0.355 J0.171 K0.000 F30.000
G3 X-14.972 Y-6.972 Z-3.000 I-0.171 J0.355 K0.000 F30.000
G1 X-14.972 Y-6.972 Z-3.500 F30.000
G3 X-15.421 Y-6.895 Z-3.500 I-0.278 J-0.278 K0.000 F30.000
G3 X-15.605 Y-7.421 Z-3.500 I0.171 J-0.355 K0.000 F30.000
G3 X-15.079 Y-7.605 Z-3.500 I0.355 J0.171 K0.000 F30.000
G3 X-14.972 Y-6.972 Z-3.500 I-0.171 J0.355 K0.000 F30.000
G1 X-14.972 Y-6.972 Z-4.000 F30.000
G3 X-15.421 Y-6.895 Z-4.000 I-0.278 J-0.278 K0.000 F30.000
G3 X-15.605 Y-7.421 Z-4.000 I0.171 J-0.355 K0.000 F30.000
G3 X-15.079 Y-7.605 Z-4.000 I0.355 J0.171 K0.000 F30.000
G3 X-14.972 Y-6.972 Z-4.000 I-0.171 J0.355 K0.000 F30.000
G1 X-14.972 Y-6.972 Z-4.500 F30.000
G3 X-15.421 Y-6.895 Z-4.500 I-0.278 J-0.278 K0.000 F30.000
G3 X-15.605 Y-7.421 Z-4.500 I0.171 J-0.355 K0.000 F30.000
G3 X-15.079 Y-7.605 Z-4.500 I0.355 J0.171 K0.000 F30.000
G3 X-14.972 Y-6.972 Z-4.500 I-0.171 J0.355 K0.000 F30.000
G1 X-14.972 Y-6.972 Z-5.000 F30.000
G3 X-15.421 Y-6.895 Z-5.000 I-0.278 J-0.278 K0.000 F30.000
G3 X-15.605 Y-7.421 Z-5.000 I0.171 J-0.355 K0.000 F30.000
G3 X-15.079 Y-7.605 Z-5.000 I0.355 J0.171 K0.000 F30.000
G3 X-14.972 Y-6.972 Z-5.000 I-0.171 J0.355 K0.000 F30.000
G0 Z5.000
G0 Z5.000
(Finish operation: Profile005)
(Begin operation: Profile006)
(Path: Profile006)
(Profile006)
(Compensated Tool Path. Diameter: 2.0)
G0 Z5.000
G0 X-5.500 Y-11.250
G0 Z3.000
G1 X-5.500 Y-11.250 Z-0.500 F30.000
G1 X-9.000 Y-11.250 Z-0.500 F30.000
G1 X-9.000 Y-12.250 Z-0.500 F30.000
G1 X-5.500 Y-12.250 Z-0.500 F30.000
G1 X-5.500 Y-11.250 Z-0.500 F30.000
G1 X-5.500 Y-11.250 Z-1.000 F30.000
G1 X-9.000 Y-11.250 Z-1.000 F30.000
G1 X-9.000 Y-12.250 Z-1.000 F30.000
G1 X-5.500 Y-12.250 Z-1.000 F30.000
G1 X-5.500 Y-11.250 Z-1.000 F30.000
G1 X-5.500 Y-11.250 Z-1.500 F30.000
G1 X-9.000 Y-11.250 Z-1.500 F30.000
G1 X-9.000 Y-12.250 Z-1.500 F30.000
G1 X-5.500 Y-12.250 Z-1.500 F30.000
G1 X-5.500 Y-11.250 Z-1.500 F30.000
G1 X-5.500 Y-11.250 Z-2.000 F30.000
G1 X-9.000 Y-11.250 Z-2.000 F30.000
G1 X-9.000 Y-12.250 Z-2.000 F30.000
G1 X-5.500 Y-12.250 Z-2.000 F30.000
G1 X-5.500 Y-11.250 Z-2.000 F30.000
G1 X-5.500 Y-11.250 Z-2.500 F30.000
G1 X-9.000 Y-11.250 Z-2.500 F30.000
G1 X-9.000 Y-12.250 Z-2.500 F30.000
G1 X-5.500 Y-12.250 Z-2.500 F30.000
G1 X-5.500 Y-11.250 Z-2.500 F30.000
G1 X-5.500 Y-11.250 Z-3.000 F30.000
G1 X-9.000 Y-11.250 Z-3.000 F30.000
G1 X-9.000 Y-12.250 Z-3.000 F30.000
G1 X-5.500 Y-12.250 Z-3.000 F30.000
G1 X-5.500 Y-11.250 Z-3.000 F30.000
G1 X-5.500 Y-11.250 Z-3.500 F30.000
G1 X-9.000 Y-11.250 Z-3.500 F30.000
G1 X-9.000 Y-12.250 Z-3.500 F30.000
G1 X-5.500 Y-12.250 Z-3.500 F30.000
G1 X-5.500 Y-11.250 Z-3.500 F30.000
G1 X-5.500 Y-11.250 Z-4.000 F30.000
G1 X-9.000 Y-11.250 Z-4.000 F30.000
G1 X-9.000 Y-12.250 Z-4.000 F30.000
G1 X-5.500 Y-12.250 Z-4.000 F30.000
G1 X-5.500 Y-11.250 Z-4.000 F30.000
G1 X-5.500 Y-11.250 Z-4.500 F30.000
G1 X-9.000 Y-11.250 Z-4.500 F30.000
G1 X-9.000 Y-12.250 Z-4.500 F30.000
G1 X-5.500 Y-12.250 Z-4.500 F30.000
G1 X-5.500 Y-11.250 Z-4.500 F30.000
G1 X-5.500 Y-11.250 Z-5.000 F30.000
G1 X-9.000 Y-11.250 Z-5.000 F30.000
G1 X-9.000 Y-12.250 Z-5.000 F30.000
G1 X-5.500 Y-12.250 Z-5.000 F30.000
G1 X-5.500 Y-11.250 Z-5.000 F30.000
G0 Z5.000
G0 Z5.000
(Finish operation: Profile006)
(Begin operation: Profile007)
(Path: Profile007)
(Profile007)
(Compensated Tool Path. Diameter: 2.0)
G0 Z5.000
G0 X-33.088 Y-22.379
G0 Z3.000
G1 X-33.088 Y-22.379 Z-0.500 F30.000
G3 X-35.117 Y-21.892 Z-0.500 I-1.412 J-1.412 K0.000 F30.000
G3 X-33.883 Y-25.690 Z-0.500 I0.617 J-1.899 K0.000 F30.000
G3 X-33.088 Y-22.379 Z-0.500 I-0.617 J1.899 K0.000 F30.000
G1 X-33.088 Y-22.379 Z-1.000 F30.000
G3 X-35.117 Y-21.892 Z-1.000 I-1.412 J-1.412 K0.000 F30.000
G3 X-33.883 Y-25.690 Z-1.000 I0.617 J-1.899 K0.000 F30.000
G3 X-33.088 Y-22.379 Z-1.000 I-0.617 J1.899 K0.000 F30.000
G1 X-33.088 Y-22.379 Z-1.500 F30.000
G3 X-35.117 Y-21.892 Z-1.500 I-1.412 J-1.412 K0.000 F30.000
G3 X-33.883 Y-25.690 Z-1.500 I0.617 J-1.899 K0.000 F30.000
G3 X-33.088 Y-22.379 Z-1.500 I-0.617 J1.899 K0.000 F30.000
G1 X-33.088 Y-22.379 Z-2.000 F30.000
G3 X-35.117 Y-21.892 Z-2.000 I-1.412 J-1.412 K0.000 F30.000
G3 X-33.883 Y-25.690 Z-2.000 I0.617 J-1.899 K0.000 F30.000
G3 X-33.088 Y-22.379 Z-2.000 I-0.617 J1.899 K0.000 F30.000
G1 X-33.088 Y-22.379 Z-2.500 F30.000
G3 X-35.117 Y-21.892 Z-2.500 I-1.412 J-1.412 K0.000 F30.000
G3 X-33.883 Y-25.690 Z-2.500 I0.617 J-1.899 K0.000 F30.000
G3 X-33.088 Y-22.379 Z-2.500 I-0.617 J1.899 K0.000 F30.000
G1 X-33.088 Y-22.379 Z-3.000 F30.000
G3 X-35.117 Y-21.892 Z-3.000 I-1.412 J-1.412 K0.000 F30.000
G3 X-33.883 Y-25.690 Z-3.000 I0.617 J-1.899 K0.000 F30.000
G3 X-33.088 Y-22.379 Z-3.000 I-0.617 J1.899 K0.000 F30.000
G1 X-33.088 Y-22.379 Z-3.500 F30.000
G3 X-35.117 Y-21.892 Z-3.500 I-1.412 J-1.412 K0.000 F30.000
G3 X-33.883 Y-25.690 Z-3.500 I0.617 J-1.899 K0.000 F30.000
G3 X-33.088 Y-22.379 Z-3.500 I-0.617 J1.899 K0.000 F30.000
G1 X-33.088 Y-22.379 Z-4.000 F30.000
G3 X-35.117 Y-21.892 Z-4.000 I-1.412 J-1.412 K0.000 F30.000
G3 X-33.883 Y-25.690 Z-4.000 I0.617 J-1.899 K0.000 F30.000
G3 X-33.088 Y-22.379 Z-4.000 I-0.617 J1.899 K0.000 F30.000
G1 X-33.088 Y-22.379 Z-4.500 F30.000
G3 X-35.117 Y-21.892 Z-4.500 I-1.412 J-1.412 K0.000 F30.000
G3 X-33.883 Y-25.690 Z-4.500 I0.617 J-1.899 K0.000 F30.000
G3 X-33.088 Y-22.379 Z-4.500 I-0.617 J1.899 K0.000 F30.000
G1 X-33.088 Y-22.379 Z-5.000 F30.000
G3 X-35.117 Y-21.892 Z-5.000 I-1.412 J-1.412 K0.000 F30.000
G3 X-33.883 Y-25.690 Z-5.000 I0.617 J-1.899 K0.000 F30.000
G3 X-33.088 Y-22.379 Z-5.000 I-0.617 J1.899 K0.000 F30.000
G0 Z5.000
G0 Z5.000
(Finish operation: Profile007)
(Begin operation: Profile008)
(Path: Profile008)
(Profile008)
(Compensated Tool Path. Diameter: 2.0)
G0 Z5.000
G0 X-21.819 Y-20.610
G0 Z3.000
G1 X-21.819 Y-20.610 Z-0.500 F30.000
G3 X-25.763 Y-19.357 Z-0.500 I-3.181 J-3.181 K0.000 F30.000
G3 X-29.432 Y-24.563 Z-0.500 I0.763 J-4.433 K0.000 F30.000
G3 X-24.219 Y-28.221 Z-0.500 I4.432 J0.772 K0.000 F30.000
G3 X-21.819 Y-20.610 Z-0.500 I-0.781 J4.430 K0.000 F30.000
G1 X-21.819 Y-20.610 Z-1.000 F30.000
G3 X-25.763 Y-19.357 Z-1.000 I-3.181 J-3.181 K0.000 F30.000
G3 X-29.432 Y-24.563 Z-1.000 I0.763 J-4.433 K0.000 F30.000
G3 X-24.219 Y-28.221 Z-1.000 I4.432 J0.772 K0.000 F30.000
G3 X-21.819 Y-20.610 Z-1.000 I-0.781 J4.430 K0.000 F30.000
G1 X-21.819 Y-20.610 Z-1.500 F30.000
G3 X-25.763 Y-19.357 Z-1.500 I-3.181 J-3.181 K0.000 F30.000
G3 X-29.432 Y-24.563 Z-1.500 I0.763 J-4.433 K0.000 F30.000
G3 X-24.219 Y-28.221 Z-1.500 I4.432 J0.772 K0.000 F30.000
G3 X-21.819 Y-20.610 Z-1.500 I-0.781 J4.430 K0.000 F30.000
G1 X-21.819 Y-20.610 Z-2.000 F30.000
G3 X-25.763 Y-19.357 Z-2.000 I-3.181 J-3.181 K0.000 F30.000
G3 X-29.432 Y-24.563 Z-2.000 I0.763 J-4.433 K0.000 F30.000
G3 X-24.219 Y-28.221 Z-2.000 I4.432 J0.772 K0.000 F30.000
G3 X-21.819 Y-20.610 Z-2.000 I-0.781 J4.430 K0.000 F30.000
G1 X-21.819 Y-20.610 Z-2.500 F30.000
G3 X-25.763 Y-19.357 Z-2.500 I-3.181 J-3.181 K0.000 F30.000
G3 X-29.432 Y-24.563 Z-2.500 I0.763 J-4.433 K0.000 F30.000
G3 X-24.219 Y-28.221 Z-2.500 I4.432 J0.772 K0.000 F30.000
G3 X-21.819 Y-20.610 Z-2.500 I-0.781 J4.430 K0.000 F30.000
G1 X-21.819 Y-20.610 Z-3.000 F30.000
G3 X-25.763 Y-19.357 Z-3.000 I-3.181 J-3.181 K0.000 F30.000
G3 X-29.432 Y-24.563 Z-3.000 I0.763 J-4.433 K0.000 F30.000
G3 X-24.219 Y-28.221 Z-3.000 I4.432 J0.772 K0.000 F30.000
G3 X-21.819 Y-20.610 Z-3.000 I-0.781 J4.430 K0.000 F30.000
G1 X-21.819 Y-20.610 Z-3.500 F30.000
G3 X-25.763 Y-19.357 Z-3.500 I-3.181 J-3.181 K0.000 F30.000
G3 X-29.432 Y-24.563 Z-3.500 I0.763 J-4.433 K0.000 F30.000
G3 X-24.219 Y-28.221 Z-3.500 I4.432 J0.772 K0.000 F30.000
G3 X-21.819 Y-20.610 Z-3.500 I-0.781 J4.430 K0.000 F30.000
G1 X-21.819 Y-20.610 Z-4.000 F30.000
G3 X-25.763 Y-19.357 Z-4.000 I-3.181 J-3.181 K0.000 F30.000
G3 X-29.432 Y-24.563 Z-4.000 I0.763 J-4.433 K0.000 F30.000
G3 X-24.219 Y-28.221 Z-4.000 I4.432 J0.772 K0.000 F30.000
G3 X-21.819 Y-20.610 Z-4.000 I-0.781 J4.430 K0.000 F30.000
G1 X-21.819 Y-20.610 Z-4.500 F30.000
G3 X-25.763 Y-19.357 Z-4.500 I-3.181 J-3.181 K0.000 F30.000
G3 X-29.432 Y-24.563 Z-4.500 I0.763 J-4.433 K0.000 F30.000
G3 X-24.219 Y-28.221 Z-4.500 I4.432 J0.772 K0.000 F30.000
G3 X-21.819 Y-20.610 Z-4.500 I-0.781 J4.430 K0.000 F30.000
G1 X-21.819 Y-20.610 Z-5.000 F30.000
G3 X-25.763 Y-19.357 Z-5.000 I-3.181 J-3.181 K0.000 F30.000
G3 X-29.432 Y-24.563 Z-5.000 I0.763 J-4.433 K0.000 F30.000
G3 X-24.219 Y-28.221 Z-5.000 I4.432 J0.772 K0.000 F30.000
G3 X-21.819 Y-20.610 Z-5.000 I-0.781 J4.430 K0.000 F30.000
G0 Z5.000
G0 Z5.000
(Finish operation: Profile008)
(Begin operation: Profile009)
(Path: Profile009)
(Profile009)
(Compensated Tool Path. Diameter: 2.0)
G0 Z5.000
G0 X-15.222 Y-23.512
G0 Z3.000
G1 X-15.222 Y-23.512 Z-0.500 F30.000
G3 X-15.671 Y-23.436 Z-0.500 I-0.278 J-0.278 K0.000 F30.000
G3 X-15.855 Y-23.962 Z-0.500 I0.171 J-0.355 K0.000 F30.000
G3 X-15.329 Y-24.145 Z-0.500 I0.355 J0.171 K0.000 F30.000
G3 X-15.222 Y-23.512 Z-0.500 I-0.171 J0.355 K0.000 F30.000
G1 X-15.222 Y-23.512 Z-1.000 F30.000
G3 X-15.671 Y-23.436 Z-1.000 I-0.278 J-0.278 K0.000 F30.000
G3 X-15.855 Y-23.962 Z-1.000 I0.171 J-0.355 K0.000 F30.000
G3 X-15.329 Y-24.145 Z-1.000 I0.355 J0.171 K0.000 F30.000
G3 X-15.222 Y-23.512 Z-1.000 I-0.171 J0.355 K0.000 F30.000
G1 X-15.222 Y-23.512 Z-1.500 F30.000
G3 X-15.671 Y-23.436 Z-1.500 I-0.278 J-0.278 K0.000 F30.000
G3 X-15.855 Y-23.962 Z-1.500 I0.171 J-0.355 K0.000 F30.000
G3 X-15.329 Y-24.145 Z-1.500 I0.355 J0.171 K0.000 F30.000
G3 X-15.222 Y-23.512 Z-1.500 I-0.171 J0.355 K0.000 F30.000
G1 X-15.222 Y-23.512 Z-2.000 F30.000
G3 X-15.671 Y-23.436 Z-2.000 I-0.278 J-0.278 K0.000 F30.000
G3 X-15.855 Y-23.962 Z-2.000 I0.171 J-0.355 K0.000 F30.000
G3 X-15.329 Y-24.145 Z-2.000 I0.355 J0.171 K0.000 F30.000
G3 X-15.222 Y-23.512 Z-2.000 I-0.171 J0.355 K0.000 F30.000
G1 X-15.222 Y-23.512 Z-2.500 F30.000
G3 X-15.671 Y-23.436 Z-2.500 I-0.278 J-0.278 K0.000 F30.000
G3 X-15.855 Y-23.962 Z-2.500 I0.171 J-0.355 K0.000 F30.000
G3 X-15.329 Y-24.145 Z-2.500 I0.355 J0.171 K0.000 F30.000
G3 X-15.222 Y-23.512 Z-2.500 I-0.171 J0.355 K0.000 F30.000
G1 X-15.222 Y-23.512 Z-3.000 F30.000
G3 X-15.671 Y-23.436 Z-3.000 I-0.278 J-0.278 K0.000 F30.000
G3 X-15.855 Y-23.962 Z-3.000 I0.171 J-0.355 K0.000 F30.000
G3 X-15.329 Y-24.145 Z-3.000 I0.355 J0.171 K0.000 F30.000
G3 X-15.222 Y-23.512 Z-3.000 I-0.171 J0.355 K0.000 F30.000
G1 X-15.222 Y-23.512 Z-3.500 F30.000
G3 X-15.671 Y-23.436 Z-3.500 I-0.278 J-0.278 K0.000 F30.000
G3 X-15.855 Y-23.962 Z-3.500 I0.171 J-0.355 K0.000 F30.000
G3 X-15.329 Y-24.145 Z-3.500 I0.355 J0.171 K0.000 F30.000
G3 X-15.222 Y-23.512 Z-3.500 I-0.171 J0.355 K0.000 F30.000
G1 X-15.222 Y-23.512 Z-4.000 F30.000
G3 X-15.671 Y-23.436 Z-4.000 I-0.278 J-0.278 K0.000 F30.000
G3 X-15.855 Y-23.962 Z-4.000 I0.171 J-0.355 K0.000 F30.000
G3 X-15.329 Y-24.145 Z-4.000 I0.355 J0.171 K0.000 F30.000
G3 X-15.222 Y-23.512 Z-4.000 I-0.171 J0.355 K0.000 F30.000
G1 X-15.222 Y-23.512 Z-4.500 F30.000
G3 X-15.671 Y-23.436 Z-4.500 I-0.278 J-0.278 K0.000 F30.000
G3 X-15.855 Y-23.962 Z-4.500 I0.171 J-0.355 K0.000 F30.000
G3 X-15.329 Y-24.145 Z-4.500 I0.355 J0.171 K0.000 F30.000
G3 X-15.222 Y-23.512 Z-4.500 I-0.171 J0.355 K0.000 F30.000
G1 X-15.222 Y-23.512 Z-5.000 F30.000
G3 X-15.671 Y-23.436 Z-5.000 I-0.278 J-0.278 K0.000 F30.000
G3 X-15.855 Y-23.962 Z-5.000 I0.171 J-0.355 K0.000 F30.000
G3 X-15.329 Y-24.145 Z-5.000 I0.355 J0.171 K0.000 F30.000
G3 X-15.222 Y-23.512 Z-5.000 I-0.171 J0.355 K0.000 F30.000
G0 Z5.000
G0 Z5.000
(Finish operation: Profile009)
(Begin operation: Profile010)
(Path: Profile010)
(Profile010)
(Compensated Tool Path. Diameter: 2.0)
G0 Z5.000
G0 X-9.697 Y-28.253
G0 Z3.000
G1 X-9.697 Y-28.253 Z-0.500 F30.000
G3 X-10.146 Y-28.177 Z-0.500 I-0.278 J-0.278 K0.000 F30.000
G3 X-10.330 Y-28.702 Z-0.500 I0.171 J-0.355 K0.000 F30.000
G3 X-9.805 Y-28.886 Z-0.500 I0.355 J0.171 K0.000 F30.000
G3 X-9.697 Y-28.253 Z-0.500 I-0.171 J0.355 K0.000 F30.000
G1 X-9.697 Y-28.253 Z-1.000 F30.000
G3 X-10.146 Y-28.177 Z-1.000 I-0.278 J-0.278 K0.000 F30.000
G3 X-10.330 Y-28.702 Z-1.000 I0.171 J-0.355 K0.000 F30.000
G3 X-9.805 Y-28.886 Z-1.000 I0.355 J0.171 K0.000 F30.000
G3 X-9.697 Y-28.253 Z-1.000 I-0.171 J0.355 K0.000 F30.000
G1 X-9.697 Y-28.253 Z-1.500 F30.000
G3 X-10.146 Y-28.177 Z-1.500 I-0.278 J-0.278 K0.000 F30.000
G3 X-10.330 Y-28.702 Z-1.500 I0.171 J-0.355 K0.000 F30.000
G3 X-9.805 Y-28.886 Z-1.500 I0.355 J0.171 K0.000 F30.000
G3 X-9.697 Y-28.253 Z-1.500 I-0.171 J0.355 K0.000 F30.000
G1 X-9.697 Y-28.253 Z-2.000 F30.000
G3 X-10.146 Y-28.177 Z-2.000 I-0.278 J-0.278 K0.000 F30.000
G3 X-10.330 Y-28.702 Z-2.000 I0.171 J-0.355 K0.000 F30.000
G3 X-9.805 Y-28.886 Z-2.000 I0.355 J0.171 K0.000 F30.000
G3 X-9.697 Y-28.253 Z-2.000 I-0.171 J0.355 K0.000 F30.000
G1 X-9.697 Y-28.253 Z-2.500 F30.000
G3 X-10.146 Y-28.177 Z-2.500 I-0.278 J-0.278 K0.000 F30.000
G3 X-10.330 Y-28.702 Z-2.500 I0.171 J-0.355 K0.000 F30.000
G3 X-9.805 Y-28.886 Z-2.500 I0.355 J0.171 K0.000 F30.000
G3 X-9.697 Y-28.253 Z-2.500 I-0.171 J0.355 K0.000 F30.000
G1 X-9.697 Y-28.253 Z-3.000 F30.000
G3 X-10.146 Y-28.177 Z-3.000 I-0.278 J-0.278 K0.000 F30.000
G3 X-10.330 Y-28.702 Z-3.000 I0.171 J-0.355 K0.000 F30.000
G3 X-9.805 Y-28.886 Z-3.000 I0.355 J0.171 K0.000 F30.000
G3 X-9.697 Y-28.253 Z-3.000 I-0.171 J0.355 K0.000 F30.000
G1 X-9.697 Y-28.253 Z-3.500 F30.000
G3 X-10.146 Y-28.177 Z-3.500 I-0.278 J-0.278 K0.000 F30.000
G3 X-10.330 Y-28.702 Z-3.500 I0.171 J-0.355 K0.000 F30.000
G3 X-9.805 Y-28.886 Z-3.500 I0.355 J0.171 K0.000 F30.000
G3 X-9.697 Y-28.253 Z-3.500 I-0.171 J0.355 K0.000 F30.000
G1 X-9.697 Y-28.253 Z-4.000 F30.000
G3 X-10.146 Y-28.177 Z-4.000 I-0.278 J-0.278 K0.000 F30.000
G3 X-10.330 Y-28.702 Z-4.000 I0.171 J-0.355 K0.000 F30.000
G3 X-9.805 Y-28.886 Z-4.000 I0.355 J0.171 K0.000 F30.000
G3 X-9.697 Y-28.253 Z-4.000 I-0.171 J0.355 K0.000 F30.000
G1 X-9.697 Y-28.253 Z-4.500 F30.000
G3 X-10.146 Y-28.177 Z-4.500 I-0.278 J-0.278 K0.000 F30.000
G3 X-10.330 Y-28.702 Z-4.500 I0.171 J-0.355 K0.000 F30.000
G3 X-9.805 Y-28.886 Z-4.500 I0.355 J0.171 K0.000 F30.000
G3 X-9.697 Y-28.253 Z-4.500 I-0.171 J0.355 K0.000 F30.000
G1 X-9.697 Y-28.253 Z-5.000 F30.000
G3 X-10.146 Y-28.177 Z-5.000 I-0.278 J-0.278 K0.000 F30.000
G3 X-10.330 Y-28.702 Z-5.000 I0.171 J-0.355 K0.000 F30.000
G3 X-9.805 Y-28.886 Z-5.000 I0.355 J0.171 K0.000 F30.000
G3 X-9.697 Y-28.253 Z-5.000 I-0.171 J0.355 K0.000 F30.000
G0 Z5.000
G0 Z5.000
(Finish operation: Profile010)
(Begin operation: Profile011)
(Path: Profile011)
(Profile011)
(Compensated Tool Path. Diameter: 2.0)
G0 Z5.000
G0 X-35.500 Y-35.250
G0 Y-35.250
G0 Y-35.250 Z3.000
G1 X-35.500 Y-35.250 Z-0.500 F30.000
G1 X-39.000 Y-35.250 Z-0.500 F30.000
G1 X-39.000 Y-36.250 Z-0.500 F30.000
G1 X-35.500 Y-36.250 Z-0.500 F30.000
G1 X-35.500 Y-35.250 Z-0.500 F30.000
G1 X-35.500 Y-35.250 Z-1.000 F30.000
G1 X-39.000 Y-35.250 Z-1.000 F30.000
G1 X-39.000 Y-36.250 Z-1.000 F30.000
G1 X-35.500 Y-36.250 Z-1.000 F30.000
G1 X-35.500 Y-35.250 Z-1.000 F30.000
G1 X-35.500 Y-35.250 Z-1.500 F30.000
G1 X-39.000 Y-35.250 Z-1.500 F30.000
G1 X-39.000 Y-36.250 Z-1.500 F30.000
G1 X-35.500 Y-36.250 Z-1.500 F30.000
G1 X-35.500 Y-35.250 Z-1.500 F30.000
G1 X-35.500 Y-35.250 Z-2.000 F30.000
G1 X-39.000 Y-35.250 Z-2.000 F30.000
G1 X-39.000 Y-36.250 Z-2.000 F30.000
G1 X-35.500 Y-36.250 Z-2.000 F30.000
G1 X-35.500 Y-35.250 Z-2.000 F30.000
G1 X-35.500 Y-35.250 Z-2.500 F30.000
G1 X-39.000 Y-35.250 Z-2.500 F30.000
G1 X-39.000 Y-36.250 Z-2.500 F30.000
G1 X-35.500 Y-36.250 Z-2.500 F30.000
G1 X-35.500 Y-35.250 Z-2.500 F30.000
G1 X-35.500 Y-35.250 Z-3.000 F30.000
G1 X-39.000 Y-35.250 Z-3.000 F30.000
G1 X-39.000 Y-36.250 Z-3.000 F30.000
G1 X-35.500 Y-36.250 Z-3.000 F30.000
G1 X-35.500 Y-35.250 Z-3.000 F30.000
G1 X-35.500 Y-35.250 Z-3.500 F30.000
G1 X-39.000 Y-35.250 Z-3.500 F30.000
G1 X-39.000 Y-36.250 Z-3.500 F30.000
G1 X-35.500 Y-36.250 Z-3.500 F30.000
G1 X-35.500 Y-35.250 Z-3.500 F30.000
G1 X-35.500 Y-35.250 Z-4.000 F30.000
G1 X-39.000 Y-35.250 Z-4.000 F30.000
G1 X-39.000 Y-36.250 Z-4.000 F30.000
G1 X-35.500 Y-36.250 Z-4.000 F30.000
G1 X-35.500 Y-35.250 Z-4.000 F30.000
G1 X-35.500 Y-35.250 Z-4.500 F30.000
G1 X-39.000 Y-35.250 Z-4.500 F30.000
G1 X-39.000 Y-36.250 Z-4.500 F30.000
G1 X-35.500 Y-36.250 Z-4.500 F30.000
G1 X-35.500 Y-35.250 Z-4.500 F30.000
G1 X-35.500 Y-35.250 Z-5.000 F30.000
G1 X-39.000 Y-35.250 Z-5.000 F30.000
G1 X-39.000 Y-36.250 Z-5.000 F30.000
G1 X-35.500 Y-36.250 Z-5.000 F30.000
G1 X-35.500 Y-35.250 Z-5.000 F30.000
G0 Z5.000
G0 Z5.000
(Finish operation: Profile011)
(Begin operation: Profile012)
(Path: Profile012)
(Profile012)
(Compensated Tool Path. Diameter: 2.0)
G0 Z5.000
G0 X-28.246 Y-38.690
G0 Z3.000
G1 X-28.246 Y-38.690 Z-0.500 F30.000
G3 X-28.695 Y-38.614 Z-0.500 I-0.278 J-0.278 K0.000 F30.000
G3 X-28.879 Y-39.140 Z-0.500 I0.171 J-0.355 K0.000 F30.000
G3 X-28.354 Y-39.323 Z-0.500 I0.355 J0.171 K0.000 F30.000
G3 X-28.246 Y-38.690 Z-0.500 I-0.171 J0.355 K0.000 F30.000
G1 X-28.246 Y-38.690 Z-1.000 F30.000
G3 X-28.695 Y-38.614 Z-1.000 I-0.278 J-0.278 K0.000 F30.000
G3 X-28.879 Y-39.140 Z-1.000 I0.171 J-0.355 K0.000 F30.000
G3 X-28.354 Y-39.323 Z-1.000 I0.355 J0.171 K0.000 F30.000
G3 X-28.246 Y-38.690 Z-1.000 I-0.171 J0.355 K0.000 F30.000
G1 X-28.246 Y-38.690 Z-1.500 F30.000
G3 X-28.695 Y-38.614 Z-1.500 I-0.278 J-0.278 K0.000 F30.000
G3 X-28.879 Y-39.140 Z-1.500 I0.171 J-0.355 K0.000 F30.000
G3 X-28.354 Y-39.323 Z-1.500 I0.355 J0.171 K0.000 F30.000
G3 X-28.246 Y-38.690 Z-1.500 I-0.171 J0.355 K0.000 F30.000
G1 X-28.246 Y-38.690 Z-2.000 F30.000
G3 X-28.695 Y-38.614 Z-2.000 I-0.278 J-0.278 K0.000 F30.000
G3 X-28.879 Y-39.140 Z-2.000 I0.171 J-0.355 K0.000 F30.000
G3 X-28.354 Y-39.323 Z-2.000 I0.355 J0.171 K0.000 F30.000
G3 X-28.246 Y-38.690 Z-2.000 I-0.171 J0.355 K0.000 F30.000
G1 X-28.246 Y-38.690 Z-2.500 F30.000
G3 X-28.695 Y-38.614 Z-2.500 I-0.278 J-0.278 K0.000 F30.000
G3 X-28.879 Y-39.140 Z-2.500 I0.171 J-0.355 K0.000 F30.000
G3 X-28.354 Y-39.323 Z-2.500 I0.355 J0.171 K0.000 F30.000
G3 X-28.246 Y-38.690 Z-2.500 I-0.171 J0.355 K0.000 F30.000
G1 X-28.246 Y-38.690 Z-3.000 F30.000
G3 X-28.695 Y-38.614 Z-3.000 I-0.278 J-0.278 K0.000 F30.000
G3 X-28.879 Y-39.140 Z-3.000 I0.171 J-0.355 K0.000 F30.000
G3 X-28.354 Y-39.323 Z-3.000 I0.355 J0.171 K0.000 F30.000
G3 X-28.246 Y-38.690 Z-3.000 I-0.171 J0.355 K0.000 F30.000
G1 X-28.246 Y-38.690 Z-3.500 F30.000
G3 X-28.695 Y-38.614 Z-3.500 I-0.278 J-0.278 K0.000 F30.000
G3 X-28.879 Y-39.140 Z-3.500 I0.171 J-0.355 K0.000 F30.000
G3 X-28.354 Y-39.323 Z-3.500 I0.355 J0.171 K0.000 F30.000
G3 X-28.246 Y-38.690 Z-3.500 I-0.171 J0.355 K0.000 F30.000
G1 X-28.246 Y-38.690 Z-4.000 F30.000
G3 X-28.695 Y-38.614 Z-4.000 I-0.278 J-0.278 K0.000 F30.000
G3 X-28.879 Y-39.140 Z-4.000 I0.171 J-0.355 K0.000 F30.000
G3 X-28.354 Y-39.323 Z-4.000 I0.355 J0.171 K0.000 F30.000
G3 X-28.246 Y-38.690 Z-4.000 I-0.171 J0.355 K0.000 F30.000
G1 X-28.246 Y-38.690 Z-4.500 F30.000
G3 X-28.695 Y-38.614 Z-4.500 I-0.278 J-0.278 K0.000 F30.000
G3 X-28.879 Y-39.140 Z-4.500 I0.171 J-0.355 K0.000 F30.000
G3 X-28.354 Y-39.323 Z-4.500 I0.355 J0.171 K0.000 F30.000
G3 X-28.246 Y-38.690 Z-4.500 I-0.171 J0.355 K0.000 F30.000
G1 X-28.246 Y-38.690 Z-5.000 F30.000
G3 X-28.695 Y-38.614 Z-5.000 I-0.278 J-0.278 K0.000 F30.000
G3 X-28.879 Y-39.140 Z-5.000 I0.171 J-0.355 K0.000 F30.000
G3 X-28.354 Y-39.323 Z-5.000 I0.355 J0.171 K0.000 F30.000
G3 X-28.246 Y-38.690 Z-5.000 I-0.171 J0.355 K0.000 F30.000
G0 Z5.000
G0 Z5.000
(Finish operation: Profile012)
(Begin operation: Profile014)
(Path: Profile014)
(Profile014)
(Compensated Tool Path. Diameter: 2.0)
G0 Z5.000
G0 X-5.500 Y-35.250
G0 Y-35.250
G0 Y-35.250 Z3.000
G1 X-5.500 Y-35.250 Z-0.500 F30.000
G1 X-9.000 Y-35.250 Z-0.500 F30.000
G1 X-9.000 Y-36.250 Z-0.500 F30.000
G1 X-5.500 Y-36.250 Z-0.500 F30.000
G1 X-5.500 Y-35.250 Z-0.500 F30.000
G1 X-5.500 Y-35.250 Z-1.000 F30.000
G1 X-9.000 Y-35.250 Z-1.000 F30.000
G1 X-9.000 Y-36.250 Z-1.000 F30.000
G1 X-5.500 Y-36.250 Z-1.000 F30.000
G1 X-5.500 Y-35.250 Z-1.000 F30.000
G1 X-5.500 Y-35.250 Z-1.500 F30.000
G1 X-9.000 Y-35.250 Z-1.500 F30.000
G1 X-9.000 Y-36.250 Z-1.500 F30.000
G1 X-5.500 Y-36.250 Z-1.500 F30.000
G1 X-5.500 Y-35.250 Z-1.500 F30.000
G1 X-5.500 Y-35.250 Z-2.000 F30.000
G1 X-9.000 Y-35.250 Z-2.000 F30.000
G1 X-9.000 Y-36.250 Z-2.000 F30.000
G1 X-5.500 Y-36.250 Z-2.000 F30.000
G1 X-5.500 Y-35.250 Z-2.000 F30.000
G1 X-5.500 Y-35.250 Z-2.500 F30.000
G1 X-9.000 Y-35.250 Z-2.500 F30.000
G1 X-9.000 Y-36.250 Z-2.500 F30.000
G1 X-5.500 Y-36.250 Z-2.500 F30.000
G1 X-5.500 Y-35.250 Z-2.500 F30.000
G1 X-5.500 Y-35.250 Z-3.000 F30.000
G1 X-9.000 Y-35.250 Z-3.000 F30.000
G1 X-9.000 Y-36.250 Z-3.000 F30.000
G1 X-5.500 Y-36.250 Z-3.000 F30.000
G1 X-5.500 Y-35.250 Z-3.000 F30.000
G1 X-5.500 Y-35.250 Z-3.500 F30.000
G1 X-9.000 Y-35.250 Z-3.500 F30.000
G1 X-9.000 Y-36.250 Z-3.500 F30.000
G1 X-5.500 Y-36.250 Z-3.500 F30.000
G1 X-5.500 Y-35.250 Z-3.500 F30.000
G1 X-5.500 Y-35.250 Z-4.000 F30.000
G1 X-9.000 Y-35.250 Z-4.000 F30.000
G1 X-9.000 Y-36.250 Z-4.000 F30.000
G1 X-5.500 Y-36.250 Z-4.000 F30.000
G1 X-5.500 Y-35.250 Z-4.000 F30.000
G1 X-5.500 Y-35.250 Z-4.500 F30.000
G1 X-9.000 Y-35.250 Z-4.500 F30.000
G1 X-9.000 Y-36.250 Z-4.500 F30.000
G1 X-5.500 Y-36.250 Z-4.500 F30.000
G1 X-5.500 Y-35.250 Z-4.500 F30.000
G1 X-5.500 Y-35.250 Z-5.000 F30.000
G1 X-9.000 Y-35.250 Z-5.000 F30.000
G1 X-9.000 Y-36.250 Z-5.000 F30.000
G1 X-5.500 Y-36.250 Z-5.000 F30.000
G1 X-5.500 Y-35.250 Z-5.000 F30.000
G0 Z5.000
G0 Z5.000
(Finish operation: Profile014)
(Begin operation: Profile015)
(Path: Profile015)
(Profile015)
(Compensated Tool Path. Diameter: 2.0)
G0 Z5.000
G0 X9.000 Y-11.250
G0 Z3.000
G1 X9.000 Y-11.250 Z-0.500 F30.000
G1 X5.500 Y-11.250 Z-0.500 F30.000
G1 X5.500 Y-12.250 Z-0.500 F30.000
G1 X9.000 Y-12.250 Z-0.500 F30.000
G1 X9.000 Y-11.250 Z-0.500 F30.000
G1 X9.000 Y-11.250 Z-1.000 F30.000
G1 X5.500 Y-11.250 Z-1.000 F30.000
G1 X5.500 Y-12.250 Z-1.000 F30.000
G1 X9.000 Y-12.250 Z-1.000 F30.000
G1 X9.000 Y-11.250 Z-1.000 F30.000
G1 X9.000 Y-11.250 Z-1.500 F30.000
G1 X5.500 Y-11.250 Z-1.500 F30.000
G1 X5.500 Y-12.250 Z-1.500 F30.000
G1 X9.000 Y-12.250 Z-1.500 F30.000
G1 X9.000 Y-11.250 Z-1.500 F30.000
G1 X9.000 Y-11.250 Z-2.000 F30.000
G1 X5.500 Y-11.250 Z-2.000 F30.000
G1 X5.500 Y-12.250 Z-2.000 F30.000
G1 X9.000 Y-12.250 Z-2.000 F30.000
G1 X9.000 Y-11.250 Z-2.000 F30.000
G1 X9.000 Y-11.250 Z-2.500 F30.000
G1 X5.500 Y-11.250 Z-2.500 F30.000
G1 X5.500 Y-12.250 Z-2.500 F30.000
G1 X9.000 Y-12.250 Z-2.500 F30.000
G1 X9.000 Y-11.250 Z-2.500 F30.000
G1 X9.000 Y-11.250 Z-3.000 F30.000
G1 X5.500 Y-11.250 Z-3.000 F30.000
G1 X5.500 Y-12.250 Z-3.000 F30.000
G1 X9.000 Y-12.250 Z-3.000 F30.000
G1 X9.000 Y-11.250 Z-3.000 F30.000
G1 X9.000 Y-11.250 Z-3.500 F30.000
G1 X5.500 Y-11.250 Z-3.500 F30.000
G1 X5.500 Y-12.250 Z-3.500 F30.000
G1 X9.000 Y-12.250 Z-3.500 F30.000
G1 X9.000 Y-11.250 Z-3.500 F30.000
G1 X9.000 Y-11.250 Z-4.000 F30.000
G1 X5.500 Y-11.250 Z-4.000 F30.000
G1 X5.500 Y-12.250 Z-4.000 F30.000
G1 X9.000 Y-12.250 Z-4.000 F30.000
G1 X9.000 Y-11.250 Z-4.000 F30.000
G1 X9.000 Y-11.250 Z-4.500 F30.000
G1 X5.500 Y-11.250 Z-4.500 F30.000
G1 X5.500 Y-12.250 Z-4.500 F30.000
G1 X9.000 Y-12.250 Z-4.500 F30.000
G1 X9.000 Y-11.250 Z-4.500 F30.000
G1 X9.000 Y-11.250 Z-5.000 F30.000
G1 X5.500 Y-11.250 Z-5.000 F30.000
G1 X5.500 Y-12.250 Z-5.000 F30.000
G1 X9.000 Y-12.250 Z-5.000 F30.000
G1 X9.000 Y-11.250 Z-5.000 F30.000
G0 Z5.000
G0 Z5.000
(Finish operation: Profile015)
(Begin operation: Profile016)
(Path: Profile016)
(Profile016)
(Compensated Tool Path. Diameter: 2.0)
G0 Z5.000
G0 X15.528 Y-6.972
G0 Z3.000
G1 X15.528 Y-6.972 Z-0.500 F30.000
G3 X15.079 Y-6.895 Z-0.500 I-0.278 J-0.278 K0.000 F30.000
G3 X15.421 Y-7.605 Z-0.500 I0.171 J-0.355 K0.000 F30.000
G3 X15.528 Y-6.972 Z-0.500 I-0.171 J0.355 K0.000 F30.000
G1 X15.528 Y-6.972 Z-1.000 F30.000
G3 X15.079 Y-6.895 Z-1.000 I-0.278 J-0.278 K0.000 F30.000
G3 X15.421 Y-7.605 Z-1.000 I0.171 J-0.355 K0.000 F30.000
G3 X15.528 Y-6.972 Z-1.000 I-0.171 J0.355 K0.000 F30.000
G1 X15.528 Y-6.972 Z-1.500 F30.000
G3 X15.079 Y-6.895 Z-1.500 I-0.278 J-0.278 K0.000 F30.000
G3 X15.421 Y-7.605 Z-1.500 I0.171 J-0.355 K0.000 F30.000
G3 X15.528 Y-6.972 Z-1.500 I-0.171 J0.355 K0.000 F30.000
G1 X15.528 Y-6.972 Z-2.000 F30.000
G3 X15.079 Y-6.895 Z-2.000 I-0.278 J-0.278 K0.000 F30.000
G3 X15.421 Y-7.605 Z-2.000 I0.171 J-0.355 K0.000 F30.000
G3 X15.528 Y-6.972 Z-2.000 I-0.171 J0.355 K0.000 F30.000
G1 X15.528 Y-6.972 Z-2.500 F30.000
G3 X15.079 Y-6.895 Z-2.500 I-0.278 J-0.278 K0.000 F30.000
G3 X15.421 Y-7.605 Z-2.500 I0.171 J-0.355 K0.000 F30.000
G3 X15.528 Y-6.972 Z-2.500 I-0.171 J0.355 K0.000 F30.000
G1 X15.528 Y-6.972 Z-3.000 F30.000
G3 X15.079 Y-6.895 Z-3.000 I-0.278 J-0.278 K0.000 F30.000
G3 X15.421 Y-7.605 Z-3.000 I0.171 J-0.355 K0.000 F30.000
G3 X15.528 Y-6.972 Z-3.000 I-0.171 J0.355 K0.000 F30.000
G1 X15.528 Y-6.972 Z-3.500 F30.000
G3 X15.079 Y-6.895 Z-3.500 I-0.278 J-0.278 K0.000 F30.000
G3 X15.421 Y-7.605 Z-3.500 I0.171 J-0.355 K0.000 F30.000
G3 X15.528 Y-6.972 Z-3.500 I-0.171 J0.355 K0.000 F30.000
G1 X15.528 Y-6.972 Z-4.000 F30.000
G3 X15.079 Y-6.895 Z-4.000 I-0.278 J-0.278 K0.000 F30.000
G3 X15.421 Y-7.605 Z-4.000 I0.171 J-0.355 K0.000 F30.000
G3 X15.528 Y-6.972 Z-4.000 I-0.171 J0.355 K0.000 F30.000
G1 X15.528 Y-6.972 Z-4.500 F30.000
G3 X15.079 Y-6.895 Z-4.500 I-0.278 J-0.278 K0.000 F30.000
G3 X15.421 Y-7.605 Z-4.500 I0.171 J-0.355 K0.000 F30.000
G3 X15.528 Y-6.972 Z-4.500 I-0.171 J0.355 K0.000 F30.000
G1 X15.528 Y-6.972 Z-5.000 F30.000
G3 X15.079 Y-6.895 Z-5.000 I-0.278 J-0.278 K0.000 F30.000
G3 X15.421 Y-7.605 Z-5.000 I0.171 J-0.355 K0.000 F30.000
G3 X15.528 Y-6.972 Z-5.000 I-0.171 J0.355 K0.000 F30.000
G0 Z5.000
G0 Z5.000
(Finish operation: Profile016)
(Begin operation: Profile017)
(Path: Profile017)
(Profile017)
(Compensated Tool Path. Diameter: 2.0)
G0 Z5.000
G0 X29.528 Y-6.972
G0 Z3.000
G1 X29.528 Y-6.972 Z-0.500 F30.000
G3 X29.079 Y-6.895 Z-0.500 I-0.278 J-0.278 K0.000 F30.000
G3 X29.421 Y-7.605 Z-0.500 I0.171 J-0.355 K0.000 F30.000
G3 X29.528 Y-6.972 Z-0.500 I-0.171 J0.355 K0.000 F30.000
G1 X29.528 Y-6.972 Z-1.000 F30.000
G3 X29.079 Y-6.895 Z-1.000 I-0.278 J-0.278 K0.000 F30.000
G3 X29.421 Y-7.605 Z-1.000 I0.171 J-0.355 K0.000 F30.000
G3 X29.528 Y-6.972 Z-1.000 I-0.171 J0.355 K0.000 F30.000
G1 X29.528 Y-6.972 Z-1.500 F30.000
G3 X29.079 Y-6.895 Z-1.500 I-0.278 J-0.278 K0.000 F30.000
G3 X29.421 Y-7.605 Z-1.500 I0.171 J-0.355 K0.000 F30.000
G3 X29.528 Y-6.972 Z-1.500 I-0.171 J0.355 K0.000 F30.000
G1 X29.528 Y-6.972 Z-2.000 F30.000
G3 X29.079 Y-6.895 Z-2.000 I-0.278 J-0.278 K0.000 F30.000
G3 X29.421 Y-7.605 Z-2.000 I0.171 J-0.355 K0.000 F30.000
G3 X29.528 Y-6.972 Z-2.000 I-0.171 J0.355 K0.000 F30.000
G1 X29.528 Y-6.972 Z-2.500 F30.000
G3 X29.079 Y-6.895 Z-2.500 I-0.278 J-0.278 K0.000 F30.000
G3 X29.421 Y-7.605 Z-2.500 I0.171 J-0.355 K0.000 F30.000
G3 X29.528 Y-6.972 Z-2.500 I-0.171 J0.355 K0.000 F30.000
G1 X29.528 Y-6.972 Z-3.000 F30.000
G3 X29.079 Y-6.895 Z-3.000 I-0.278 J-0.278 K0.000 F30.000
G3 X29.421 Y-7.605 Z-3.000 I0.171 J-0.355 K0.000 F30.000
G3 X29.528 Y-6.972 Z-3.000 I-0.171 J0.355 K0.000 F30.000
G1 X29.528 Y-6.972 Z-3.500 F30.000
G3 X29.079 Y-6.895 Z-3.500 I-0.278 J-0.278 K0.000 F30.000
G3 X29.421 Y-7.605 Z-3.500 I0.171 J-0.355 K0.000 F30.000
G3 X29.528 Y-6.972 Z-3.500 I-0.171 J0.355 K0.000 F30.000
G1 X29.528 Y-6.972 Z-4.000 F30.000
G3 X29.079 Y-6.895 Z-4.000 I-0.278 J-0.278 K0.000 F30.000
G3 X29.421 Y-7.605 Z-4.000 I0.171 J-0.355 K0.000 F30.000
G3 X29.528 Y-6.972 Z-4.000 I-0.171 J0.355 K0.000 F30.000
G1 X29.528 Y-6.972 Z-4.500 F30.000
G3 X29.079 Y-6.895 Z-4.500 I-0.278 J-0.278 K0.000 F30.000
G3 X29.421 Y-7.605 Z-4.500 I0.171 J-0.355 K0.000 F30.000
G3 X29.528 Y-6.972 Z-4.500 I-0.171 J0.355 K0.000 F30.000
G1 X29.528 Y-6.972 Z-5.000 F30.000
G3 X29.079 Y-6.895 Z-5.000 I-0.278 J-0.278 K0.000 F30.000
G3 X29.421 Y-7.605 Z-5.000 I0.171 J-0.355 K0.000 F30.000
G3 X29.528 Y-6.972 Z-5.000 I-0.171 J0.355 K0.000 F30.000
G0 Z5.000
G0 Z5.000
(Finish operation: Profile017)
(Begin operation: Profile018)
(Path: Profile018)
(Profile018)
(Compensated Tool Path. Diameter: 2.0)
G0 Z5.000
G0 X39.000 Y-11.250
G0 Z3.000
G1 X39.000 Y-11.250 Z-0.500 F30.000
G1 X35.500 Y-11.250 Z-0.500 F30.000
G1 X35.500 Y-12.250 Z-0.500 F30.000
G1 X39.000 Y-12.250 Z-0.500 F30.000
G1 X39.000 Y-11.250 Z-0.500 F30.000
G1 X39.000 Y-11.250 Z-1.000 F30.000
G1 X35.500 Y-11.250 Z-1.000 F30.000
G1 X35.500 Y-12.250 Z-1.000 F30.000
G1 X39.000 Y-12.250 Z-1.000 F30.000
G1 X39.000 Y-11.250 Z-1.000 F30.000
G1 X39.000 Y-11.250 Z-1.500 F30.000
G1 X35.500 Y-11.250 Z-1.500 F30.000
G1 X35.500 Y-12.250 Z-1.500 F30.000
G1 X39.000 Y-12.250 Z-1.500 F30.000
G1 X39.000 Y-11.250 Z-1.500 F30.000
G1 X39.000 Y-11.250 Z-2.000 F30.000
G1 X35.500 Y-11.250 Z-2.000 F30.000
G1 X35.500 Y-12.250 Z-2.000 F30.000
G1 X39.000 Y-12.250 Z-2.000 F30.000
G1 X39.000 Y-11.250 Z-2.000 F30.000
G1 X39.000 Y-11.250 Z-2.500 F30.000
G1 X35.500 Y-11.250 Z-2.500 F30.000
G1 X35.500 Y-12.250 Z-2.500 F30.000
G1 X39.000 Y-12.250 Z-2.500 F30.000
G1 X39.000 Y-11.250 Z-2.500 F30.000
G1 X39.000 Y-11.250 Z-3.000 F30.000
G1 X35.500 Y-11.250 Z-3.000 F30.000
G1 X35.500 Y-12.250 Z-3.000 F30.000
G1 X39.000 Y-12.250 Z-3.000 F30.000
G1 X39.000 Y-11.250 Z-3.000 F30.000
G1 X39.000 Y-11.250 Z-3.500 F30.000
G1 X35.500 Y-11.250 Z-3.500 F30.000
G1 X35.500 Y-12.250 Z-3.500 F30.000
G1 X39.000 Y-12.250 Z-3.500 F30.000
G1 X39.000 Y-11.250 Z-3.500 F30.000
G1 X39.000 Y-11.250 Z-4.000 F30.000
G1 X35.500 Y-11.250 Z-4.000 F30.000
G1 X35.500 Y-12.250 Z-4.000 F30.000
G1 X39.000 Y-12.250 Z-4.000 F30.000
G1 X39.000 Y-11.250 Z-4.000 F30.000
G1 X39.000 Y-11.250 Z-4.500 F30.000
G1 X35.500 Y-11.250 Z-4.500 F30.000
G1 X35.500 Y-12.250 Z-4.500 F30.000
G1 X39.000 Y-12.250 Z-4.500 F30.000
G1 X39.000 Y-11.250 Z-4.500 F30.000
G1 X39.000 Y-11.250 Z-5.000 F30.000
G1 X35.500 Y-11.250 Z-5.000 F30.000
G1 X35.500 Y-12.250 Z-5.000 F30.000
G1 X39.000 Y-12.250 Z-5.000 F30.000
G1 X39.000 Y-11.250 Z-5.000 F30.000
G0 Z5.000
G0 Z5.000
(Finish operation: Profile018)
(Begin operation: Profile019)
(Path: Profile019)
(Profile019)
(Compensated Tool Path. Diameter: 2.0)
G0 Z5.000
G0 X10.254 Y-28.253
G0 Z3.000
G1 X10.254 Y-28.253 Z-0.500 F30.000
G3 X9.805 Y-28.177 Z-0.500 I-0.278 J-0.278 K0.000 F30.000
G3 X10.146 Y-28.886 Z-0.500 I0.171 J-0.355 K0.000 F30.000
G3 X10.254 Y-28.253 Z-0.500 I-0.171 J0.355 K0.000 F30.000
G1 X10.254 Y-28.253 Z-1.000 F30.000
G3 X9.805 Y-28.177 Z-1.000 I-0.278 J-0.278 K0.000 F30.000
G3 X10.146 Y-28.886 Z-1.000 I0.171 J-0.355 K0.000 F30.000
G3 X10.254 Y-28.253 Z-1.000 I-0.171 J0.355 K0.000 F30.000
G1 X10.254 Y-28.253 Z-1.500 F30.000
G3 X9.805 Y-28.177 Z-1.500 I-0.278 J-0.278 K0.000 F30.000
G3 X10.146 Y-28.886 Z-1.500 I0.171 J-0.355 K0.000 F30.000
G3 X10.254 Y-28.253 Z-1.500 I-0.171 J0.355 K0.000 F30.000
G1 X10.254 Y-28.253 Z-2.000 F30.000
G3 X9.805 Y-28.177 Z-2.000 I-0.278 J-0.278 K0.000 F30.000
G3 X10.146 Y-28.886 Z-2.000 I0.171 J-0.355 K0.000 F30.000
G3 X10.254 Y-28.253 Z-2.000 I-0.171 J0.355 K0.000 F30.000
G1 X10.254 Y-28.253 Z-2.500 F30.000
G3 X9.805 Y-28.177 Z-2.500 I-0.278 J-0.278 K0.000 F30.000
G3 X10.146 Y-28.886 Z-2.500 I0.171 J-0.355 K0.000 F30.000
G3 X10.254 Y-28.253 Z-2.500 I-0.171 J0.355 K0.000 F30.000
G1 X10.254 Y-28.253 Z-3.000 F30.000
G3 X9.805 Y-28.177 Z-3.000 I-0.278 J-0.278 K0.000 F30.000
G3 X10.146 Y-28.886 Z-3.000 I0.171 J-0.355 K0.000 F30.000
G3 X10.254 Y-28.253 Z-3.000 I-0.171 J0.355 K0.000 F30.000
G1 X10.254 Y-28.253 Z-3.500 F30.000
G3 X9.805 Y-28.177 Z-3.500 I-0.278 J-0.278 K0.000 F30.000
G3 X10.146 Y-28.886 Z-3.500 I0.171 J-0.355 K0.000 F30.000
G3 X10.254 Y-28.253 Z-3.500 I-0.171 J0.355 K0.000 F30.000
G1 X10.254 Y-28.253 Z-4.000 F30.000
G3 X9.805 Y-28.177 Z-4.000 I-0.278 J-0.278 K0.000 F30.000
G3 X10.146 Y-28.886 Z-4.000 I0.171 J-0.355 K0.000 F30.000
G3 X10.254 Y-28.253 Z-4.000 I-0.171 J0.355 K0.000 F30.000
G1 X10.254 Y-28.253 Z-4.500 F30.000
G3 X9.805 Y-28.177 Z-4.500 I-0.278 J-0.278 K0.000 F30.000
G3 X10.146 Y-28.886 Z-4.500 I0.171 J-0.355 K0.000 F30.000
G3 X10.254 Y-28.253 Z-4.500 I-0.171 J0.355 K0.000 F30.000
G1 X10.254 Y-28.253 Z-5.000 F30.000
G3 X9.805 Y-28.177 Z-5.000 I-0.278 J-0.278 K0.000 F30.000
G3 X10.146 Y-28.886 Z-5.000 I0.171 J-0.355 K0.000 F30.000
G3 X10.254 Y-28.253 Z-5.000 I-0.171 J0.355 K0.000 F30.000
G0 Z5.000
G0 Z5.000
(Finish operation: Profile019)
(Begin operation: Profile020)
(Path: Profile020)
(Profile020)
(Compensated Tool Path. Diameter: 2.0)
G0 Z5.000
G0 X15.778 Y-23.512
G0 Z3.000
G1 X15.778 Y-23.512 Z-0.500 F30.000
G3 X15.329 Y-23.436 Z-0.500 I-0.278 J-0.278 K0.000 F30.000
G3 X15.671 Y-24.145 Z-0.500 I0.171 J-0.355 K0.000 F30.000
G3 X15.778 Y-23.512 Z-0.500 I-0.171 J0.355 K0.000 F30.000
G1 X15.778 Y-23.512 Z-1.000 F30.000
G3 X15.329 Y-23.436 Z-1.000 I-0.278 J-0.278 K0.000 F30.000
G3 X15.671 Y-24.145 Z-1.000 I0.171 J-0.355 K0.000 F30.000
G3 X15.778 Y-23.512 Z-1.000 I-0.171 J0.355 K0.000 F30.000
G1 X15.778 Y-23.512 Z-1.500 F30.000
G3 X15.329 Y-23.436 Z-1.500 I-0.278 J-0.278 K0.000 F30.000
G3 X15.671 Y-24.145 Z-1.500 I0.171 J-0.355 K0.000 F30.000
G3 X15.778 Y-23.512 Z-1.500 I-0.171 J0.355 K0.000 F30.000
G1 X15.778 Y-23.512 Z-2.000 F30.000
G3 X15.329 Y-23.436 Z-2.000 I-0.278 J-0.278 K0.000 F30.000
G3 X15.671 Y-24.145 Z-2.000 I0.171 J-0.355 K0.000 F30.000
G3 X15.778 Y-23.512 Z-2.000 I-0.171 J0.355 K0.000 F30.000
G1 X15.778 Y-23.512 Z-2.500 F30.000
G3 X15.329 Y-23.436 Z-2.500 I-0.278 J-0.278 K0.000 F30.000
G3 X15.671 Y-24.145 Z-2.500 I0.171 J-0.355 K0.000 F30.000
G3 X15.778 Y-23.512 Z-2.500 I-0.171 J0.355 K0.000 F30.000
G1 X15.778 Y-23.512 Z-3.000 F30.000
G3 X15.329 Y-23.436 Z-3.000 I-0.278 J-0.278 K0.000 F30.000
G3 X15.671 Y-24.145 Z-3.000 I0.171 J-0.355 K0.000 F30.000
G3 X15.778 Y-23.512 Z-3.000 I-0.171 J0.355 K0.000 F30.000
G1 X15.778 Y-23.512 Z-3.500 F30.000
G3 X15.329 Y-23.436 Z-3.500 I-0.278 J-0.278 K0.000 F30.000
G3 X15.671 Y-24.145 Z-3.500 I0.171 J-0.355 K0.000 F30.000
G3 X15.778 Y-23.512 Z-3.500 I-0.171 J0.355 K0.000 F30.000
G1 X15.778 Y-23.512 Z-4.000 F30.000
G3 X15.329 Y-23.436 Z-4.000 I-0.278 J-0.278 K0.000 F30.000
G3 X15.671 Y-24.145 Z-4.000 I0.171 J-0.355 K0.000 F30.000
G3 X15.778 Y-23.512 Z-4.000 I-0.171 J0.355 K0.000 F30.000
G1 X15.778 Y-23.512 Z-4.500 F30.000
G3 X15.329 Y-23.436 Z-4.500 I-0.278 J-0.278 K0.000 F30.000
G3 X15.671 Y-24.145 Z-4.500 I0.171 J-0.355 K0.000 F30.000
G3 X15.778 Y-23.512 Z-4.500 I-0.171 J0.355 K0.000 F30.000
G1 X15.778 Y-23.512 Z-5.000 F30.000
G3 X15.329 Y-23.436 Z-5.000 I-0.278 J-0.278 K0.000 F30.000
G3 X15.671 Y-24.145 Z-5.000 I0.171 J-0.355 K0.000 F30.000
G3 X15.778 Y-23.512 Z-5.000 I-0.171 J0.355 K0.000 F30.000
G0 Z5.000
G0 Z5.000
(Finish operation: Profile020)
(Begin operation: Profile021)
(Path: Profile021)
(Profile021)
(Compensated Tool Path. Diameter: 2.0)
G0 Z5.000
G0 X28.181 Y-20.610
G0 Z3.000
G1 X28.181 Y-20.610 Z-0.500 F30.000
G3 X23.710 Y-19.481 Z-0.500 I-3.181 J-3.181 K0.000 F30.000
G3 X26.254 Y-28.111 Z-0.500 I1.290 J-4.309 K0.000 F30.000
G3 X28.181 Y-20.610 Z-0.500 I-1.254 J4.320 K0.000 F30.000
G1 X28.181 Y-20.610 Z-1.000 F30.000
G3 X23.710 Y-19.481 Z-1.000 I-3.181 J-3.181 K0.000 F30.000
G3 X26.254 Y-28.111 Z-1.000 I1.290 J-4.309 K0.000 F30.000
G3 X28.181 Y-20.610 Z-1.000 I-1.254 J4.320 K0.000 F30.000
G1 X28.181 Y-20.610 Z-1.500 F30.000
G3 X23.710 Y-19.481 Z-1.500 I-3.181 J-3.181 K0.000 F30.000
G3 X26.254 Y-28.111 Z-1.500 I1.290 J-4.309 K0.000 F30.000
G3 X28.181 Y-20.610 Z-1.500 I-1.254 J4.320 K0.000 F30.000
G1 X28.181 Y-20.610 Z-2.000 F30.000
G3 X23.710 Y-19.481 Z-2.000 I-3.181 J-3.181 K0.000 F30.000
G3 X26.254 Y-28.111 Z-2.000 I1.290 J-4.309 K0.000 F30.000
G3 X28.181 Y-20.610 Z-2.000 I-1.254 J4.320 K0.000 F30.000
G1 X28.181 Y-20.610 Z-2.500 F30.000
G3 X23.710 Y-19.481 Z-2.500 I-3.181 J-3.181 K0.000 F30.000
G3 X26.254 Y-28.111 Z-2.500 I1.290 J-4.309 K0.000 F30.000
G3 X28.181 Y-20.610 Z-2.500 I-1.254 J4.320 K0.000 F30.000
G1 X28.181 Y-20.610 Z-3.000 F30.000
G3 X23.710 Y-19.481 Z-3.000 I-3.181 J-3.181 K0.000 F30.000
G3 X26.254 Y-28.111 Z-3.000 I1.290 J-4.309 K0.000 F30.000
G3 X28.181 Y-20.610 Z-3.000 I-1.254 J4.320 K0.000 F30.000
G1 X28.181 Y-20.610 Z-3.500 F30.000
G3 X23.710 Y-19.481 Z-3.500 I-3.181 J-3.181 K0.000 F30.000
G3 X26.254 Y-28.111 Z-3.500 I1.290 J-4.309 K0.000 F30.000
G3 X28.181 Y-20.610 Z-3.500 I-1.254 J4.320 K0.000 F30.000
G1 X28.181 Y-20.610 Z-4.000 F30.000
G3 X23.710 Y-19.481 Z-4.000 I-3.181 J-3.181 K0.000 F30.000
G3 X26.254 Y-28.111 Z-4.000 I1.290 J-4.309 K0.000 F30.000
G3 X28.181 Y-20.610 Z-4.000 I-1.254 J4.320 K0.000 F30.000
G1 X28.181 Y-20.610 Z-4.500 F30.000
G3 X23.710 Y-19.481 Z-4.500 I-3.181 J-3.181 K0.000 F30.000
G3 X26.254 Y-28.111 Z-4.500 I1.290 J-4.309 K0.000 F30.000
G3 X28.181 Y-20.610 Z-4.500 I-1.254 J4.320 K0.000 F30.000
G1 X28.181 Y-20.610 Z-5.000 F30.000
G3 X23.710 Y-19.481 Z-5.000 I-3.181 J-3.181 K0.000 F30.000
G3 X26.254 Y-28.111 Z-5.000 I1.290 J-4.309 K0.000 F30.000
G3 X28.181 Y-20.610 Z-5.000 I-1.254 J4.320 K0.000 F30.000
G0 Z5.000
G0 Z5.000
(Finish operation: Profile021)
(Begin operation: Profile022)
(Path: Profile022)
(Profile022)
(Compensated Tool Path. Diameter: 2.0)
G0 Z5.000
G0 X35.912 Y-22.379
G0 Z3.000
G1 X35.912 Y-22.379 Z-0.500 F30.000
G3 X33.883 Y-21.892 Z-0.500 I-1.412 J-1.412 K0.000 F30.000
G3 X32.601 Y-24.408 Z-0.500 I0.617 J-1.899 K0.000 F30.000
G3 X35.117 Y-25.690 Z-0.500 I1.899 J0.617 K0.000 F30.000
G3 X35.912 Y-22.379 Z-0.500 I-0.617 J1.899 K0.000 F30.000
G1 X35.912 Y-22.379 Z-1.000 F30.000
G3 X33.883 Y-21.892 Z-1.000 I-1.412 J-1.412 K0.000 F30.000
G3 X32.601 Y-24.408 Z-1.000 I0.617 J-1.899 K0.000 F30.000
G3 X35.117 Y-25.690 Z-1.000 I1.899 J0.617 K0.000 F30.000
G3 X35.912 Y-22.379 Z-1.000 I-0.617 J1.899 K0.000 F30.000
G1 X35.912 Y-22.379 Z-1.500 F30.000
G3 X33.883 Y-21.892 Z-1.500 I-1.412 J-1.412 K0.000 F30.000
G3 X32.601 Y-24.408 Z-1.500 I0.617 J-1.899 K0.000 F30.000
G3 X35.117 Y-25.690 Z-1.500 I1.899 J0.617 K0.000 F30.000
G3 X35.912 Y-22.379 Z-1.500 I-0.617 J1.899 K0.000 F30.000
G1 X35.912 Y-22.379 Z-2.000 F30.000
G3 X33.883 Y-21.892 Z-2.000 I-1.412 J-1.412 K0.000 F30.000
G3 X32.601 Y-24.408 Z-2.000 I0.617 J-1.899 K0.000 F30.000
G3 X35.117 Y-25.690 Z-2.000 I1.899 J0.617 K0.000 F30.000
G3 X35.912 Y-22.379 Z-2.000 I-0.617 J1.899 K0.000 F30.000
G1 X35.912 Y-22.379 Z-2.500 F30.000
G3 X33.883 Y-21.892 Z-2.500 I-1.412 J-1.412 K0.000 F30.000
G3 X32.601 Y-24.408 Z-2.500 I0.617 J-1.899 K0.000 F30.000
G3 X35.117 Y-25.690 Z-2.500 I1.899 J0.617 K0.000 F30.000
G3 X35.912 Y-22.379 Z-2.500 I-0.617 J1.899 K0.000 F30.000
G1 X35.912 Y-22.379 Z-3.000 F30.000
G3 X33.883 Y-21.892 Z-3.000 I-1.412 J-1.412 K0.000 F30.000
G3 X32.601 Y-24.408 Z-3.000 I0.617 J-1.899 K0.000 F30.000
G3 X35.117 Y-25.690 Z-3.000 I1.899 J0.617 K0.000 F30.000
G3 X35.912 Y-22.379 Z-3.000 I-0.617 J1.899 K0.000 F30.000
G1 X35.912 Y-22.379 Z-3.500 F30.000
G3 X33.883 Y-21.892 Z-3.500 I-1.412 J-1.412 K0.000 F30.000
G3 X32.601 Y-24.408 Z-3.500 I0.617 J-1.899 K0.000 F30.000
G3 X35.117 Y-25.690 Z-3.500 I1.899 J0.617 K0.000 F30.000
G3 X35.912 Y-22.379 Z-3.500 I-0.617 J1.899 K0.000 F30.000
G1 X35.912 Y-22.379 Z-4.000 F30.000
G3 X33.883 Y-21.892 Z-4.000 I-1.412 J-1.412 K0.000 F30.000
G3 X32.601 Y-24.408 Z-4.000 I0.617 J-1.899 K0.000 F30.000
G3 X35.117 Y-25.690 Z-4.000 I1.899 J0.617 K0.000 F30.000
G3 X35.912 Y-22.379 Z-4.000 I-0.617 J1.899 K0.000 F30.000
G1 X35.912 Y-22.379 Z-4.500 F30.000
G3 X33.883 Y-21.892 Z-4.500 I-1.412 J-1.412 K0.000 F30.000
G3 X32.601 Y-24.408 Z-4.500 I0.617 J-1.899 K0.000 F30.000
G3 X35.117 Y-25.690 Z-4.500 I1.899 J0.617 K0.000 F30.000
G3 X35.912 Y-22.379 Z-4.500 I-0.617 J1.899 K0.000 F30.000
G1 X35.912 Y-22.379 Z-5.000 F30.000
G3 X33.883 Y-21.892 Z-5.000 I-1.412 J-1.412 K0.000 F30.000
G3 X32.601 Y-24.408 Z-5.000 I0.617 J-1.899 K0.000 F30.000
G3 X35.117 Y-25.690 Z-5.000 I1.899 J0.617 K0.000 F30.000
G3 X35.912 Y-22.379 Z-5.000 I-0.617 J1.899 K0.000 F30.000
G0 Z5.000
G0 Z5.000
(Finish operation: Profile022)
(Begin operation: Profile023)
(Path: Profile023)
(Profile023)
(Compensated Tool Path. Diameter: 2.0)
G0 Z5.000
G0 X9.000 Y-35.250
G0 Z3.000
G1 X9.000 Y-35.250 Z-0.500 F30.000
G1 X5.500 Y-35.250 Z-0.500 F30.000
G1 X5.500 Y-36.250 Z-0.500 F30.000
G1 X9.000 Y-36.250 Z-0.500 F30.000
G1 X9.000 Y-35.250 Z-0.500 F30.000
G1 X9.000 Y-35.250 Z-1.000 F30.000
G1 X5.500 Y-35.250 Z-1.000 F30.000
G1 X5.500 Y-36.250 Z-1.000 F30.000
G1 X9.000 Y-36.250 Z-1.000 F30.000
G1 X9.000 Y-35.250 Z-1.000 F30.000
G1 X9.000 Y-35.250 Z-1.500 F30.000
G1 X5.500 Y-35.250 Z-1.500 F30.000
G1 X5.500 Y-36.250 Z-1.500 F30.000
G1 X9.000 Y-36.250 Z-1.500 F30.000
G1 X9.000 Y-35.250 Z-1.500 F30.000
G1 X9.000 Y-35.250 Z-2.000 F30.000
G1 X5.500 Y-35.250 Z-2.000 F30.000
G1 X5.500 Y-36.250 Z-2.000 F30.000
G1 X9.000 Y-36.250 Z-2.000 F30.000
G1 X9.000 Y-35.250 Z-2.000 F30.000
G1 X9.000 Y-35.250 Z-2.500 F30.000
G1 X5.500 Y-35.250 Z-2.500 F30.000
G1 X5.500 Y-36.250 Z-2.500 F30.000
G1 X9.000 Y-36.250 Z-2.500 F30.000
G1 X9.000 Y-35.250 Z-2.500 F30.000
G1 X9.000 Y-35.250 Z-3.000 F30.000
G1 X5.500 Y-35.250 Z-3.000 F30.000
G1 X5.500 Y-36.250 Z-3.000 F30.000
G1 X9.000 Y-36.250 Z-3.000 F30.000
G1 X9.000 Y-35.250 Z-3.000 F30.000
G1 X9.000 Y-35.250 Z-3.500 F30.000
G1 X5.500 Y-35.250 Z-3.500 F30.000
G1 X5.500 Y-36.250 Z-3.500 F30.000
G1 X9.000 Y-36.250 Z-3.500 F30.000
G1 X9.000 Y-35.250 Z-3.500 F30.000
G1 X9.000 Y-35.250 Z-4.000 F30.000
G1 X5.500 Y-35.250 Z-4.000 F30.000
G1 X5.500 Y-36.250 Z-4.000 F30.000
G1 X9.000 Y-36.250 Z-4.000 F30.000
G1 X9.000 Y-35.250 Z-4.000 F30.000
G1 X9.000 Y-35.250 Z-4.500 F30.000
G1 X5.500 Y-35.250 Z-4.500 F30.000
G1 X5.500 Y-36.250 Z-4.500 F30.000
G1 X9.000 Y-36.250 Z-4.500 F30.000
G1 X9.000 Y-35.250 Z-4.500 F30.000
G1 X9.000 Y-35.250 Z-5.000 F30.000
G1 X5.500 Y-35.250 Z-5.000 F30.000
G1 X5.500 Y-36.250 Z-5.000 F30.000
G1 X9.000 Y-36.250 Z-5.000 F30.000
G1 X9.000 Y-35.250 Z-5.000 F30.000
G0 Z5.000
G0 Z5.000
(Finish operation: Profile023)
(Begin operation: Profile025)
(Path: Profile025)
(Profile025)
(Compensated Tool Path. Diameter: 2.0)
G0 Z5.000
G0 X28.803 Y-38.690
G0 Z3.000
G1 X28.803 Y-38.690 Z-0.500 F30.000
G3 X28.354 Y-38.614 Z-0.500 I-0.278 J-0.278 K0.000 F30.000
G3 X28.695 Y-39.323 Z-0.500 I0.171 J-0.355 K0.000 F30.000
G3 X28.803 Y-38.690 Z-0.500 I-0.171 J0.355 K0.000 F30.000
G1 X28.803 Y-38.690 Z-1.000 F30.000
G3 X28.354 Y-38.614 Z-1.000 I-0.278 J-0.278 K0.000 F30.000
G3 X28.695 Y-39.323 Z-1.000 I0.171 J-0.355 K0.000 F30.000
G3 X28.803 Y-38.690 Z-1.000 I-0.171 J0.355 K0.000 F30.000
G1 X28.803 Y-38.690 Z-1.500 F30.000
G3 X28.354 Y-38.614 Z-1.500 I-0.278 J-0.278 K0.000 F30.000
G3 X28.695 Y-39.323 Z-1.500 I0.171 J-0.355 K0.000 F30.000
G3 X28.803 Y-38.690 Z-1.500 I-0.171 J0.355 K0.000 F30.000
G1 X28.803 Y-38.690 Z-2.000 F30.000
G3 X28.354 Y-38.614 Z-2.000 I-0.278 J-0.278 K0.000 F30.000
G3 X28.695 Y-39.323 Z-2.000 I0.171 J-0.355 K0.000 F30.000
G3 X28.803 Y-38.690 Z-2.000 I-0.171 J0.355 K0.000 F30.000
G1 X28.803 Y-38.690 Z-2.500 F30.000
G3 X28.354 Y-38.614 Z-2.500 I-0.278 J-0.278 K0.000 F30.000
G3 X28.695 Y-39.323 Z-2.500 I0.171 J-0.355 K0.000 F30.000
G3 X28.803 Y-38.690 Z-2.500 I-0.171 J0.355 K0.000 F30.000
G1 X28.803 Y-38.690 Z-3.000 F30.000
G3 X28.354 Y-38.614 Z-3.000 I-0.278 J-0.278 K0.000 F30.000
G3 X28.695 Y-39.323 Z-3.000 I0.171 J-0.355 K0.000 F30.000
G3 X28.803 Y-38.690 Z-3.000 I-0.171 J0.355 K0.000 F30.000
G1 X28.803 Y-38.690 Z-3.500 F30.000
G3 X28.354 Y-38.614 Z-3.500 I-0.278 J-0.278 K0.000 F30.000
G3 X28.695 Y-39.323 Z-3.500 I0.171 J-0.355 K0.000 F30.000
G3 X28.803 Y-38.690 Z-3.500 I-0.171 J0.355 K0.000 F30.000
G1 X28.803 Y-38.690 Z-4.000 F30.000
G3 X28.354 Y-38.614 Z-4.000 I-0.278 J-0.278 K0.000 F30.000
G3 X28.695 Y-39.323 Z-4.000 I0.171 J-0.355 K0.000 F30.000
G3 X28.803 Y-38.690 Z-4.000 I-0.171 J0.355 K0.000 F30.000
G1 X28.803 Y-38.690 Z-4.500 F30.000
G3 X28.354 Y-38.614 Z-4.500 I-0.278 J-0.278 K0.000 F30.000
G3 X28.695 Y-39.323 Z-4.500 I0.171 J-0.355 K0.000 F30.000
G3 X28.803 Y-38.690 Z-4.500 I-0.171 J0.355 K0.000 F30.000
G1 X28.803 Y-38.690 Z-5.000 F30.000
G3 X28.354 Y-38.614 Z-5.000 I-0.278 J-0.278 K0.000 F30.000
G3 X28.695 Y-39.323 Z-5.000 I0.171 J-0.355 K0.000 F30.000
G3 X28.803 Y-38.690 Z-5.000 I-0.171 J0.355 K0.000 F30.000
G0 Z5.000
G0 Z5.000
(Finish operation: Profile025)
(Begin operation: Profile026)
(Path: Profile026)
(Profile026)
(Compensated Tool Path. Diameter: 2.0)
G0 Z5.000
G0 X39.000 Y-35.250
G0 Y-35.250
G0 Y-35.250 Z3.000
G1 X39.000 Y-35.250 Z-0.500 F30.000
G1 X35.500 Y-35.250 Z-0.500 F30.000
G1 X35.500 Y-36.250 Z-0.500 F30.000
G1 X39.000 Y-36.250 Z-0.500 F30.000
G1 X39.000 Y-35.250 Z-0.500 F30.000
G1 X39.000 Y-35.250 Z-1.000 F30.000
G1 X35.500 Y-35.250 Z-1.000 F30.000
G1 X35.500 Y-36.250 Z-1.000 F30.000
G1 X39.000 Y-36.250 Z-1.000 F30.000
G1 X39.000 Y-35.250 Z-1.000 F30.000
G1 X39.000 Y-35.250 Z-1.500 F30.000
G1 X35.500 Y-35.250 Z-1.500 F30.000
G1 X35.500 Y-36.250 Z-1.500 F30.000
G1 X39.000 Y-36.250 Z-1.500 F30.000
G1 X39.000 Y-35.250 Z-1.500 F30.000
G1 X39.000 Y-35.250 Z-2.000 F30.000
G1 X35.500 Y-35.250 Z-2.000 F30.000
G1 X35.500 Y-36.250 Z-2.000 F30.000
G1 X39.000 Y-36.250 Z-2.000 F30.000
G1 X39.000 Y-35.250 Z-2.000 F30.000
G1 X39.000 Y-35.250 Z-2.500 F30.000
G1 X35.500 Y-35.250 Z-2.500 F30.000
G1 X35.500 Y-36.250 Z-2.500 F30.000
G1 X39.000 Y-36.250 Z-2.500 F30.000
G1 X39.000 Y-35.250 Z-2.500 F30.000
G1 X39.000 Y-35.250 Z-3.000 F30.000
G1 X35.500 Y-35.250 Z-3.000 F30.000
G1 X35.500 Y-36.250 Z-3.000 F30.000
G1 X39.000 Y-36.250 Z-3.000 F30.000
G1 X39.000 Y-35.250 Z-3.000 F30.000
G1 X39.000 Y-35.250 Z-3.500 F30.000
G1 X35.500 Y-35.250 Z-3.500 F30.000
G1 X35.500 Y-36.250 Z-3.500 F30.000
G1 X39.000 Y-36.250 Z-3.500 F30.000
G1 X39.000 Y-35.250 Z-3.500 F30.000
G1 X39.000 Y-35.250 Z-4.000 F30.000
G1 X35.500 Y-35.250 Z-4.000 F30.000
G1 X35.500 Y-36.250 Z-4.000 F30.000
G1 X39.000 Y-36.250 Z-4.000 F30.000
G1 X39.000 Y-35.250 Z-4.000 F30.000
G1 X39.000 Y-35.250 Z-4.500 F30.000
G1 X35.500 Y-35.250 Z-4.500 F30.000
G1 X35.500 Y-36.250 Z-4.500 F30.000
G1 X39.000 Y-36.250 Z-4.500 F30.000
G1 X39.000 Y-35.250 Z-4.500 F30.000
G1 X39.000 Y-35.250 Z-5.000 F30.000
G1 X35.500 Y-35.250 Z-5.000 F30.000
G1 X35.500 Y-36.250 Z-5.000 F30.000
G1 X39.000 Y-36.250 Z-5.000 F30.000
G1 X39.000 Y-35.250 Z-5.000 F30.000
G0 Z5.000
G0 Z5.000
(Finish operation: Profile026)
(Begin operation: Profile027)
(Path: Profile027)
(Profile027)
(Compensated Tool Path. Diameter: 2.0)
G0 Z5.000
G0 X15.528 Y7.528
G0 Z3.000
G1 X15.528 Y7.528 Z-0.500 F30.000
G3 X15.079 Y7.605 Z-0.500 I-0.278 J-0.278 K0.000 F30.000
G3 X15.421 Y6.895 Z-0.500 I0.171 J-0.355 K0.000 F30.000
G3 X15.528 Y7.528 Z-0.500 I-0.171 J0.355 K0.000 F30.000
G1 X15.528 Y7.528 Z-1.000 F30.000
G3 X15.079 Y7.605 Z-1.000 I-0.278 J-0.278 K0.000 F30.000
G3 X15.421 Y6.895 Z-1.000 I0.171 J-0.355 K0.000 F30.000
G3 X15.528 Y7.528 Z-1.000 I-0.171 J0.355 K0.000 F30.000
G1 X15.528 Y7.528 Z-1.500 F30.000
G3 X15.079 Y7.605 Z-1.500 I-0.278 J-0.278 K0.000 F30.000
G3 X15.421 Y6.895 Z-1.500 I0.171 J-0.355 K0.000 F30.000
G3 X15.528 Y7.528 Z-1.500 I-0.171 J0.355 K0.000 F30.000
G1 X15.528 Y7.528 Z-2.000 F30.000
G3 X15.079 Y7.605 Z-2.000 I-0.278 J-0.278 K0.000 F30.000
G3 X15.421 Y6.895 Z-2.000 I0.171 J-0.355 K0.000 F30.000
G3 X15.528 Y7.528 Z-2.000 I-0.171 J0.355 K0.000 F30.000
G1 X15.528 Y7.528 Z-2.500 F30.000
G3 X15.079 Y7.605 Z-2.500 I-0.278 J-0.278 K0.000 F30.000
G3 X15.421 Y6.895 Z-2.500 I0.171 J-0.355 K0.000 F30.000
G3 X15.528 Y7.528 Z-2.500 I-0.171 J0.355 K0.000 F30.000
G1 X15.528 Y7.528 Z-3.000 F30.000
G3 X15.079 Y7.605 Z-3.000 I-0.278 J-0.278 K0.000 F30.000
G3 X15.421 Y6.895 Z-3.000 I0.171 J-0.355 K0.000 F30.000
G3 X15.528 Y7.528 Z-3.000 I-0.171 J0.355 K0.000 F30.000
G1 X15.528 Y7.528 Z-3.500 F30.000
G3 X15.079 Y7.605 Z-3.500 I-0.278 J-0.278 K0.000 F30.000
G3 X15.421 Y6.895 Z-3.500 I0.171 J-0.355 K0.000 F30.000
G3 X15.528 Y7.528 Z-3.500 I-0.171 J0.355 K0.000 F30.000
G1 X15.528 Y7.528 Z-4.000 F30.000
G3 X15.079 Y7.605 Z-4.000 I-0.278 J-0.278 K0.000 F30.000
G3 X15.421 Y6.895 Z-4.000 I0.171 J-0.355 K0.000 F30.000
G3 X15.528 Y7.528 Z-4.000 I-0.171 J0.355 K0.000 F30.000
G1 X15.528 Y7.528 Z-4.500 F30.000
G3 X15.079 Y7.605 Z-4.500 I-0.278 J-0.278 K0.000 F30.000
G3 X15.421 Y6.895 Z-4.500 I0.171 J-0.355 K0.000 F30.000
G3 X15.528 Y7.528 Z-4.500 I-0.171 J0.355 K0.000 F30.000
G1 X15.528 Y7.528 Z-5.000 F30.000
G3 X15.079 Y7.605 Z-5.000 I-0.278 J-0.278 K0.000 F30.000
G3 X15.421 Y6.895 Z-5.000 I0.171 J-0.355 K0.000 F30.000
G3 X15.528 Y7.528 Z-5.000 I-0.171 J0.355 K0.000 F30.000
G0 Z5.000
G0 Z5.000
(Finish operation: Profile027)
(Begin operation: Profile028)
(Path: Profile028)
(Profile028)
(Compensated Tool Path. Diameter: 2.0)
G0 Z5.000
G0 X29.528 Y7.528
G0 Z3.000
G1 X29.528 Y7.528 Z-0.500 F30.000
G3 X29.079 Y7.605 Z-0.500 I-0.278 J-0.278 K0.000 F30.000
G3 X29.421 Y6.895 Z-0.500 I0.171 J-0.355 K0.000 F30.000
G3 X29.528 Y7.528 Z-0.500 I-0.171 J0.355 K0.000 F30.000
G1 X29.528 Y7.528 Z-1.000 F30.000
G3 X29.079 Y7.605 Z-1.000 I-0.278 J-0.278 K0.000 F30.000
G3 X29.421 Y6.895 Z-1.000 I0.171 J-0.355 K0.000 F30.000
G3 X29.528 Y7.528 Z-1.000 I-0.171 J0.355 K0.000 F30.000
G1 X29.528 Y7.528 Z-1.500 F30.000
G3 X29.079 Y7.605 Z-1.500 I-0.278 J-0.278 K0.000 F30.000
G3 X29.421 Y6.895 Z-1.500 I0.171 J-0.355 K0.000 F30.000
G3 X29.528 Y7.528 Z-1.500 I-0.171 J0.355 K0.000 F30.000
G1 X29.528 Y7.528 Z-2.000 F30.000
G3 X29.079 Y7.605 Z-2.000 I-0.278 J-0.278 K0.000 F30.000
G3 X29.421 Y6.895 Z-2.000 I0.171 J-0.355 K0.000 F30.000
G3 X29.528 Y7.528 Z-2.000 I-0.171 J0.355 K0.000 F30.000
G1 X29.528 Y7.528 Z-2.500 F30.000
G3 X29.079 Y7.605 Z-2.500 I-0.278 J-0.278 K0.000 F30.000
G3 X29.421 Y6.895 Z-2.500 I0.171 J-0.355 K0.000 F30.000
G3 X29.528 Y7.528 Z-2.500 I-0.171 J0.355 K0.000 F30.000
G1 X29.528 Y7.528 Z-3.000 F30.000
G3 X29.079 Y7.605 Z-3.000 I-0.278 J-0.278 K0.000 F30.000
G3 X29.421 Y6.895 Z-3.000 I0.171 J-0.355 K0.000 F30.000
G3 X29.528 Y7.528 Z-3.000 I-0.171 J0.355 K0.000 F30.000
G1 X29.528 Y7.528 Z-3.500 F30.000
G3 X29.079 Y7.605 Z-3.500 I-0.278 J-0.278 K0.000 F30.000
G3 X29.421 Y6.895 Z-3.500 I0.171 J-0.355 K0.000 F30.000
G3 X29.528 Y7.528 Z-3.500 I-0.171 J0.355 K0.000 F30.000
G1 X29.528 Y7.528 Z-4.000 F30.000
G3 X29.079 Y7.605 Z-4.000 I-0.278 J-0.278 K0.000 F30.000
G3 X29.421 Y6.895 Z-4.000 I0.171 J-0.355 K0.000 F30.000
G3 X29.528 Y7.528 Z-4.000 I-0.171 J0.355 K0.000 F30.000
G1 X29.528 Y7.528 Z-4.500 F30.000
G3 X29.079 Y7.605 Z-4.500 I-0.278 J-0.278 K0.000 F30.000
G3 X29.421 Y6.895 Z-4.500 I0.171 J-0.355 K0.000 F30.000
G3 X29.528 Y7.528 Z-4.500 I-0.171 J0.355 K0.000 F30.000
G1 X29.528 Y7.528 Z-5.000 F30.000
G3 X29.079 Y7.605 Z-5.000 I-0.278 J-0.278 K0.000 F30.000
G3 X29.421 Y6.895 Z-5.000 I0.171 J-0.355 K0.000 F30.000
G3 X29.528 Y7.528 Z-5.000 I-0.171 J0.355 K0.000 F30.000
G0 Z5.000
G0 Z5.000
(Finish operation: Profile028)
(Begin operation: Profile029)
(Path: Profile029)
(Profile029)
(Compensated Tool Path. Diameter: 2.0)
G0 Z5.000
G0 X9.000 Y12.250
G0 Z3.000
G1 X9.000 Y12.250 Z-0.500 F30.000
G1 X5.500 Y12.250 Z-0.500 F30.000
G1 X5.500 Y11.250 Z-0.500 F30.000
G1 X9.000 Y11.250 Z-0.500 F30.000
G1 X9.000 Y12.250 Z-0.500 F30.000
G1 X9.000 Y12.250 Z-1.000 F30.000
G1 X5.500 Y12.250 Z-1.000 F30.000
G1 X5.500 Y11.250 Z-1.000 F30.000
G1 X9.000 Y11.250 Z-1.000 F30.000
G1 X9.000 Y12.250 Z-1.000 F30.000
G1 X9.000 Y12.250 Z-1.500 F30.000
G1 X5.500 Y12.250 Z-1.500 F30.000
G1 X5.500 Y11.250 Z-1.500 F30.000
G1 X9.000 Y11.250 Z-1.500 F30.000
G1 X9.000 Y12.250 Z-1.500 F30.000
G1 X9.000 Y12.250 Z-2.000 F30.000
G1 X5.500 Y12.250 Z-2.000 F30.000
G1 X5.500 Y11.250 Z-2.000 F30.000
G1 X9.000 Y11.250 Z-2.000 F30.000
G1 X9.000 Y12.250 Z-2.000 F30.000
G1 X9.000 Y12.250 Z-2.500 F30.000
G1 X5.500 Y12.250 Z-2.500 F30.000
G1 X5.500 Y11.250 Z-2.500 F30.000
G1 X9.000 Y11.250 Z-2.500 F30.000
G1 X9.000 Y12.250 Z-2.500 F30.000
G1 X9.000 Y12.250 Z-3.000 F30.000
G1 X5.500 Y12.250 Z-3.000 F30.000
G1 X5.500 Y11.250 Z-3.000 F30.000
G1 X9.000 Y11.250 Z-3.000 F30.000
G1 X9.000 Y12.250 Z-3.000 F30.000
G1 X9.000 Y12.250 Z-3.500 F30.000
G1 X5.500 Y12.250 Z-3.500 F30.000
G1 X5.500 Y11.250 Z-3.500 F30.000
G1 X9.000 Y11.250 Z-3.500 F30.000
G1 X9.000 Y12.250 Z-3.500 F30.000
G1 X9.000 Y12.250 Z-4.000 F30.000
G1 X5.500 Y12.250 Z-4.000 F30.000
G1 X5.500 Y11.250 Z-4.000 F30.000
G1 X9.000 Y11.250 Z-4.000 F30.000
G1 X9.000 Y12.250 Z-4.000 F30.000
G1 X9.000 Y12.250 Z-4.500 F30.000
G1 X5.500 Y12.250 Z-4.500 F30.000
G1 X5.500 Y11.250 Z-4.500 F30.000
G1 X9.000 Y11.250 Z-4.500 F30.000
G1 X9.000 Y12.250 Z-4.500 F30.000
G1 X9.000 Y12.250 Z-5.000 F30.000
G1 X5.500 Y12.250 Z-5.000 F30.000
G1 X5.500 Y11.250 Z-5.000 F30.000
G1 X9.000 Y11.250 Z-5.000 F30.000
G1 X9.000 Y12.250 Z-5.000 F30.000
G0 Z5.000
G0 Z5.000
(Finish operation: Profile029)
(Begin operation: Profile030)
(Path: Profile030)
(Profile030)
(Compensated Tool Path. Diameter: 2.0)
G0 Z5.000
G0 X39.000 Y12.250
G0 Z3.000
G1 X39.000 Y12.250 Z-0.500 F30.000
G1 X35.500 Y12.250 Z-0.500 F30.000
G1 X35.500 Y11.250 Z-0.500 F30.000
G1 X39.000 Y11.250 Z-0.500 F30.000
G1 X39.000 Y12.250 Z-0.500 F30.000
G1 X39.000 Y12.250 Z-1.000 F30.000
G1 X35.500 Y12.250 Z-1.000 F30.000
G1 X35.500 Y11.250 Z-1.000 F30.000
G1 X39.000 Y11.250 Z-1.000 F30.000
G1 X39.000 Y12.250 Z-1.000 F30.000
G1 X39.000 Y12.250 Z-1.500 F30.000
G1 X35.500 Y12.250 Z-1.500 F30.000
G1 X35.500 Y11.250 Z-1.500 F30.000
G1 X39.000 Y11.250 Z-1.500 F30.000
G1 X39.000 Y12.250 Z-1.500 F30.000
G1 X39.000 Y12.250 Z-2.000 F30.000
G1 X35.500 Y12.250 Z-2.000 F30.000
G1 X35.500 Y11.250 Z-2.000 F30.000
G1 X39.000 Y11.250 Z-2.000 F30.000
G1 X39.000 Y12.250 Z-2.000 F30.000
G1 X39.000 Y12.250 Z-2.500 F30.000
G1 X35.500 Y12.250 Z-2.500 F30.000
G1 X35.500 Y11.250 Z-2.500 F30.000
G1 X39.000 Y11.250 Z-2.500 F30.000
G1 X39.000 Y12.250 Z-2.500 F30.000
G1 X39.000 Y12.250 Z-3.000 F30.000
G1 X35.500 Y12.250 Z-3.000 F30.000
G1 X35.500 Y11.250 Z-3.000 F30.000
G1 X39.000 Y11.250 Z-3.000 F30.000
G1 X39.000 Y12.250 Z-3.000 F30.000
G1 X39.000 Y12.250 Z-3.500 F30.000
G1 X35.500 Y12.250 Z-3.500 F30.000
G1 X35.500 Y11.250 Z-3.500 F30.000
G1 X39.000 Y11.250 Z-3.500 F30.000
G1 X39.000 Y12.250 Z-3.500 F30.000
G1 X39.000 Y12.250 Z-4.000 F30.000
G1 X35.500 Y12.250 Z-4.000 F30.000
G1 X35.500 Y11.250 Z-4.000 F30.000
G1 X39.000 Y11.250 Z-4.000 F30.000
G1 X39.000 Y12.250 Z-4.000 F30.000
G1 X39.000 Y12.250 Z-4.500 F30.000
G1 X35.500 Y12.250 Z-4.500 F30.000
G1 X35.500 Y11.250 Z-4.500 F30.000
G1 X39.000 Y11.250 Z-4.500 F30.000
G1 X39.000 Y12.250 Z-4.500 F30.000
G1 X39.000 Y12.250 Z-5.000 F30.000
G1 X35.500 Y12.250 Z-5.000 F30.000
G1 X35.500 Y11.250 Z-5.000 F30.000
G1 X39.000 Y11.250 Z-5.000 F30.000
G1 X39.000 Y12.250 Z-5.000 F30.000
G0 Z5.000
G0 Z5.000
(Finish operation: Profile030)
(Begin operation: Profile031)
(Path: Profile031)
(Profile031)
(Compensated Tool Path. Diameter: 2.0)
G0 Z5.000
G0 X15.778 Y24.069
G0 Z3.000
G1 X15.778 Y24.069 Z-0.500 F30.000
G3 X15.329 Y24.145 Z-0.500 I-0.278 J-0.278 K0.000 F30.000
G3 X15.671 Y23.436 Z-0.500 I0.171 J-0.355 K0.000 F30.000
G3 X15.778 Y24.069 Z-0.500 I-0.171 J0.355 K0.000 F30.000
G1 X15.778 Y24.069 Z-1.000 F30.000
G3 X15.329 Y24.145 Z-1.000 I-0.278 J-0.278 K0.000 F30.000
G3 X15.671 Y23.436 Z-1.000 I0.171 J-0.355 K0.000 F30.000
G3 X15.778 Y24.069 Z-1.000 I-0.171 J0.355 K0.000 F30.000
G1 X15.778 Y24.069 Z-1.500 F30.000
G3 X15.329 Y24.145 Z-1.500 I-0.278 J-0.278 K0.000 F30.000
G3 X15.671 Y23.436 Z-1.500 I0.171 J-0.355 K0.000 F30.000
G3 X15.778 Y24.069 Z-1.500 I-0.171 J0.355 K0.000 F30.000
G1 X15.778 Y24.069 Z-2.000 F30.000
G3 X15.329 Y24.145 Z-2.000 I-0.278 J-0.278 K0.000 F30.000
G3 X15.671 Y23.436 Z-2.000 I0.171 J-0.355 K0.000 F30.000
G3 X15.778 Y24.069 Z-2.000 I-0.171 J0.355 K0.000 F30.000
G1 X15.778 Y24.069 Z-2.500 F30.000
G3 X15.329 Y24.145 Z-2.500 I-0.278 J-0.278 K0.000 F30.000
G3 X15.671 Y23.436 Z-2.500 I0.171 J-0.355 K0.000 F30.000
G3 X15.778 Y24.069 Z-2.500 I-0.171 J0.355 K0.000 F30.000
G1 X15.778 Y24.069 Z-3.000 F30.000
G3 X15.329 Y24.145 Z-3.000 I-0.278 J-0.278 K0.000 F30.000
G3 X15.671 Y23.436 Z-3.000 I0.171 J-0.355 K0.000 F30.000
G3 X15.778 Y24.069 Z-3.000 I-0.171 J0.355 K0.000 F30.000
G1 X15.778 Y24.069 Z-3.500 F30.000
G3 X15.329 Y24.145 Z-3.500 I-0.278 J-0.278 K0.000 F30.000
G3 X15.671 Y23.436 Z-3.500 I0.171 J-0.355 K0.000 F30.000
G3 X15.778 Y24.069 Z-3.500 I-0.171 J0.355 K0.000 F30.000
G1 X15.778 Y24.069 Z-4.000 F30.000
G3 X15.329 Y24.145 Z-4.000 I-0.278 J-0.278 K0.000 F30.000
G3 X15.671 Y23.436 Z-4.000 I0.171 J-0.355 K0.000 F30.000
G3 X15.778 Y24.069 Z-4.000 I-0.171 J0.355 K0.000 F30.000
G1 X15.778 Y24.069 Z-4.500 F30.000
G3 X15.329 Y24.145 Z-4.500 I-0.278 J-0.278 K0.000 F30.000
G3 X15.671 Y23.436 Z-4.500 I0.171 J-0.355 K0.000 F30.000
G3 X15.778 Y24.069 Z-4.500 I-0.171 J0.355 K0.000 F30.000
G1 X15.778 Y24.069 Z-5.000 F30.000
G3 X15.329 Y24.145 Z-5.000 I-0.278 J-0.278 K0.000 F30.000
G3 X15.671 Y23.436 Z-5.000 I0.171 J-0.355 K0.000 F30.000
G3 X15.778 Y24.069 Z-5.000 I-0.171 J0.355 K0.000 F30.000
G0 Z5.000
G0 Z5.000
(Finish operation: Profile031)
(Begin operation: Profile032)
(Path: Profile032)
(Profile032)
(Compensated Tool Path. Diameter: 2.0)
G0 Z5.000
G0 X28.181 Y26.971
G0 Z3.000
G1 X28.181 Y26.971 Z-0.500 F30.000
G3 X23.710 Y28.100 Z-0.500 I-3.181 J-3.181 K0.000 F30.000
G3 X26.254 Y19.471 Z-0.500 I1.290 J-4.309 K0.000 F30.000
G3 X28.181 Y26.971 Z-0.500 I-1.254 J4.320 K0.000 F30.000
G1 X28.181 Y26.971 Z-1.000 F30.000
G3 X23.710 Y28.100 Z-1.000 I-3.181 J-3.181 K0.000 F30.000
G3 X26.254 Y19.471 Z-1.000 I1.290 J-4.309 K0.000 F30.000
G3 X28.181 Y26.971 Z-1.000 I-1.254 J4.320 K0.000 F30.000
G1 X28.181 Y26.971 Z-1.500 F30.000
G3 X23.710 Y28.100 Z-1.500 I-3.181 J-3.181 K0.000 F30.000
G3 X26.254 Y19.471 Z-1.500 I1.290 J-4.309 K0.000 F30.000
G3 X28.181 Y26.971 Z-1.500 I-1.254 J4.320 K0.000 F30.000
G1 X28.181 Y26.971 Z-2.000 F30.000
G3 X23.710 Y28.100 Z-2.000 I-3.181 J-3.181 K0.000 F30.000
G3 X26.254 Y19.471 Z-2.000 I1.290 J-4.309 K0.000 F30.000
G3 X28.181 Y26.971 Z-2.000 I-1.254 J4.320 K0.000 F30.000
G1 X28.181 Y26.971 Z-2.500 F30.000
G3 X23.710 Y28.100 Z-2.500 I-3.181 J-3.181 K0.000 F30.000
G3 X26.254 Y19.471 Z-2.500 I1.290 J-4.309 K0.000 F30.000
G3 X28.181 Y26.971 Z-2.500 I-1.254 J4.320 K0.000 F30.000
G1 X28.181 Y26.971 Z-3.000 F30.000
G3 X23.710 Y28.100 Z-3.000 I-3.181 J-3.181 K0.000 F30.000
G3 X26.254 Y19.471 Z-3.000 I1.290 J-4.309 K0.000 F30.000
G3 X28.181 Y26.971 Z-3.000 I-1.254 J4.320 K0.000 F30.000
G1 X28.181 Y26.971 Z-3.500 F30.000
G3 X23.710 Y28.100 Z-3.500 I-3.181 J-3.181 K0.000 F30.000
G3 X26.254 Y19.471 Z-3.500 I1.290 J-4.309 K0.000 F30.000
G3 X28.181 Y26.971 Z-3.500 I-1.254 J4.320 K0.000 F30.000
G1 X28.181 Y26.971 Z-4.000 F30.000
G3 X23.710 Y28.100 Z-4.000 I-3.181 J-3.181 K0.000 F30.000
G3 X26.254 Y19.471 Z-4.000 I1.290 J-4.309 K0.000 F30.000
G3 X28.181 Y26.971 Z-4.000 I-1.254 J4.320 K0.000 F30.000
G1 X28.181 Y26.971 Z-4.500 F30.000
G3 X23.710 Y28.100 Z-4.500 I-3.181 J-3.181 K0.000 F30.000
G3 X26.254 Y19.471 Z-4.500 I1.290 J-4.309 K0.000 F30.000
G3 X28.181 Y26.971 Z-4.500 I-1.254 J4.320 K0.000 F30.000
G1 X28.181 Y26.971 Z-5.000 F30.000
G3 X23.710 Y28.100 Z-5.000 I-3.181 J-3.181 K0.000 F30.000
G3 X26.254 Y19.471 Z-5.000 I1.290 J-4.309 K0.000 F30.000
G3 X28.181 Y26.971 Z-5.000 I-1.254 J4.320 K0.000 F30.000
G0 Z5.000
G0 Z5.000
(Finish operation: Profile032)
(Begin operation: Profile033)
(Path: Profile033)
(Profile033)
(Compensated Tool Path. Diameter: 2.0)
G0 Z5.000
G0 X35.912 Y25.203
G0 Z3.000
G1 X35.912 Y25.203 Z-0.500 F30.000
G3 X33.883 Y25.690 Z-0.500 I-1.412 J-1.412 K0.000 F30.000
G3 X32.601 Y23.174 Z-0.500 I0.617 J-1.899 K0.000 F30.000
G3 X35.117 Y21.892 Z-0.500 I1.899 J0.617 K0.000 F30.000
G3 X35.912 Y25.203 Z-0.500 I-0.617 J1.899 K0.000 F30.000
G1 X35.912 Y25.203 Z-1.000 F30.000
G3 X33.883 Y25.690 Z-1.000 I-1.412 J-1.412 K0.000 F30.000
G3 X32.601 Y23.174 Z-1.000 I0.617 J-1.899 K0.000 F30.000
G3 X35.117 Y21.892 Z-1.000 I1.899 J0.617 K0.000 F30.000
G3 X35.912 Y25.203 Z-1.000 I-0.617 J1.899 K0.000 F30.000
G1 X35.912 Y25.203 Z-1.500 F30.000
G3 X33.883 Y25.690 Z-1.500 I-1.412 J-1.412 K0.000 F30.000
G3 X32.601 Y23.174 Z-1.500 I0.617 J-1.899 K0.000 F30.000
G3 X35.117 Y21.892 Z-1.500 I1.899 J0.617 K0.000 F30.000
G3 X35.912 Y25.203 Z-1.500 I-0.617 J1.899 K0.000 F30.000
G1 X35.912 Y25.203 Z-2.000 F30.000
G3 X33.883 Y25.690 Z-2.000 I-1.412 J-1.412 K0.000 F30.000
G3 X32.601 Y23.174 Z-2.000 I0.617 J-1.899 K0.000 F30.000
G3 X35.117 Y21.892 Z-2.000 I1.899 J0.617 K0.000 F30.000
G3 X35.912 Y25.203 Z-2.000 I-0.617 J1.899 K0.000 F30.000
G1 X35.912 Y25.203 Z-2.500 F30.000
G3 X33.883 Y25.690 Z-2.500 I-1.412 J-1.412 K0.000 F30.000
G3 X32.601 Y23.174 Z-2.500 I0.617 J-1.899 K0.000 F30.000
G3 X35.117 Y21.892 Z-2.500 I1.899 J0.617 K0.000 F30.000
G3 X35.912 Y25.203 Z-2.500 I-0.617 J1.899 K0.000 F30.000
G1 X35.912 Y25.203 Z-3.000 F30.000
G3 X33.883 Y25.690 Z-3.000 I-1.412 J-1.412 K0.000 F30.000
G3 X32.601 Y23.174 Z-3.000 I0.617 J-1.899 K0.000 F30.000
G3 X35.117 Y21.892 Z-3.000 I1.899 J0.617 K0.000 F30.000
G3 X35.912 Y25.203 Z-3.000 I-0.617 J1.899 K0.000 F30.000
G1 X35.912 Y25.203 Z-3.500 F30.000
G3 X33.883 Y25.690 Z-3.500 I-1.412 J-1.412 K0.000 F30.000
G3 X32.601 Y23.174 Z-3.500 I0.617 J-1.899 K0.000 F30.000
G3 X35.117 Y21.892 Z-3.500 I1.899 J0.617 K0.000 F30.000
G3 X35.912 Y25.203 Z-3.500 I-0.617 J1.899 K0.000 F30.000
G1 X35.912 Y25.203 Z-4.000 F30.000
G3 X33.883 Y25.690 Z-4.000 I-1.412 J-1.412 K0.000 F30.000
G3 X32.601 Y23.174 Z-4.000 I0.617 J-1.899 K0.000 F30.000
G3 X35.117 Y21.892 Z-4.000 I1.899 J0.617 K0.000 F30.000
G3 X35.912 Y25.203 Z-4.000 I-0.617 J1.899 K0.000 F30.000
G1 X35.912 Y25.203 Z-4.500 F30.000
G3 X33.883 Y25.690 Z-4.500 I-1.412 J-1.412 K0.000 F30.000
G3 X32.601 Y23.174 Z-4.500 I0.617 J-1.899 K0.000 F30.000
G3 X35.117 Y21.892 Z-4.500 I1.899 J0.617 K0.000 F30.000
G3 X35.912 Y25.203 Z-4.500 I-0.617 J1.899 K0.000 F30.000
G1 X35.912 Y25.203 Z-5.000 F30.000
G3 X33.883 Y25.690 Z-5.000 I-1.412 J-1.412 K0.000 F30.000
G3 X32.601 Y23.174 Z-5.000 I0.617 J-1.899 K0.000 F30.000
G3 X35.117 Y21.892 Z-5.000 I1.899 J0.617 K0.000 F30.000
G3 X35.912 Y25.203 Z-5.000 I-0.617 J1.899 K0.000 F30.000
G0 Z5.000
G0 Z5.000
(Finish operation: Profile033)
(Begin operation: Profile034)
(Path: Profile034)
(Profile034)
(Compensated Tool Path. Diameter: 2.0)
G0 Z5.000
G0 X10.254 Y28.810
G0 Z3.000
G1 X10.254 Y28.810 Z-0.500 F30.000
G3 X9.805 Y28.886 Z-0.500 I-0.278 J-0.278 K0.000 F30.000
G3 X10.146 Y28.177 Z-0.500 I0.171 J-0.355 K0.000 F30.000
G3 X10.254 Y28.810 Z-0.500 I-0.171 J0.355 K0.000 F30.000
G1 X10.254 Y28.810 Z-1.000 F30.000
G3 X9.805 Y28.886 Z-1.000 I-0.278 J-0.278 K0.000 F30.000
G3 X10.146 Y28.177 Z-1.000 I0.171 J-0.355 K0.000 F30.000
G3 X10.254 Y28.810 Z-1.000 I-0.171 J0.355 K0.000 F30.000
G1 X10.254 Y28.810 Z-1.500 F30.000
G3 X9.805 Y28.886 Z-1.500 I-0.278 J-0.278 K0.000 F30.000
G3 X10.146 Y28.177 Z-1.500 I0.171 J-0.355 K0.000 F30.000
G3 X10.254 Y28.810 Z-1.500 I-0.171 J0.355 K0.000 F30.000
G1 X10.254 Y28.810 Z-2.000 F30.000
G3 X9.805 Y28.886 Z-2.000 I-0.278 J-0.278 K0.000 F30.000
G3 X10.146 Y28.177 Z-2.000 I0.171 J-0.355 K0.000 F30.000
G3 X10.254 Y28.810 Z-2.000 I-0.171 J0.355 K0.000 F30.000
G1 X10.254 Y28.810 Z-2.500 F30.000
G3 X9.805 Y28.886 Z-2.500 I-0.278 J-0.278 K0.000 F30.000
G3 X10.146 Y28.177 Z-2.500 I0.171 J-0.355 K0.000 F30.000
G3 X10.254 Y28.810 Z-2.500 I-0.171 J0.355 K0.000 F30.000
G1 X10.254 Y28.810 Z-3.000 F30.000
G3 X9.805 Y28.886 Z-3.000 I-0.278 J-0.278 K0.000 F30.000
G3 X10.146 Y28.177 Z-3.000 I0.171 J-0.355 K0.000 F30.000
G3 X10.254 Y28.810 Z-3.000 I-0.171 J0.355 K0.000 F30.000
G1 X10.254 Y28.810 Z-3.500 F30.000
G3 X9.805 Y28.886 Z-3.500 I-0.278 J-0.278 K0.000 F30.000
G3 X10.146 Y28.177 Z-3.500 I0.171 J-0.355 K0.000 F30.000
G3 X10.254 Y28.810 Z-3.500 I-0.171 J0.355 K0.000 F30.000
G1 X10.254 Y28.810 Z-4.000 F30.000
G3 X9.805 Y28.886 Z-4.000 I-0.278 J-0.278 K0.000 F30.000
G3 X10.146 Y28.177 Z-4.000 I0.171 J-0.355 K0.000 F30.000
G3 X10.254 Y28.810 Z-4.000 I-0.171 J0.355 K0.000 F30.000
G1 X10.254 Y28.810 Z-4.500 F30.000
G3 X9.805 Y28.886 Z-4.500 I-0.278 J-0.278 K0.000 F30.000
G3 X10.146 Y28.177 Z-4.500 I0.171 J-0.355 K0.000 F30.000
G3 X10.254 Y28.810 Z-4.500 I-0.171 J0.355 K0.000 F30.000
G1 X10.254 Y28.810 Z-5.000 F30.000
G3 X9.805 Y28.886 Z-5.000 I-0.278 J-0.278 K0.000 F30.000
G3 X10.146 Y28.177 Z-5.000 I0.171 J-0.355 K0.000 F30.000
G3 X10.254 Y28.810 Z-5.000 I-0.171 J0.355 K0.000 F30.000
G0 Z5.000
G0 Z5.000
(Finish operation: Profile034)
(Begin operation: Profile035)
(Path: Profile035)
(Profile035)
(Compensated Tool Path. Diameter: 2.0)
G0 Z5.000
G0 X9.000 Y36.250
G0 Z3.000
G1 X9.000 Y36.250 Z-0.500 F30.000
G1 X5.500 Y36.250 Z-0.500 F30.000
G1 X5.500 Y35.250 Z-0.500 F30.000
G1 X9.000 Y35.250 Z-0.500 F30.000
G1 X9.000 Y36.250 Z-0.500 F30.000
G1 X9.000 Y36.250 Z-1.000 F30.000
G1 X5.500 Y36.250 Z-1.000 F30.000
G1 X5.500 Y35.250 Z-1.000 F30.000
G1 X9.000 Y35.250 Z-1.000 F30.000
G1 X9.000 Y36.250 Z-1.000 F30.000
G1 X9.000 Y36.250 Z-1.500 F30.000
G1 X5.500 Y36.250 Z-1.500 F30.000
G1 X5.500 Y35.250 Z-1.500 F30.000
G1 X9.000 Y35.250 Z-1.500 F30.000
G1 X9.000 Y36.250 Z-1.500 F30.000
G1 X9.000 Y36.250 Z-2.000 F30.000
G1 X5.500 Y36.250 Z-2.000 F30.000
G1 X5.500 Y35.250 Z-2.000 F30.000
G1 X9.000 Y35.250 Z-2.000 F30.000
G1 X9.000 Y36.250 Z-2.000 F30.000
G1 X9.000 Y36.250 Z-2.500 F30.000
G1 X5.500 Y36.250 Z-2.500 F30.000
G1 X5.500 Y35.250 Z-2.500 F30.000
G1 X9.000 Y35.250 Z-2.500 F30.000
G1 X9.000 Y36.250 Z-2.500 F30.000
G1 X9.000 Y36.250 Z-3.000 F30.000
G1 X5.500 Y36.250 Z-3.000 F30.000
G1 X5.500 Y35.250 Z-3.000 F30.000
G1 X9.000 Y35.250 Z-3.000 F30.000
G1 X9.000 Y36.250 Z-3.000 F30.000
G1 X9.000 Y36.250 Z-3.500 F30.000
G1 X5.500 Y36.250 Z-3.500 F30.000
G1 X5.500 Y35.250 Z-3.500 F30.000
G1 X9.000 Y35.250 Z-3.500 F30.000
G1 X9.000 Y36.250 Z-3.500 F30.000
G1 X9.000 Y36.250 Z-4.000 F30.000
G1 X5.500 Y36.250 Z-4.000 F30.000
G1 X5.500 Y35.250 Z-4.000 F30.000
G1 X9.000 Y35.250 Z-4.000 F30.000
G1 X9.000 Y36.250 Z-4.000 F30.000
G1 X9.000 Y36.250 Z-4.500 F30.000
G1 X5.500 Y36.250 Z-4.500 F30.000
G1 X5.500 Y35.250 Z-4.500 F30.000
G1 X9.000 Y35.250 Z-4.500 F30.000
G1 X9.000 Y36.250 Z-4.500 F30.000
G1 X9.000 Y36.250 Z-5.000 F30.000
G1 X5.500 Y36.250 Z-5.000 F30.000
G1 X5.500 Y35.250 Z-5.000 F30.000
G1 X9.000 Y35.250 Z-5.000 F30.000
G1 X9.000 Y36.250 Z-5.000 F30.000
G0 Z5.000
G0 Z5.000
(Finish operation: Profile035)
(Begin operation: Profile037)
(Path: Profile037)
(Profile037)
(Compensated Tool Path. Diameter: 2.0)
G0 Z5.000
G0 X28.803 Y39.247
G0 Z3.000
G1 X28.803 Y39.247 Z-0.500 F30.000
G3 X28.354 Y39.323 Z-0.500 I-0.278 J-0.278 K0.000 F30.000
G3 X28.695 Y38.614 Z-0.500 I0.171 J-0.355 K0.000 F30.000
G3 X28.803 Y39.247 Z-0.500 I-0.171 J0.355 K0.000 F30.000
G1 X28.803 Y39.247 Z-1.000 F30.000
G3 X28.354 Y39.323 Z-1.000 I-0.278 J-0.278 K0.000 F30.000
G3 X28.695 Y38.614 Z-1.000 I0.171 J-0.355 K0.000 F30.000
G3 X28.803 Y39.247 Z-1.000 I-0.171 J0.355 K0.000 F30.000
G1 X28.803 Y39.247 Z-1.500 F30.000
G3 X28.354 Y39.323 Z-1.500 I-0.278 J-0.278 K0.000 F30.000
G3 X28.695 Y38.614 Z-1.500 I0.171 J-0.355 K0.000 F30.000
G3 X28.803 Y39.247 Z-1.500 I-0.171 J0.355 K0.000 F30.000
G1 X28.803 Y39.247 Z-2.000 F30.000
G3 X28.354 Y39.323 Z-2.000 I-0.278 J-0.278 K0.000 F30.000
G3 X28.695 Y38.614 Z-2.000 I0.171 J-0.355 K0.000 F30.000
G3 X28.803 Y39.247 Z-2.000 I-0.171 J0.355 K0.000 F30.000
G1 X28.803 Y39.247 Z-2.500 F30.000
G3 X28.354 Y39.323 Z-2.500 I-0.278 J-0.278 K0.000 F30.000
G3 X28.695 Y38.614 Z-2.500 I0.171 J-0.355 K0.000 F30.000
G3 X28.803 Y39.247 Z-2.500 I-0.171 J0.355 K0.000 F30.000
G1 X28.803 Y39.247 Z-3.000 F30.000
G3 X28.354 Y39.323 Z-3.000 I-0.278 J-0.278 K0.000 F30.000
G3 X28.695 Y38.614 Z-3.000 I0.171 J-0.355 K0.000 F30.000
G3 X28.803 Y39.247 Z-3.000 I-0.171 J0.355 K0.000 F30.000
G1 X28.803 Y39.247 Z-3.500 F30.000
G3 X28.354 Y39.323 Z-3.500 I-0.278 J-0.278 K0.000 F30.000
G3 X28.695 Y38.614 Z-3.500 I0.171 J-0.355 K0.000 F30.000
G3 X28.803 Y39.247 Z-3.500 I-0.171 J0.355 K0.000 F30.000
G1 X28.803 Y39.247 Z-4.000 F30.000
G3 X28.354 Y39.323 Z-4.000 I-0.278 J-0.278 K0.000 F30.000
G3 X28.695 Y38.614 Z-4.000 I0.171 J-0.355 K0.000 F30.000
G3 X28.803 Y39.247 Z-4.000 I-0.171 J0.355 K0.000 F30.000
G1 X28.803 Y39.247 Z-4.500 F30.000
G3 X28.354 Y39.323 Z-4.500 I-0.278 J-0.278 K0.000 F30.000
G3 X28.695 Y38.614 Z-4.500 I0.171 J-0.355 K0.000 F30.000
G3 X28.803 Y39.247 Z-4.500 I-0.171 J0.355 K0.000 F30.000
G1 X28.803 Y39.247 Z-5.000 F30.000
G3 X28.354 Y39.323 Z-5.000 I-0.278 J-0.278 K0.000 F30.000
G3 X28.695 Y38.614 Z-5.000 I0.171 J-0.355 K0.000 F30.000
G3 X28.803 Y39.247 Z-5.000 I-0.171 J0.355 K0.000 F30.000
G0 Z5.000
G0 Z5.000
(Finish operation: Profile037)
(Begin operation: Profile038)
(Path: Profile038)
(Profile038)
(Compensated Tool Path. Diameter: 2.0)
G0 Z5.000
G0 X39.000 Y36.250
G0 Y36.250
G0 Y36.250 Z3.000
G1 X39.000 Y36.250 Z-0.500 F30.000
G1 X35.500 Y36.250 Z-0.500 F30.000
G1 X35.500 Y35.250 Z-0.500 F30.000
G1 X39.000 Y35.250 Z-0.500 F30.000
G1 X39.000 Y36.250 Z-0.500 F30.000
G1 X39.000 Y36.250 Z-1.000 F30.000
G1 X35.500 Y36.250 Z-1.000 F30.000
G1 X35.500 Y35.250 Z-1.000 F30.000
G1 X39.000 Y35.250 Z-1.000 F30.000
G1 X39.000 Y36.250 Z-1.000 F30.000
G1 X39.000 Y36.250 Z-1.500 F30.000
G1 X35.500 Y36.250 Z-1.500 F30.000
G1 X35.500 Y35.250 Z-1.500 F30.000
G1 X39.000 Y35.250 Z-1.500 F30.000
G1 X39.000 Y36.250 Z-1.500 F30.000
G1 X39.000 Y36.250 Z-2.000 F30.000
G1 X35.500 Y36.250 Z-2.000 F30.000
G1 X35.500 Y35.250 Z-2.000 F30.000
G1 X39.000 Y35.250 Z-2.000 F30.000
G1 X39.000 Y36.250 Z-2.000 F30.000
G1 X39.000 Y36.250 Z-2.500 F30.000
G1 X35.500 Y36.250 Z-2.500 F30.000
G1 X35.500 Y35.250 Z-2.500 F30.000
G1 X39.000 Y35.250 Z-2.500 F30.000
G1 X39.000 Y36.250 Z-2.500 F30.000
G1 X39.000 Y36.250 Z-3.000 F30.000
G1 X35.500 Y36.250 Z-3.000 F30.000
G1 X35.500 Y35.250 Z-3.000 F30.000
G1 X39.000 Y35.250 Z-3.000 F30.000
G1 X39.000 Y36.250 Z-3.000 F30.000
G1 X39.000 Y36.250 Z-3.500 F30.000
G1 X35.500 Y36.250 Z-3.500 F30.000
G1 X35.500 Y35.250 Z-3.500 F30.000
G1 X39.000 Y35.250 Z-3.500 F30.000
G1 X39.000 Y36.250 Z-3.500 F30.000
G1 X39.000 Y36.250 Z-4.000 F30.000
G1 X35.500 Y36.250 Z-4.000 F30.000
G1 X35.500 Y35.250 Z-4.000 F30.000
G1 X39.000 Y35.250 Z-4.000 F30.000
G1 X39.000 Y36.250 Z-4.000 F30.000
G1 X39.000 Y36.250 Z-4.500 F30.000
G1 X35.500 Y36.250 Z-4.500 F30.000
G1 X35.500 Y35.250 Z-4.500 F30.000
G1 X39.000 Y35.250 Z-4.500 F30.000
G1 X39.000 Y36.250 Z-4.500 F30.000
G1 X39.000 Y36.250 Z-5.000 F30.000
G1 X35.500 Y36.250 Z-5.000 F30.000
G1 X35.500 Y35.250 Z-5.000 F30.000
G1 X39.000 Y35.250 Z-5.000 F30.000
G1 X39.000 Y36.250 Z-5.000 F30.000
G0 Z5.000
G0 Z5.000
(Finish operation: Profile038)
(Begin operation: Profile039)
(Path: Profile039)
(Profile039)
(Compensated Tool Path. Diameter: 2.0)
G0 Z5.000
G0 X-28.972 Y7.528
G0 Z3.000
G1 X-28.972 Y7.528 Z-0.500 F30.000
G3 X-29.421 Y7.605 Z-0.500 I-0.278 J-0.278 K0.000 F30.000
G3 X-29.605 Y7.079 Z-0.500 I0.171 J-0.355 K0.000 F30.000
G3 X-29.079 Y6.895 Z-0.500 I0.355 J0.171 K0.000 F30.000
G3 X-28.972 Y7.528 Z-0.500 I-0.171 J0.355 K0.000 F30.000
G1 X-28.972 Y7.528 Z-1.000 F30.000
G3 X-29.421 Y7.605 Z-1.000 I-0.278 J-0.278 K0.000 F30.000
G3 X-29.605 Y7.079 Z-1.000 I0.171 J-0.355 K0.000 F30.000
G3 X-29.079 Y6.895 Z-1.000 I0.355 J0.171 K0.000 F30.000
G3 X-28.972 Y7.528 Z-1.000 I-0.171 J0.355 K0.000 F30.000
G1 X-28.972 Y7.528 Z-1.500 F30.000
G3 X-29.421 Y7.605 Z-1.500 I-0.278 J-0.278 K0.000 F30.000
G3 X-29.605 Y7.079 Z-1.500 I0.171 J-0.355 K0.000 F30.000
G3 X-29.079 Y6.895 Z-1.500 I0.355 J0.171 K0.000 F30.000
G3 X-28.972 Y7.528 Z-1.500 I-0.171 J0.355 K0.000 F30.000
G1 X-28.972 Y7.528 Z-2.000 F30.000
G3 X-29.421 Y7.605 Z-2.000 I-0.278 J-0.278 K0.000 F30.000
G3 X-29.605 Y7.079 Z-2.000 I0.171 J-0.355 K0.000 F30.000
G3 X-29.079 Y6.895 Z-2.000 I0.355 J0.171 K0.000 F30.000
G3 X-28.972 Y7.528 Z-2.000 I-0.171 J0.355 K0.000 F30.000
G1 X-28.972 Y7.528 Z-2.500 F30.000
G3 X-29.421 Y7.605 Z-2.500 I-0.278 J-0.278 K0.000 F30.000
G3 X-29.605 Y7.079 Z-2.500 I0.171 J-0.355 K0.000 F30.000
G3 X-29.079 Y6.895 Z-2.500 I0.355 J0.171 K0.000 F30.000
G3 X-28.972 Y7.528 Z-2.500 I-0.171 J0.355 K0.000 F30.000
G1 X-28.972 Y7.528 Z-3.000 F30.000
G3 X-29.421 Y7.605 Z-3.000 I-0.278 J-0.278 K0.000 F30.000
G3 X-29.605 Y7.079 Z-3.000 I0.171 J-0.355 K0.000 F30.000
G3 X-29.079 Y6.895 Z-3.000 I0.355 J0.171 K0.000 F30.000
G3 X-28.972 Y7.528 Z-3.000 I-0.171 J0.355 K0.000 F30.000
G1 X-28.972 Y7.528 Z-3.500 F30.000
G3 X-29.421 Y7.605 Z-3.500 I-0.278 J-0.278 K0.000 F30.000
G3 X-29.605 Y7.079 Z-3.500 I0.171 J-0.355 K0.000 F30.000
G3 X-29.079 Y6.895 Z-3.500 I0.355 J0.171 K0.000 F30.000
G3 X-28.972 Y7.528 Z-3.500 I-0.171 J0.355 K0.000 F30.000
G1 X-28.972 Y7.528 Z-4.000 F30.000
G3 X-29.421 Y7.605 Z-4.000 I-0.278 J-0.278 K0.000 F30.000
G3 X-29.605 Y7.079 Z-4.000 I0.171 J-0.355 K0.000 F30.000
G3 X-29.079 Y6.895 Z-4.000 I0.355 J0.171 K0.000 F30.000
G3 X-28.972 Y7.528 Z-4.000 I-0.171 J0.355 K0.000 F30.000
G1 X-28.972 Y7.528 Z-4.500 F30.000
G3 X-29.421 Y7.605 Z-4.500 I-0.278 J-0.278 K0.000 F30.000
G3 X-29.605 Y7.079 Z-4.500 I0.171 J-0.355 K0.000 F30.000
G3 X-29.079 Y6.895 Z-4.500 I0.355 J0.171 K0.000 F30.000
G3 X-28.972 Y7.528 Z-4.500 I-0.171 J0.355 K0.000 F30.000
G1 X-28.972 Y7.528 Z-5.000 F30.000
G3 X-29.421 Y7.605 Z-5.000 I-0.278 J-0.278 K0.000 F30.000
G3 X-29.605 Y7.079 Z-5.000 I0.171 J-0.355 K0.000 F30.000
G3 X-29.079 Y6.895 Z-5.000 I0.355 J0.171 K0.000 F30.000
G3 X-28.972 Y7.528 Z-5.000 I-0.171 J0.355 K0.000 F30.000
G0 Z5.000
G0 Z5.000
(Finish operation: Profile039)
(Begin operation: Profile040)
(Path: Profile040)
(Profile040)
(Compensated Tool Path. Diameter: 2.0)
G0 Z5.000
G0 X-14.972 Y7.528
G0 Z3.000
G1 X-14.972 Y7.528 Z-0.500 F30.000
G3 X-15.421 Y7.605 Z-0.500 I-0.278 J-0.278 K0.000 F30.000
G3 X-15.605 Y7.079 Z-0.500 I0.171 J-0.355 K0.000 F30.000
G3 X-15.079 Y6.895 Z-0.500 I0.355 J0.171 K0.000 F30.000
G3 X-14.972 Y7.528 Z-0.500 I-0.171 J0.355 K0.000 F30.000
G1 X-14.972 Y7.528 Z-1.000 F30.000
G3 X-15.421 Y7.605 Z-1.000 I-0.278 J-0.278 K0.000 F30.000
G3 X-15.605 Y7.079 Z-1.000 I0.171 J-0.355 K0.000 F30.000
G3 X-15.079 Y6.895 Z-1.000 I0.355 J0.171 K0.000 F30.000
G3 X-14.972 Y7.528 Z-1.000 I-0.171 J0.355 K0.000 F30.000
G1 X-14.972 Y7.528 Z-1.500 F30.000
G3 X-15.421 Y7.605 Z-1.500 I-0.278 J-0.278 K0.000 F30.000
G3 X-15.605 Y7.079 Z-1.500 I0.171 J-0.355 K0.000 F30.000
G3 X-15.079 Y6.895 Z-1.500 I0.355 J0.171 K0.000 F30.000
G3 X-14.972 Y7.528 Z-1.500 I-0.171 J0.355 K0.000 F30.000
G1 X-14.972 Y7.528 Z-2.000 F30.000
G3 X-15.421 Y7.605 Z-2.000 I-0.278 J-0.278 K0.000 F30.000
G3 X-15.605 Y7.079 Z-2.000 I0.171 J-0.355 K0.000 F30.000
G3 X-15.079 Y6.895 Z-2.000 I0.355 J0.171 K0.000 F30.000
G3 X-14.972 Y7.528 Z-2.000 I-0.171 J0.355 K0.000 F30.000
G1 X-14.972 Y7.528 Z-2.500 F30.000
G3 X-15.421 Y7.605 Z-2.500 I-0.278 J-0.278 K0.000 F30.000
G3 X-15.605 Y7.079 Z-2.500 I0.171 J-0.355 K0.000 F30.000
G3 X-15.079 Y6.895 Z-2.500 I0.355 J0.171 K0.000 F30.000
G3 X-14.972 Y7.528 Z-2.500 I-0.171 J0.355 K0.000 F30.000
G1 X-14.972 Y7.528 Z-3.000 F30.000
G3 X-15.421 Y7.605 Z-3.000 I-0.278 J-0.278 K0.000 F30.000
G3 X-15.605 Y7.079 Z-3.000 I0.171 J-0.355 K0.000 F30.000
G3 X-15.079 Y6.895 Z-3.000 I0.355 J0.171 K0.000 F30.000
G3 X-14.972 Y7.528 Z-3.000 I-0.171 J0.355 K0.000 F30.000
G1 X-14.972 Y7.528 Z-3.500 F30.000
G3 X-15.421 Y7.605 Z-3.500 I-0.278 J-0.278 K0.000 F30.000
G3 X-15.605 Y7.079 Z-3.500 I0.171 J-0.355 K0.000 F30.000
G3 X-15.079 Y6.895 Z-3.500 I0.355 J0.171 K0.000 F30.000
G3 X-14.972 Y7.528 Z-3.500 I-0.171 J0.355 K0.000 F30.000
G1 X-14.972 Y7.528 Z-4.000 F30.000
G3 X-15.421 Y7.605 Z-4.000 I-0.278 J-0.278 K0.000 F30.000
G3 X-15.605 Y7.079 Z-4.000 I0.171 J-0.355 K0.000 F30.000
G3 X-15.079 Y6.895 Z-4.000 I0.355 J0.171 K0.000 F30.000
G3 X-14.972 Y7.528 Z-4.000 I-0.171 J0.355 K0.000 F30.000
G1 X-14.972 Y7.528 Z-4.500 F30.000
G3 X-15.421 Y7.605 Z-4.500 I-0.278 J-0.278 K0.000 F30.000
G3 X-15.605 Y7.079 Z-4.500 I0.171 J-0.355 K0.000 F30.000
G3 X-15.079 Y6.895 Z-4.500 I0.355 J0.171 K0.000 F30.000
G3 X-14.972 Y7.528 Z-4.500 I-0.171 J0.355 K0.000 F30.000
G1 X-14.972 Y7.528 Z-5.000 F30.000
G3 X-15.421 Y7.605 Z-5.000 I-0.278 J-0.278 K0.000 F30.000
G3 X-15.605 Y7.079 Z-5.000 I0.171 J-0.355 K0.000 F30.000
G3 X-15.079 Y6.895 Z-5.000 I0.355 J0.171 K0.000 F30.000
G3 X-14.972 Y7.528 Z-5.000 I-0.171 J0.355 K0.000 F30.000
G0 Z5.000
G0 Z5.000
(Finish operation: Profile040)
(Begin operation: Profile041)
(Path: Profile041)
(Profile041)
(Compensated Tool Path. Diameter: 2.0)
G0 Z5.000
G0 X-5.500 Y12.250
G0 Z3.000
G1 X-5.500 Y12.250 Z-0.500 F30.000
G1 X-9.000 Y12.250 Z-0.500 F30.000
G1 X-9.000 Y11.250 Z-0.500 F30.000
G1 X-5.500 Y11.250 Z-0.500 F30.000
G1 X-5.500 Y12.250 Z-0.500 F30.000
G1 X-5.500 Y12.250 Z-1.000 F30.000
G1 X-9.000 Y12.250 Z-1.000 F30.000
G1 X-9.000 Y11.250 Z-1.000 F30.000
G1 X-5.500 Y11.250 Z-1.000 F30.000
G1 X-5.500 Y12.250 Z-1.000 F30.000
G1 X-5.500 Y12.250 Z-1.500 F30.000
G1 X-9.000 Y12.250 Z-1.500 F30.000
G1 X-9.000 Y11.250 Z-1.500 F30.000
G1 X-5.500 Y11.250 Z-1.500 F30.000
G1 X-5.500 Y12.250 Z-1.500 F30.000
G1 X-5.500 Y12.250 Z-2.000 F30.000
G1 X-9.000 Y12.250 Z-2.000 F30.000
G1 X-9.000 Y11.250 Z-2.000 F30.000
G1 X-5.500 Y11.250 Z-2.000 F30.000
G1 X-5.500 Y12.250 Z-2.000 F30.000
G1 X-5.500 Y12.250 Z-2.500 F30.000
G1 X-9.000 Y12.250 Z-2.500 F30.000
G1 X-9.000 Y11.250 Z-2.500 F30.000
G1 X-5.500 Y11.250 Z-2.500 F30.000
G1 X-5.500 Y12.250 Z-2.500 F30.000
G1 X-5.500 Y12.250 Z-3.000 F30.000
G1 X-9.000 Y12.250 Z-3.000 F30.000
G1 X-9.000 Y11.250 Z-3.000 F30.000
G1 X-5.500 Y11.250 Z-3.000 F30.000
G1 X-5.500 Y12.250 Z-3.000 F30.000
G1 X-5.500 Y12.250 Z-3.500 F30.000
G1 X-9.000 Y12.250 Z-3.500 F30.000
G1 X-9.000 Y11.250 Z-3.500 F30.000
G1 X-5.500 Y11.250 Z-3.500 F30.000
G1 X-5.500 Y12.250 Z-3.500 F30.000
G1 X-5.500 Y12.250 Z-4.000 F30.000
G1 X-9.000 Y12.250 Z-4.000 F30.000
G1 X-9.000 Y11.250 Z-4.000 F30.000
G1 X-5.500 Y11.250 Z-4.000 F30.000
G1 X-5.500 Y12.250 Z-4.000 F30.000
G1 X-5.500 Y12.250 Z-4.500 F30.000
G1 X-9.000 Y12.250 Z-4.500 F30.000
G1 X-9.000 Y11.250 Z-4.500 F30.000
G1 X-5.500 Y11.250 Z-4.500 F30.000
G1 X-5.500 Y12.250 Z-4.500 F30.000
G1 X-5.500 Y12.250 Z-5.000 F30.000
G1 X-9.000 Y12.250 Z-5.000 F30.000
G1 X-9.000 Y11.250 Z-5.000 F30.000
G1 X-5.500 Y11.250 Z-5.000 F30.000
G1 X-5.500 Y12.250 Z-5.000 F30.000
G0 Z5.000
G0 Z5.000
(Finish operation: Profile041)
(Begin operation: Profile042)
(Path: Profile042)
(Profile042)
(Compensated Tool Path. Diameter: 2.0)
G0 Z5.000
G0 X-35.500 Y12.250
G0 Z3.000
G1 X-35.500 Y12.250 Z-0.500 F30.000
G1 X-39.000 Y12.250 Z-0.500 F30.000
G1 X-39.000 Y11.250 Z-0.500 F30.000
G1 X-35.500 Y11.250 Z-0.500 F30.000
G1 X-35.500 Y12.250 Z-0.500 F30.000
G1 X-35.500 Y12.250 Z-1.000 F30.000
G1 X-39.000 Y12.250 Z-1.000 F30.000
G1 X-39.000 Y11.250 Z-1.000 F30.000
G1 X-35.500 Y11.250 Z-1.000 F30.000
G1 X-35.500 Y12.250 Z-1.000 F30.000
G1 X-35.500 Y12.250 Z-1.500 F30.000
G1 X-39.000 Y12.250 Z-1.500 F30.000
G1 X-39.000 Y11.250 Z-1.500 F30.000
G1 X-35.500 Y11.250 Z-1.500 F30.000
G1 X-35.500 Y12.250 Z-1.500 F30.000
G1 X-35.500 Y12.250 Z-2.000 F30.000
G1 X-39.000 Y12.250 Z-2.000 F30.000
G1 X-39.000 Y11.250 Z-2.000 F30.000
G1 X-35.500 Y11.250 Z-2.000 F30.000
G1 X-35.500 Y12.250 Z-2.000 F30.000
G1 X-35.500 Y12.250 Z-2.500 F30.000
G1 X-39.000 Y12.250 Z-2.500 F30.000
G1 X-39.000 Y11.250 Z-2.500 F30.000
G1 X-35.500 Y11.250 Z-2.500 F30.000
G1 X-35.500 Y12.250 Z-2.500 F30.000
G1 X-35.500 Y12.250 Z-3.000 F30.000
G1 X-39.000 Y12.250 Z-3.000 F30.000
G1 X-39.000 Y11.250 Z-3.000 F30.000
G1 X-35.500 Y11.250 Z-3.000 F30.000
G1 X-35.500 Y12.250 Z-3.000 F30.000
G1 X-35.500 Y12.250 Z-3.500 F30.000
G1 X-39.000 Y12.250 Z-3.500 F30.000
G1 X-39.000 Y11.250 Z-3.500 F30.000
G1 X-35.500 Y11.250 Z-3.500 F30.000
G1 X-35.500 Y12.250 Z-3.500 F30.000
G1 X-35.500 Y12.250 Z-4.000 F30.000
G1 X-39.000 Y12.250 Z-4.000 F30.000
G1 X-39.000 Y11.250 Z-4.000 F30.000
G1 X-35.500 Y11.250 Z-4.000 F30.000
G1 X-35.500 Y12.250 Z-4.000 F30.000
G1 X-35.500 Y12.250 Z-4.500 F30.000
G1 X-39.000 Y12.250 Z-4.500 F30.000
G1 X-39.000 Y11.250 Z-4.500 F30.000
G1 X-35.500 Y11.250 Z-4.500 F30.000
G1 X-35.500 Y12.250 Z-4.500 F30.000
G1 X-35.500 Y12.250 Z-5.000 F30.000
G1 X-39.000 Y12.250 Z-5.000 F30.000
G1 X-39.000 Y11.250 Z-5.000 F30.000
G1 X-35.500 Y11.250 Z-5.000 F30.000
G1 X-35.500 Y12.250 Z-5.000 F30.000
G0 Z5.000
G0 Z5.000
(Finish operation: Profile042)
(Begin operation: Profile043)
(Path: Profile043)
(Profile043)
(Compensated Tool Path. Diameter: 2.0)
G0 Z5.000
G0 X-33.088 Y25.203
G0 Z3.000
G1 X-33.088 Y25.203 Z-0.500 F30.000
G3 X-35.117 Y25.690 Z-0.500 I-1.412 J-1.412 K0.000 F30.000
G3 X-33.883 Y21.892 Z-0.500 I0.617 J-1.899 K0.000 F30.000
G3 X-33.088 Y25.203 Z-0.500 I-0.617 J1.899 K0.000 F30.000
G1 X-33.088 Y25.203 Z-1.000 F30.000
G3 X-35.117 Y25.690 Z-1.000 I-1.412 J-1.412 K0.000 F30.000
G3 X-33.883 Y21.892 Z-1.000 I0.617 J-1.899 K0.000 F30.000
G3 X-33.088 Y25.203 Z-1.000 I-0.617 J1.899 K0.000 F30.000
G1 X-33.088 Y25.203 Z-1.500 F30.000
G3 X-35.117 Y25.690 Z-1.500 I-1.412 J-1.412 K0.000 F30.000
G3 X-33.883 Y21.892 Z-1.500 I0.617 J-1.899 K0.000 F30.000
G3 X-33.088 Y25.203 Z-1.500 I-0.617 J1.899 K0.000 F30.000
G1 X-33.088 Y25.203 Z-2.000 F30.000
G3 X-35.117 Y25.690 Z-2.000 I-1.412 J-1.412 K0.000 F30.000
G3 X-33.883 Y21.892 Z-2.000 I0.617 J-1.899 K0.000 F30.000
G3 X-33.088 Y25.203 Z-2.000 I-0.617 J1.899 K0.000 F30.000
G1 X-33.088 Y25.203 Z-2.500 F30.000
G3 X-35.117 Y25.690 Z-2.500 I-1.412 J-1.412 K0.000 F30.000
G3 X-33.883 Y21.892 Z-2.500 I0.617 J-1.899 K0.000 F30.000
G3 X-33.088 Y25.203 Z-2.500 I-0.617 J1.899 K0.000 F30.000
G1 X-33.088 Y25.203 Z-3.000 F30.000
G3 X-35.117 Y25.690 Z-3.000 I-1.412 J-1.412 K0.000 F30.000
G3 X-33.883 Y21.892 Z-3.000 I0.617 J-1.899 K0.000 F30.000
G3 X-33.088 Y25.203 Z-3.000 I-0.617 J1.899 K0.000 F30.000
G1 X-33.088 Y25.203 Z-3.500 F30.000
G3 X-35.117 Y25.690 Z-3.500 I-1.412 J-1.412 K0.000 F30.000
G3 X-33.883 Y21.892 Z-3.500 I0.617 J-1.899 K0.000 F30.000
G3 X-33.088 Y25.203 Z-3.500 I-0.617 J1.899 K0.000 F30.000
G1 X-33.088 Y25.203 Z-4.000 F30.000
G3 X-35.117 Y25.690 Z-4.000 I-1.412 J-1.412 K0.000 F30.000
G3 X-33.883 Y21.892 Z-4.000 I0.617 J-1.899 K0.000 F30.000
G3 X-33.088 Y25.203 Z-4.000 I-0.617 J1.899 K0.000 F30.000
G1 X-33.088 Y25.203 Z-4.500 F30.000
G3 X-35.117 Y25.690 Z-4.500 I-1.412 J-1.412 K0.000 F30.000
G3 X-33.883 Y21.892 Z-4.500 I0.617 J-1.899 K0.000 F30.000
G3 X-33.088 Y25.203 Z-4.500 I-0.617 J1.899 K0.000 F30.000
G1 X-33.088 Y25.203 Z-5.000 F30.000
G3 X-35.117 Y25.690 Z-5.000 I-1.412 J-1.412 K0.000 F30.000
G3 X-33.883 Y21.892 Z-5.000 I0.617 J-1.899 K0.000 F30.000
G3 X-33.088 Y25.203 Z-5.000 I-0.617 J1.899 K0.000 F30.000
G0 Z5.000
G0 Z5.000
(Finish operation: Profile043)
(Begin operation: Profile044)
(Path: Profile044)
(Profile044)
(Compensated Tool Path. Diameter: 2.0)
G0 Z5.000
G0 X-21.819 Y26.972
G0 Z3.000
G1 X-21.819 Y26.972 Z-0.500 F30.000
G3 X-25.763 Y28.224 Z-0.500 I-3.181 J-3.181 K0.000 F30.000
G3 X-29.432 Y23.019 Z-0.500 I0.763 J-4.433 K0.000 F30.000
G3 X-24.219 Y19.361 Z-0.500 I4.432 J0.772 K0.000 F30.000
G3 X-21.819 Y26.972 Z-0.500 I-0.781 J4.430 K0.000 F30.000
G1 X-21.819 Y26.972 Z-1.000 F30.000
G3 X-25.763 Y28.224 Z-1.000 I-3.181 J-3.181 K0.000 F30.000
G3 X-29.432 Y23.019 Z-1.000 I0.763 J-4.433 K0.000 F30.000
G3 X-24.219 Y19.361 Z-1.000 I4.432 J0.772 K0.000 F30.000
G3 X-21.819 Y26.972 Z-1.000 I-0.781 J4.430 K0.000 F30.000
G1 X-21.819 Y26.972 Z-1.500 F30.000
G3 X-25.763 Y28.224 Z-1.500 I-3.181 J-3.181 K0.000 F30.000
G3 X-29.432 Y23.019 Z-1.500 I0.763 J-4.433 K0.000 F30.000
G3 X-24.219 Y19.361 Z-1.500 I4.432 J0.772 K0.000 F30.000
G3 X-21.819 Y26.972 Z-1.500 I-0.781 J4.430 K0.000 F30.000
G1 X-21.819 Y26.972 Z-2.000 F30.000
G3 X-25.763 Y28.224 Z-2.000 I-3.181 J-3.181 K0.000 F30.000
G3 X-29.432 Y23.019 Z-2.000 I0.763 J-4.433 K0.000 F30.000
G3 X-24.219 Y19.361 Z-2.000 I4.432 J0.772 K0.000 F30.000
G3 X-21.819 Y26.972 Z-2.000 I-0.781 J4.430 K0.000 F30.000
G1 X-21.819 Y26.972 Z-2.500 F30.000
G3 X-25.763 Y28.224 Z-2.500 I-3.181 J-3.181 K0.000 F30.000
G3 X-29.432 Y23.019 Z-2.500 I0.763 J-4.433 K0.000 F30.000
G3 X-24.219 Y19.361 Z-2.500 I4.432 J0.772 K0.000 F30.000
G3 X-21.819 Y26.972 Z-2.500 I-0.781 J4.430 K0.000 F30.000
G1 X-21.819 Y26.972 Z-3.000 F30.000
G3 X-25.763 Y28.224 Z-3.000 I-3.181 J-3.181 K0.000 F30.000
G3 X-29.432 Y23.019 Z-3.000 I0.763 J-4.433 K0.000 F30.000
G3 X-24.219 Y19.361 Z-3.000 I4.432 J0.772 K0.000 F30.000
G3 X-21.819 Y26.972 Z-3.000 I-0.781 J4.430 K0.000 F30.000
G1 X-21.819 Y26.972 Z-3.500 F30.000
G3 X-25.763 Y28.224 Z-3.500 I-3.181 J-3.181 K0.000 F30.000
G3 X-29.432 Y23.019 Z-3.500 I0.763 J-4.433 K0.000 F30.000
G3 X-24.219 Y19.361 Z-3.500 I4.432 J0.772 K0.000 F30.000
G3 X-21.819 Y26.972 Z-3.500 I-0.781 J4.430 K0.000 F30.000
G1 X-21.819 Y26.972 Z-4.000 F30.000
G3 X-25.763 Y28.224 Z-4.000 I-3.181 J-3.181 K0.000 F30.000
G3 X-29.432 Y23.019 Z-4.000 I0.763 J-4.433 K0.000 F30.000
G3 X-24.219 Y19.361 Z-4.000 I4.432 J0.772 K0.000 F30.000
G3 X-21.819 Y26.972 Z-4.000 I-0.781 J4.430 K0.000 F30.000
G1 X-21.819 Y26.972 Z-4.500 F30.000
G3 X-25.763 Y28.224 Z-4.500 I-3.181 J-3.181 K0.000 F30.000
G3 X-29.432 Y23.019 Z-4.500 I0.763 J-4.433 K0.000 F30.000
G3 X-24.219 Y19.361 Z-4.500 I4.432 J0.772 K0.000 F30.000
G3 X-21.819 Y26.972 Z-4.500 I-0.781 J4.430 K0.000 F30.000
G1 X-21.819 Y26.972 Z-5.000 F30.000
G3 X-25.763 Y28.224 Z-5.000 I-3.181 J-3.181 K0.000 F30.000
G3 X-29.432 Y23.019 Z-5.000 I0.763 J-4.433 K0.000 F30.000
G3 X-24.219 Y19.361 Z-5.000 I4.432 J0.772 K0.000 F30.000
G3 X-21.819 Y26.972 Z-5.000 I-0.781 J4.430 K0.000 F30.000
G0 Z5.000
G0 Z5.000
(Finish operation: Profile044)
(Begin operation: Profile045)
(Path: Profile045)
(Profile045)
(Compensated Tool Path. Diameter: 2.0)
G0 Z5.000
G0 X-15.222 Y24.069
G0 Z3.000
G1 X-15.222 Y24.069 Z-0.500 F30.000
G3 X-15.671 Y24.145 Z-0.500 I-0.278 J-0.278 K0.000 F30.000
G3 X-15.855 Y23.620 Z-0.500 I0.171 J-0.355 K0.000 F30.000
G3 X-15.329 Y23.436 Z-0.500 I0.355 J0.171 K0.000 F30.000
G3 X-15.222 Y24.069 Z-0.500 I-0.171 J0.355 K0.000 F30.000
G1 X-15.222 Y24.069 Z-1.000 F30.000
G3 X-15.671 Y24.145 Z-1.000 I-0.278 J-0.278 K0.000 F30.000
G3 X-15.855 Y23.620 Z-1.000 I0.171 J-0.355 K0.000 F30.000
G3 X-15.329 Y23.436 Z-1.000 I0.355 J0.171 K0.000 F30.000
G3 X-15.222 Y24.069 Z-1.000 I-0.171 J0.355 K0.000 F30.000
G1 X-15.222 Y24.069 Z-1.500 F30.000
G3 X-15.671 Y24.145 Z-1.500 I-0.278 J-0.278 K0.000 F30.000
G3 X-15.855 Y23.620 Z-1.500 I0.171 J-0.355 K0.000 F30.000
G3 X-15.329 Y23.436 Z-1.500 I0.355 J0.171 K0.000 F30.000
G3 X-15.222 Y24.069 Z-1.500 I-0.171 J0.355 K0.000 F30.000
G1 X-15.222 Y24.069 Z-2.000 F30.000
G3 X-15.671 Y24.145 Z-2.000 I-0.278 J-0.278 K0.000 F30.000
G3 X-15.855 Y23.620 Z-2.000 I0.171 J-0.355 K0.000 F30.000
G3 X-15.329 Y23.436 Z-2.000 I0.355 J0.171 K0.000 F30.000
G3 X-15.222 Y24.069 Z-2.000 I-0.171 J0.355 K0.000 F30.000
G1 X-15.222 Y24.069 Z-2.500 F30.000
G3 X-15.671 Y24.145 Z-2.500 I-0.278 J-0.278 K0.000 F30.000
G3 X-15.855 Y23.620 Z-2.500 I0.171 J-0.355 K0.000 F30.000
G3 X-15.329 Y23.436 Z-2.500 I0.355 J0.171 K0.000 F30.000
G3 X-15.222 Y24.069 Z-2.500 I-0.171 J0.355 K0.000 F30.000
G1 X-15.222 Y24.069 Z-3.000 F30.000
G3 X-15.671 Y24.145 Z-3.000 I-0.278 J-0.278 K0.000 F30.000
G3 X-15.855 Y23.620 Z-3.000 I0.171 J-0.355 K0.000 F30.000
G3 X-15.329 Y23.436 Z-3.000 I0.355 J0.171 K0.000 F30.000
G3 X-15.222 Y24.069 Z-3.000 I-0.171 J0.355 K0.000 F30.000
G1 X-15.222 Y24.069 Z-3.500 F30.000
G3 X-15.671 Y24.145 Z-3.500 I-0.278 J-0.278 K0.000 F30.000
G3 X-15.855 Y23.620 Z-3.500 I0.171 J-0.355 K0.000 F30.000
G3 X-15.329 Y23.436 Z-3.500 I0.355 J0.171 K0.000 F30.000
G3 X-15.222 Y24.069 Z-3.500 I-0.171 J0.355 K0.000 F30.000
G1 X-15.222 Y24.069 Z-4.000 F30.000
G3 X-15.671 Y24.145 Z-4.000 I-0.278 J-0.278 K0.000 F30.000
G3 X-15.855 Y23.620 Z-4.000 I0.171 J-0.355 K0.000 F30.000
G3 X-15.329 Y23.436 Z-4.000 I0.355 J0.171 K0.000 F30.000
G3 X-15.222 Y24.069 Z-4.000 I-0.171 J0.355 K0.000 F30.000
G1 X-15.222 Y24.069 Z-4.500 F30.000
G3 X-15.671 Y24.145 Z-4.500 I-0.278 J-0.278 K0.000 F30.000
G3 X-15.855 Y23.620 Z-4.500 I0.171 J-0.355 K0.000 F30.000
G3 X-15.329 Y23.436 Z-4.500 I0.355 J0.171 K0.000 F30.000
G3 X-15.222 Y24.069 Z-4.500 I-0.171 J0.355 K0.000 F30.000
G1 X-15.222 Y24.069 Z-5.000 F30.000
G3 X-15.671 Y24.145 Z-5.000 I-0.278 J-0.278 K0.000 F30.000
G3 X-15.855 Y23.620 Z-5.000 I0.171 J-0.355 K0.000 F30.000
G3 X-15.329 Y23.436 Z-5.000 I0.355 J0.171 K0.000 F30.000
G3 X-15.222 Y24.069 Z-5.000 I-0.171 J0.355 K0.000 F30.000
G0 Z5.000
G0 Z5.000
(Finish operation: Profile045)
(Begin operation: Profile046)
(Path: Profile046)
(Profile046)
(Compensated Tool Path. Diameter: 2.0)
G0 Z5.000
G0 X-9.697 Y28.810
G0 Z3.000
G1 X-9.697 Y28.810 Z-0.500 F30.000
G3 X-10.146 Y28.886 Z-0.500 I-0.278 J-0.278 K0.000 F30.000
G3 X-10.330 Y28.360 Z-0.500 I0.171 J-0.355 K0.000 F30.000
G3 X-9.805 Y28.177 Z-0.500 I0.355 J0.171 K0.000 F30.000
G3 X-9.697 Y28.810 Z-0.500 I-0.171 J0.355 K0.000 F30.000
G1 X-9.697 Y28.810 Z-1.000 F30.000
G3 X-10.146 Y28.886 Z-1.000 I-0.278 J-0.278 K0.000 F30.000
G3 X-10.330 Y28.360 Z-1.000 I0.171 J-0.355 K0.000 F30.000
G3 X-9.805 Y28.177 Z-1.000 I0.355 J0.171 K0.000 F30.000
G3 X-9.697 Y28.810 Z-1.000 I-0.171 J0.355 K0.000 F30.000
G1 X-9.697 Y28.810 Z-1.500 F30.000
G3 X-10.146 Y28.886 Z-1.500 I-0.278 J-0.278 K0.000 F30.000
G3 X-10.330 Y28.360 Z-1.500 I0.171 J-0.355 K0.000 F30.000
G3 X-9.805 Y28.177 Z-1.500 I0.355 J0.171 K0.000 F30.000
G3 X-9.697 Y28.810 Z-1.500 I-0.171 J0.355 K0.000 F30.000
G1 X-9.697 Y28.810 Z-2.000 F30.000
G3 X-10.146 Y28.886 Z-2.000 I-0.278 J-0.278 K0.000 F30.000
G3 X-10.330 Y28.360 Z-2.000 I0.171 J-0.355 K0.000 F30.000
G3 X-9.805 Y28.177 Z-2.000 I0.355 J0.171 K0.000 F30.000
G3 X-9.697 Y28.810 Z-2.000 I-0.171 J0.355 K0.000 F30.000
G1 X-9.697 Y28.810 Z-2.500 F30.000
G3 X-10.146 Y28.886 Z-2.500 I-0.278 J-0.278 K0.000 F30.000
G3 X-10.330 Y28.360 Z-2.500 I0.171 J-0.355 K0.000 F30.000
G3 X-9.805 Y28.177 Z-2.500 I0.355 J0.171 K0.000 F30.000
G3 X-9.697 Y28.810 Z-2.500 I-0.171 J0.355 K0.000 F30.000
G1 X-9.697 Y28.810 Z-3.000 F30.000
G3 X-10.146 Y28.886 Z-3.000 I-0.278 J-0.278 K0.000 F30.000
G3 X-10.330 Y28.360 Z-3.000 I0.171 J-0.355 K0.000 F30.000
G3 X-9.805 Y28.177 Z-3.000 I0.355 J0.171 K0.000 F30.000
G3 X-9.697 Y28.810 Z-3.000 I-0.171 J0.355 K0.000 F30.000
G1 X-9.697 Y28.810 Z-3.500 F30.000
G3 X-10.146 Y28.886 Z-3.500 I-0.278 J-0.278 K0.000 F30.000
G3 X-10.330 Y28.360 Z-3.500 I0.171 J-0.355 K0.000 F30.000
G3 X-9.805 Y28.177 Z-3.500 I0.355 J0.171 K0.000 F30.000
G3 X-9.697 Y28.810 Z-3.500 I-0.171 J0.355 K0.000 F30.000
G1 X-9.697 Y28.810 Z-4.000 F30.000
G3 X-10.146 Y28.886 Z-4.000 I-0.278 J-0.278 K0.000 F30.000
G3 X-10.330 Y28.360 Z-4.000 I0.171 J-0.355 K0.000 F30.000
G3 X-9.805 Y28.177 Z-4.000 I0.355 J0.171 K0.000 F30.000
G3 X-9.697 Y28.810 Z-4.000 I-0.171 J0.355 K0.000 F30.000
G1 X-9.697 Y28.810 Z-4.500 F30.000
G3 X-10.146 Y28.886 Z-4.500 I-0.278 J-0.278 K0.000 F30.000
G3 X-10.330 Y28.360 Z-4.500 I0.171 J-0.355 K0.000 F30.000
G3 X-9.805 Y28.177 Z-4.500 I0.355 J0.171 K0.000 F30.000
G3 X-9.697 Y28.810 Z-4.500 I-0.171 J0.355 K0.000 F30.000
G1 X-9.697 Y28.810 Z-5.000 F30.000
G3 X-10.146 Y28.886 Z-5.000 I-0.278 J-0.278 K0.000 F30.000
G3 X-10.330 Y28.360 Z-5.000 I0.171 J-0.355 K0.000 F30.000
G3 X-9.805 Y28.177 Z-5.000 I0.355 J0.171 K0.000 F30.000
G3 X-9.697 Y28.810 Z-5.000 I-0.171 J0.355 K0.000 F30.000
G0 Z5.000
G0 Z5.000
(Finish operation: Profile046)
(Begin operation: Profile047)
(Path: Profile047)
(Profile047)
(Compensated Tool Path. Diameter: 2.0)
G0 Z5.000
G0 X-35.500 Y36.250
G0 Y36.250
G0 Y36.250 Z3.000
G1 X-35.500 Y36.250 Z-0.500 F30.000
G1 X-39.000 Y36.250 Z-0.500 F30.000
G1 X-39.000 Y35.250 Z-0.500 F30.000
G1 X-35.500 Y35.250 Z-0.500 F30.000
G1 X-35.500 Y36.250 Z-0.500 F30.000
G1 X-35.500 Y36.250 Z-1.000 F30.000
G1 X-39.000 Y36.250 Z-1.000 F30.000
G1 X-39.000 Y35.250 Z-1.000 F30.000
G1 X-35.500 Y35.250 Z-1.000 F30.000
G1 X-35.500 Y36.250 Z-1.000 F30.000
G1 X-35.500 Y36.250 Z-1.500 F30.000
G1 X-39.000 Y36.250 Z-1.500 F30.000
G1 X-39.000 Y35.250 Z-1.500 F30.000
G1 X-35.500 Y35.250 Z-1.500 F30.000
G1 X-35.500 Y36.250 Z-1.500 F30.000
G1 X-35.500 Y36.250 Z-2.000 F30.000
G1 X-39.000 Y36.250 Z-2.000 F30.000
G1 X-39.000 Y35.250 Z-2.000 F30.000
G1 X-35.500 Y35.250 Z-2.000 F30.000
G1 X-35.500 Y36.250 Z-2.000 F30.000
G1 X-35.500 Y36.250 Z-2.500 F30.000
G1 X-39.000 Y36.250 Z-2.500 F30.000
G1 X-39.000 Y35.250 Z-2.500 F30.000
G1 X-35.500 Y35.250 Z-2.500 F30.000
G1 X-35.500 Y36.250 Z-2.500 F30.000
G1 X-35.500 Y36.250 Z-3.000 F30.000
G1 X-39.000 Y36.250 Z-3.000 F30.000
G1 X-39.000 Y35.250 Z-3.000 F30.000
G1 X-35.500 Y35.250 Z-3.000 F30.000
G1 X-35.500 Y36.250 Z-3.000 F30.000
G1 X-35.500 Y36.250 Z-3.500 F30.000
G1 X-39.000 Y36.250 Z-3.500 F30.000
G1 X-39.000 Y35.250 Z-3.500 F30.000
G1 X-35.500 Y35.250 Z-3.500 F30.000
G1 X-35.500 Y36.250 Z-3.500 F30.000
G1 X-35.500 Y36.250 Z-4.000 F30.000
G1 X-39.000 Y36.250 Z-4.000 F30.000
G1 X-39.000 Y35.250 Z-4.000 F30.000
G1 X-35.500 Y35.250 Z-4.000 F30.000
G1 X-35.500 Y36.250 Z-4.000 F30.000
G1 X-35.500 Y36.250 Z-4.500 F30.000
G1 X-39.000 Y36.250 Z-4.500 F30.000
G1 X-39.000 Y35.250 Z-4.500 F30.000
G1 X-35.500 Y35.250 Z-4.500 F30.000
G1 X-35.500 Y36.250 Z-4.500 F30.000
G1 X-35.500 Y36.250 Z-5.000 F30.000
G1 X-39.000 Y36.250 Z-5.000 F30.000
G1 X-39.000 Y35.250 Z-5.000 F30.000
G1 X-35.500 Y35.250 Z-5.000 F30.000
G1 X-35.500 Y36.250 Z-5.000 F30.000
G0 Z5.000
G0 Z5.000
(Finish operation: Profile047)
(Begin operation: Profile048)
(Path: Profile048)
(Profile048)
(Compensated Tool Path. Diameter: 2.0)
G0 Z5.000
G0 X-28.246 Y39.247
G0 Z3.000
G1 X-28.246 Y39.247 Z-0.500 F30.000
G3 X-28.695 Y39.323 Z-0.500 I-0.278 J-0.278 K0.000 F30.000
G3 X-28.879 Y38.798 Z-0.500 I0.171 J-0.355 K0.000 F30.000
G3 X-28.354 Y38.614 Z-0.500 I0.355 J0.171 K0.000 F30.000
G3 X-28.246 Y39.247 Z-0.500 I-0.171 J0.355 K0.000 F30.000
G1 X-28.246 Y39.247 Z-1.000 F30.000
G3 X-28.695 Y39.323 Z-1.000 I-0.278 J-0.278 K0.000 F30.000
G3 X-28.879 Y38.798 Z-1.000 I0.171 J-0.355 K0.000 F30.000
G3 X-28.354 Y38.614 Z-1.000 I0.355 J0.171 K0.000 F30.000
G3 X-28.246 Y39.247 Z-1.000 I-0.171 J0.355 K0.000 F30.000
G1 X-28.246 Y39.247 Z-1.500 F30.000
G3 X-28.695 Y39.323 Z-1.500 I-0.278 J-0.278 K0.000 F30.000
G3 X-28.879 Y38.798 Z-1.500 I0.171 J-0.355 K0.000 F30.000
