(Exported by FreeCAD)
(Post Processor: grbl_post)
(Output Time:2025-08-19 08:54:53.830097)
(Begin preamble)
G17 G90
G21
(Begin operation: Fixture)
(Path: Fixture)
G54
(Finish operation: Fixture)
(Begin operation: 2mm-6-Endmill003)
(Path: 2mm-6-Endmill003)
(2mm-6-Endmill003)
(Begin toolchange)
( M6 T2 )
(Finish operation: 2mm-6-Endmill003)
(Begin operation: Pocket_Shape001)
(Path: Pocket_Shape001)
(Pocket_Shape001)
G0 Z3.000
G0
G0 X-7.033 Y-12.250
G0 X-7.033 Y-12.250 Z1.000
G1 X-7.033 Y-12.250 Z-0.500 F30.000
G1 X-7.033 Y-1.250 Z-0.500 F30.000
G1 X-7.333 Y-1.250 Z-0.500 F30.000
G1 X-7.333 Y-12.250 Z-0.500 F30.000
G1 X-7.033 Y-12.250 Z-0.500 F30.000
G0 Z3.000
G0 Z3.000
G0 X0.000 Y0.000
G0 X-7.033 Y1.250
G0 X-7.033 Y1.250 Z1.000
G1 X-7.033 Y1.250 Z-0.500 F30.000
G1 X-7.033 Y12.250 Z-0.500 F30.000
G1 X-7.333 Y12.250 Z-0.500 F30.000
G1 X-7.333 Y1.250 Z-0.500 F30.000
G1 X-7.033 Y1.250 Z-0.500 F30.000
G0 Z3.000
G0 Z3.000
G0 X0.000 Y0.000
G0 X7.333 Y1.250
G0 X7.333 Y1.250 Z1.000
G1 X7.333 Y1.250 Z-0.500 F30.000
G1 X7.333 Y12.250 Z-0.500 F30.000
G1 X7.033 Y12.250 Z-0.500 F30.000
G1 X7.033 Y1.250 Z-0.500 F30.000
G1 X7.333 Y1.250 Z-0.500 F30.000
G0 Z3.000
G0 Z3.000
G0 X0.000 Y0.000
G0 X7.333 Y-12.250
G0 X7.333 Y-12.250 Z1.000
G1 X7.333 Y-12.250 Z-0.500 F30.000
G1 X7.333 Y-1.250 Z-0.500 F30.000
G1 X7.033 Y-1.250 Z-0.500 F30.000
G1 X7.033 Y-12.250 Z-0.500 F30.000
G1 X7.333 Y-12.250 Z-0.500 F30.000
G0 Z3.000
G0 Z3.000
G0 X0.000 Y0.000
G0 X37.333 Y-12.250
G0 X37.333 Y-12.250 Z1.000
G1 X37.333 Y-12.250 Z-0.500 F30.000
G1 X37.333 Y-1.250 Z-0.500 F30.000
G1 X37.033 Y-1.250 Z-0.500 F30.000
G1 X37.033 Y-12.250 Z-0.500 F30.000
G1 X37.333 Y-12.250 Z-0.500 F30.000
G0 Z3.000
G0 Z3.000
G0 X0.000 Y0.000
G0 X37.333 Y1.250
G0 X37.333 Y1.250 Z1.000
G1 X37.333 Y1.250 Z-0.500 F30.000
G1 X37.333 Y12.250 Z-0.500 F30.000
G1 X37.033 Y12.250 Z-0.500 F30.000
G1 X37.033 Y1.250 Z-0.500 F30.000
G1 X37.333 Y1.250 Z-0.500 F30.000
G0 Z3.000
G0 Z3.000
G0 X0.000 Y0.000
G0 X37.333 Y35.250
G0 X37.333 Y35.250 Z1.000
G1 X37.333 Y35.250 Z-0.500 F30.000
G1 X37.333 Y46.250 Z-0.500 F30.000
G1 X37.033 Y46.250 Z-0.500 F30.000
G1 X37.033 Y35.250 Z-0.500 F30.000
G1 X37.333 Y35.250 Z-0.500 F30.000
G0 Z3.000
G0 Z3.000
G0 X0.000 Y0.000
G0 X7.333 Y35.250
G0 X7.333 Y35.250 Z1.000
G1 X7.333 Y35.250 Z-0.500 F30.000
G1 X7.333 Y46.250 Z-0.500 F30.000
G1 X7.033 Y46.250 Z-0.500 F30.000
G1 X7.033 Y35.250 Z-0.500 F30.000
G1 X7.333 Y35.250 Z-0.500 F30.000
G0 Z3.000
G0 Z3.000
G0 X0.000 Y0.000
G0 X-7.033 Y35.250
G0 X-7.033 Y35.250 Z1.000
G1 X-7.033 Y35.250 Z-0.500 F30.000
G1 X-7.033 Y46.250 Z-0.500 F30.000
G1 X-7.333 Y46.250 Z-0.500 F30.000
G1 X-7.333 Y35.250 Z-0.500 F30.000
G1 X-7.033 Y35.250 Z-0.500 F30.000
G0 Z3.000
G0 Z3.000
G0 X0.000 Y0.000
G0 X-37.033 Y35.250
G0 X-37.033 Y35.250 Z1.000
G1 X-37.033 Y35.250 Z-0.500 F30.000
G1 X-37.033 Y46.250 Z-0.500 F30.000
G1 X-37.333 Y46.250 Z-0.500 F30.000
G1 X-37.333 Y35.250 Z-0.500 F30.000
G1 X-37.033 Y35.250 Z-0.500 F30.000
G0 Z3.000
G0 Z3.000
G0 X0.000 Y0.000
G0 X-37.033 Y1.250
G0 X-37.033 Y1.250 Z1.000
G1 X-37.033 Y1.250 Z-0.500 F30.000
G1 X-37.033 Y12.250 Z-0.500 F30.000
G1 X-37.333 Y12.250 Z-0.500 F30.000
G1 X-37.333 Y1.250 Z-0.500 F30.000
G1 X-37.033 Y1.250 Z-0.500 F30.000
G0 Z3.000
G0 Z3.000
G0 X0.000 Y0.000
G0 X-37.033 Y-12.250
G0 X-37.033 Y-12.250 Z1.000
G1 X-37.033 Y-12.250 Z-0.500 F30.000
G1 X-37.033 Y-1.250 Z-0.500 F30.000
G1 X-37.333 Y-1.250 Z-0.500 F30.000
G1 X-37.333 Y-12.250 Z-0.500 F30.000
G1 X-37.033 Y-12.250 Z-0.500 F30.000
G0 Z3.000
G0 Z3.000
G0 X0.000 Y0.000
G0 X-37.033 Y-46.250
G0 X-37.033 Y-46.250 Z1.000
G1 X-37.033 Y-46.250 Z-0.500 F30.000
G1 X-37.033 Y-35.250 Z-0.500 F30.000
G1 X-37.333 Y-35.250 Z-0.500 F30.000
G1 X-37.333 Y-46.250 Z-0.500 F30.000
G1 X-37.033 Y-46.250 Z-0.500 F30.000
G0 Z3.000
G0 Z3.000
G0 X0.000 Y0.000
G0 X-7.033 Y-46.250
G0 X-7.033 Y-46.250 Z1.000
G1 X-7.033 Y-46.250 Z-0.500 F30.000
G1 X-7.033 Y-35.250 Z-0.500 F30.000
G1 X-7.333 Y-35.250 Z-0.500 F30.000
G1 X-7.333 Y-46.250 Z-0.500 F30.000
G1 X-7.033 Y-46.250 Z-0.500 F30.000
G0 Z3.000
G0 Z3.000
G0 X0.000 Y0.000
G0 X7.333 Y-46.250
G0 X7.333 Y-46.250 Z1.000
G1 X7.333 Y-46.250 Z-0.500 F30.000
G1 X7.333 Y-35.250 Z-0.500 F30.000
G1 X7.033 Y-35.250 Z-0.500 F30.000
G1 X7.033 Y-46.250 Z-0.500 F30.000
G1 X7.333 Y-46.250 Z-0.500 F30.000
G0 Z3.000
G0 Z3.000
G0 X0.000 Y0.000
G0 X37.333 Y-46.250
G0 X37.333 Y-46.250 Z1.000
G1 X37.333 Y-46.250 Z-0.500 F30.000
G1 X37.333 Y-35.250 Z-0.500 F30.000
G1 X37.033 Y-35.250 Z-0.500 F30.000
G1 X37.033 Y-46.250 Z-0.500 F30.000
G1 X37.333 Y-46.250 Z-0.500 F30.000
G0 Z3.000
G0 Z3.000
(Finish operation: Pocket_Shape001)
(Begin postamble)
M5
G17 G90
M2
