(Exported by FreeCAD)
(Post Processor: grbl_post)
(Output Time:2025-08-17 09:28:32.184792)
(Begin preamble)
G17 G90
G21
(Begin operation: Fixture)
(Path: Fixture)
G54
(Finish operation: Fixture)
(Begin operation: 1mm-10-Endmill001)
(Path: 1mm-10-Endmill001)
(1mm-10-Endmill001)
(Begin toolchange)
( M6 T2 )
(Finish operation: 1mm-10-Endmill001)
(Begin operation: Profile051)
(Path: Profile051)
(Profile051)
(Compensated Tool Path. Diameter: 1.0)
G0 Z5.000
G0 X-17.111 Y-31.527
G0 Z3.000
G1 X-17.111 Y-31.527 Z-0.250 F30.000
G1 X-17.539 Y-30.786 Z-0.250 F30.000
G1 X-20.961 Y-30.786 Z-0.250 F30.000
G1 X-22.673 Y-33.750 Z-0.250 F30.000
G1 X-20.961 Y-36.714 Z-0.250 F30.000
G1 X-17.539 Y-36.714 Z-0.250 F30.000
G1 X-15.827 Y-33.750 Z-0.250 F30.000
G1 X-17.111 Y-31.527 Z-0.250 F30.000
G1 X-17.111 Y-31.527 Z-0.500 F30.000
G1 X-17.539 Y-30.786 Z-0.500 F30.000
G1 X-20.961 Y-30.786 Z-0.500 F30.000
G1 X-22.673 Y-33.750 Z-0.500 F30.000
G1 X-20.961 Y-36.714 Z-0.500 F30.000
G1 X-17.539 Y-36.714 Z-0.500 F30.000
G1 X-15.827 Y-33.750 Z-0.500 F30.000
G1 X-17.111 Y-31.527 Z-0.500 F30.000
G1 X-17.111 Y-31.527 Z-0.750 F30.000
G1 X-17.539 Y-30.786 Z-0.750 F30.000
G1 X-20.961 Y-30.786 Z-0.750 F30.000
G1 X-22.673 Y-33.750 Z-0.750 F30.000
G1 X-20.961 Y-36.714 Z-0.750 F30.000
G1 X-17.539 Y-36.714 Z-0.750 F30.000
G1 X-15.827 Y-33.750 Z-0.750 F30.000
G1 X-17.111 Y-31.527 Z-0.750 F30.000
G1 X-17.111 Y-31.527 Z-1.000 F30.000
G1 X-17.539 Y-30.786 Z-1.000 F30.000
G1 X-20.961 Y-30.786 Z-1.000 F30.000
G1 X-22.673 Y-33.750 Z-1.000 F30.000
G1 X-20.961 Y-36.714 Z-1.000 F30.000
G1 X-17.539 Y-36.714 Z-1.000 F30.000
G1 X-15.827 Y-33.750 Z-1.000 F30.000
G1 X-17.111 Y-31.527 Z-1.000 F30.000
G1 X-17.111 Y-31.527 Z-1.250 F30.000
G1 X-17.539 Y-30.786 Z-1.250 F30.000
G1 X-20.961 Y-30.786 Z-1.250 F30.000
G1 X-22.673 Y-33.750 Z-1.250 F30.000
G1 X-20.961 Y-36.714 Z-1.250 F30.000
G1 X-17.539 Y-36.714 Z-1.250 F30.000
G1 X-15.827 Y-33.750 Z-1.250 F30.000
G1 X-17.111 Y-31.527 Z-1.250 F30.000
G1 X-17.111 Y-31.527 Z-1.500 F30.000
G1 X-17.539 Y-30.786 Z-1.500 F30.000
G1 X-20.961 Y-30.786 Z-1.500 F30.000
G1 X-22.673 Y-33.750 Z-1.500 F30.000
G1 X-20.961 Y-36.714 Z-1.500 F30.000
G1 X-17.539 Y-36.714 Z-1.500 F30.000
G1 X-15.827 Y-33.750 Z-1.500 F30.000
G1 X-17.111 Y-31.527 Z-1.500 F30.000
G1 X-17.111 Y-31.527 Z-1.750 F30.000
G1 X-17.539 Y-30.786 Z-1.750 F30.000
G1 X-20.961 Y-30.786 Z-1.750 F30.000
G1 X-22.673 Y-33.750 Z-1.750 F30.000
G1 X-20.961 Y-36.714 Z-1.750 F30.000
G1 X-17.539 Y-36.714 Z-1.750 F30.000
G1 X-15.827 Y-33.750 Z-1.750 F30.000
G1 X-17.111 Y-31.527 Z-1.750 F30.000
G1 X-17.111 Y-31.527 Z-2.000 F30.000
G1 X-17.539 Y-30.786 Z-2.000 F30.000
G1 X-20.961 Y-30.786 Z-2.000 F30.000
G1 X-22.673 Y-33.750 Z-2.000 F30.000
G1 X-20.961 Y-36.714 Z-2.000 F30.000
G1 X-17.539 Y-36.714 Z-2.000 F30.000
G1 X-15.827 Y-33.750 Z-2.000 F30.000
G1 X-17.111 Y-31.527 Z-2.000 F30.000
G1 X-17.111 Y-31.527 Z-2.250 F30.000
G1 X-17.539 Y-30.786 Z-2.250 F30.000
G1 X-20.961 Y-30.786 Z-2.250 F30.000
G1 X-22.673 Y-33.750 Z-2.250 F30.000
G1 X-20.961 Y-36.714 Z-2.250 F30.000
G1 X-17.539 Y-36.714 Z-2.250 F30.000
G1 X-15.827 Y-33.750 Z-2.250 F30.000
G1 X-17.111 Y-31.527 Z-2.250 F30.000
G1 X-17.111 Y-31.527 Z-2.500 F30.000
G1 X-17.539 Y-30.786 Z-2.500 F30.000
G1 X-20.961 Y-30.786 Z-2.500 F30.000
G1 X-22.673 Y-33.750 Z-2.500 F30.000
G1 X-20.961 Y-36.714 Z-2.500 F30.000
G1 X-17.539 Y-36.714 Z-2.500 F30.000
G1 X-15.827 Y-33.750 Z-2.500 F30.000
G1 X-17.111 Y-31.527 Z-2.500 F30.000
G1 X-17.111 Y-31.527 Z-2.750 F30.000
G1 X-17.539 Y-30.786 Z-2.750 F30.000
G1 X-20.961 Y-30.786 Z-2.750 F30.000
G1 X-22.673 Y-33.750 Z-2.750 F30.000
G1 X-20.961 Y-36.714 Z-2.750 F30.000
G1 X-17.539 Y-36.714 Z-2.750 F30.000
G1 X-15.827 Y-33.750 Z-2.750 F30.000
G1 X-17.111 Y-31.527 Z-2.750 F30.000
G1 X-17.111 Y-31.527 Z-3.000 F30.000
G1 X-17.539 Y-30.786 Z-3.000 F30.000
G1 X-20.961 Y-30.786 Z-3.000 F30.000
G1 X-22.673 Y-33.750 Z-3.000 F30.000
G1 X-20.961 Y-36.714 Z-3.000 F30.000
G1 X-17.539 Y-36.714 Z-3.000 F30.000
G1 X-15.827 Y-33.750 Z-3.000 F30.000
G1 X-17.111 Y-31.527 Z-3.000 F30.000
G1 X-17.111 Y-31.527 Z-3.250 F30.000
G1 X-17.539 Y-30.786 Z-3.250 F30.000
G1 X-20.961 Y-30.786 Z-3.250 F30.000
G1 X-22.673 Y-33.750 Z-3.250 F30.000
G1 X-20.961 Y-36.714 Z-3.250 F30.000
G1 X-17.539 Y-36.714 Z-3.250 F30.000
G1 X-15.827 Y-33.750 Z-3.250 F30.000
G1 X-17.111 Y-31.527 Z-3.250 F30.000
G1 X-17.111 Y-31.527 Z-3.500 F30.000
G1 X-17.539 Y-30.786 Z-3.500 F30.000
G1 X-20.961 Y-30.786 Z-3.500 F30.000
G1 X-22.673 Y-33.750 Z-3.500 F30.000
G1 X-20.961 Y-36.714 Z-3.500 F30.000
G1 X-17.539 Y-36.714 Z-3.500 F30.000
G1 X-15.827 Y-33.750 Z-3.500 F30.000
G1 X-17.111 Y-31.527 Z-3.500 F30.000
G1 X-17.111 Y-31.527 Z-3.750 F30.000
G1 X-17.539 Y-30.786 Z-3.750 F30.000
G1 X-20.961 Y-30.786 Z-3.750 F30.000
G1 X-22.673 Y-33.750 Z-3.750 F30.000
G1 X-20.961 Y-36.714 Z-3.750 F30.000
G1 X-17.539 Y-36.714 Z-3.750 F30.000
G1 X-15.827 Y-33.750 Z-3.750 F30.000
G1 X-17.111 Y-31.527 Z-3.750 F30.000
G1 X-17.111 Y-31.527 Z-4.000 F30.000
G1 X-17.539 Y-30.786 Z-4.000 F30.000
G1 X-20.961 Y-30.786 Z-4.000 F30.000
G1 X-22.673 Y-33.750 Z-4.000 F30.000
G1 X-20.961 Y-36.714 Z-4.000 F30.000
G1 X-17.539 Y-36.714 Z-4.000 F30.000
G1 X-15.827 Y-33.750 Z-4.000 F30.000
G1 X-17.111 Y-31.527 Z-4.000 F30.000
G1 X-17.111 Y-31.527 Z-4.250 F30.000
G1 X-17.539 Y-30.786 Z-4.250 F30.000
G1 X-20.961 Y-30.786 Z-4.250 F30.000
G1 X-22.673 Y-33.750 Z-4.250 F30.000
G1 X-20.961 Y-36.714 Z-4.250 F30.000
G1 X-17.539 Y-36.714 Z-4.250 F30.000
G1 X-15.827 Y-33.750 Z-4.250 F30.000
G1 X-17.111 Y-31.527 Z-4.250 F30.000
G1 X-17.111 Y-31.527 Z-4.500 F30.000
G1 X-17.539 Y-30.786 Z-4.500 F30.000
G1 X-20.961 Y-30.786 Z-4.500 F30.000
G1 X-22.673 Y-33.750 Z-4.500 F30.000
G1 X-20.961 Y-36.714 Z-4.500 F30.000
G1 X-17.539 Y-36.714 Z-4.500 F30.000
G1 X-15.827 Y-33.750 Z-4.500 F30.000
G1 X-17.111 Y-31.527 Z-4.500 F30.000
G1 X-17.111 Y-31.527 Z-4.750 F30.000
G1 X-17.539 Y-30.786 Z-4.750 F30.000
G1 X-20.961 Y-30.786 Z-4.750 F30.000
G1 X-22.673 Y-33.750 Z-4.750 F30.000
G1 X-20.961 Y-36.714 Z-4.750 F30.000
G1 X-17.539 Y-36.714 Z-4.750 F30.000
G1 X-15.827 Y-33.750 Z-4.750 F30.000
G1 X-17.111 Y-31.527 Z-4.750 F30.000
G1 X-17.111 Y-31.527 Z-5.000 F30.000
G1 X-17.539 Y-30.786 Z-5.000 F30.000
G1 X-20.961 Y-30.786 Z-5.000 F30.000
G1 X-22.673 Y-33.750 Z-5.000 F30.000
G1 X-20.961 Y-36.714 Z-5.000 F30.000
G1 X-17.539 Y-36.714 Z-5.000 F30.000
G1 X-15.827 Y-33.750 Z-5.000 F30.000
G1 X-17.111 Y-31.527 Z-5.000 F30.000
G0 Z5.000
G0 Z5.000
(Finish operation: Profile051)
(Begin operation: Profile052)
(Path: Profile052)
(Profile052)
(Compensated Tool Path. Diameter: 1.0)
G0 Z5.000
G0 X21.389 Y-31.527
G0 Z3.000
G1 X21.389 Y-31.527 Z-0.250 F30.000
G1 X20.961 Y-30.786 Z-0.250 F30.000
G1 X17.539 Y-30.786 Z-0.250 F30.000
G1 X15.827 Y-33.750 Z-0.250 F30.000
G1 X17.539 Y-36.714 Z-0.250 F30.000
G1 X20.961 Y-36.714 Z-0.250 F30.000
G1 X22.673 Y-33.750 Z-0.250 F30.000
G1 X21.389 Y-31.527 Z-0.250 F30.000
G1 X21.389 Y-31.527 Z-0.500 F30.000
G1 X20.961 Y-30.786 Z-0.500 F30.000
G1 X17.539 Y-30.786 Z-0.500 F30.000
G1 X15.827 Y-33.750 Z-0.500 F30.000
G1 X17.539 Y-36.714 Z-0.500 F30.000
G1 X20.961 Y-36.714 Z-0.500 F30.000
G1 X22.673 Y-33.750 Z-0.500 F30.000
G1 X21.389 Y-31.527 Z-0.500 F30.000
G1 X21.389 Y-31.527 Z-0.750 F30.000
G1 X20.961 Y-30.786 Z-0.750 F30.000
G1 X17.539 Y-30.786 Z-0.750 F30.000
G1 X15.827 Y-33.750 Z-0.750 F30.000
G1 X17.539 Y-36.714 Z-0.750 F30.000
G1 X20.961 Y-36.714 Z-0.750 F30.000
G1 X22.673 Y-33.750 Z-0.750 F30.000
G1 X21.389 Y-31.527 Z-0.750 F30.000
G1 X21.389 Y-31.527 Z-1.000 F30.000
G1 X20.961 Y-30.786 Z-1.000 F30.000
G1 X17.539 Y-30.786 Z-1.000 F30.000
G1 X15.827 Y-33.750 Z-1.000 F30.000
G1 X17.539 Y-36.714 Z-1.000 F30.000
G1 X20.961 Y-36.714 Z-1.000 F30.000
G1 X22.673 Y-33.750 Z-1.000 F30.000
G1 X21.389 Y-31.527 Z-1.000 F30.000
G1 X21.389 Y-31.527 Z-1.250 F30.000
G1 X20.961 Y-30.786 Z-1.250 F30.000
G1 X17.539 Y-30.786 Z-1.250 F30.000
G1 X15.827 Y-33.750 Z-1.250 F30.000
G1 X17.539 Y-36.714 Z-1.250 F30.000
G1 X20.961 Y-36.714 Z-1.250 F30.000
G1 X22.673 Y-33.750 Z-1.250 F30.000
G1 X21.389 Y-31.527 Z-1.250 F30.000
G1 X21.389 Y-31.527 Z-1.500 F30.000
G1 X20.961 Y-30.786 Z-1.500 F30.000
G1 X17.539 Y-30.786 Z-1.500 F30.000
G1 X15.827 Y-33.750 Z-1.500 F30.000
G1 X17.539 Y-36.714 Z-1.500 F30.000
G1 X20.961 Y-36.714 Z-1.500 F30.000
G1 X22.673 Y-33.750 Z-1.500 F30.000
G1 X21.389 Y-31.527 Z-1.500 F30.000
G1 X21.389 Y-31.527 Z-1.750 F30.000
G1 X20.961 Y-30.786 Z-1.750 F30.000
G1 X17.539 Y-30.786 Z-1.750 F30.000
G1 X15.827 Y-33.750 Z-1.750 F30.000
G1 X17.539 Y-36.714 Z-1.750 F30.000
G1 X20.961 Y-36.714 Z-1.750 F30.000
G1 X22.673 Y-33.750 Z-1.750 F30.000
G1 X21.389 Y-31.527 Z-1.750 F30.000
G1 X21.389 Y-31.527 Z-2.000 F30.000
G1 X20.961 Y-30.786 Z-2.000 F30.000
G1 X17.539 Y-30.786 Z-2.000 F30.000
G1 X15.827 Y-33.750 Z-2.000 F30.000
G1 X17.539 Y-36.714 Z-2.000 F30.000
G1 X20.961 Y-36.714 Z-2.000 F30.000
G1 X22.673 Y-33.750 Z-2.000 F30.000
G1 X21.389 Y-31.527 Z-2.000 F30.000
G1 X21.389 Y-31.527 Z-2.250 F30.000
G1 X20.961 Y-30.786 Z-2.250 F30.000
G1 X17.539 Y-30.786 Z-2.250 F30.000
G1 X15.827 Y-33.750 Z-2.250 F30.000
G1 X17.539 Y-36.714 Z-2.250 F30.000
G1 X20.961 Y-36.714 Z-2.250 F30.000
G1 X22.673 Y-33.750 Z-2.250 F30.000
G1 X21.389 Y-31.527 Z-2.250 F30.000
G1 X21.389 Y-31.527 Z-2.500 F30.000
G1 X20.961 Y-30.786 Z-2.500 F30.000
G1 X17.539 Y-30.786 Z-2.500 F30.000
G1 X15.827 Y-33.750 Z-2.500 F30.000
G1 X17.539 Y-36.714 Z-2.500 F30.000
G1 X20.961 Y-36.714 Z-2.500 F30.000
G1 X22.673 Y-33.750 Z-2.500 F30.000
G1 X21.389 Y-31.527 Z-2.500 F30.000
G1 X21.389 Y-31.527 Z-2.750 F30.000
G1 X20.961 Y-30.786 Z-2.750 F30.000
G1 X17.539 Y-30.786 Z-2.750 F30.000
G1 X15.827 Y-33.750 Z-2.750 F30.000
G1 X17.539 Y-36.714 Z-2.750 F30.000
G1 X20.961 Y-36.714 Z-2.750 F30.000
G1 X22.673 Y-33.750 Z-2.750 F30.000
G1 X21.389 Y-31.527 Z-2.750 F30.000
G1 X21.389 Y-31.527 Z-3.000 F30.000
G1 X20.961 Y-30.786 Z-3.000 F30.000
G1 X17.539 Y-30.786 Z-3.000 F30.000
G1 X15.827 Y-33.750 Z-3.000 F30.000
G1 X17.539 Y-36.714 Z-3.000 F30.000
G1 X20.961 Y-36.714 Z-3.000 F30.000
G1 X22.673 Y-33.750 Z-3.000 F30.000
G1 X21.389 Y-31.527 Z-3.000 F30.000
G1 X21.389 Y-31.527 Z-3.250 F30.000
G1 X20.961 Y-30.786 Z-3.250 F30.000
G1 X17.539 Y-30.786 Z-3.250 F30.000
G1 X15.827 Y-33.750 Z-3.250 F30.000
G1 X17.539 Y-36.714 Z-3.250 F30.000
G1 X20.961 Y-36.714 Z-3.250 F30.000
G1 X22.673 Y-33.750 Z-3.250 F30.000
G1 X21.389 Y-31.527 Z-3.250 F30.000
G1 X21.389 Y-31.527 Z-3.500 F30.000
G1 X20.961 Y-30.786 Z-3.500 F30.000
G1 X17.539 Y-30.786 Z-3.500 F30.000
G1 X15.827 Y-33.750 Z-3.500 F30.000
G1 X17.539 Y-36.714 Z-3.500 F30.000
G1 X20.961 Y-36.714 Z-3.500 F30.000
G1 X22.673 Y-33.750 Z-3.500 F30.000
G1 X21.389 Y-31.527 Z-3.500 F30.000
G1 X21.389 Y-31.527 Z-3.750 F30.000
G1 X20.961 Y-30.786 Z-3.750 F30.000
G1 X17.539 Y-30.786 Z-3.750 F30.000
G1 X15.827 Y-33.750 Z-3.750 F30.000
G1 X17.539 Y-36.714 Z-3.750 F30.000
G1 X20.961 Y-36.714 Z-3.750 F30.000
G1 X22.673 Y-33.750 Z-3.750 F30.000
G1 X21.389 Y-31.527 Z-3.750 F30.000
G1 X21.389 Y-31.527 Z-4.000 F30.000
G1 X20.961 Y-30.786 Z-4.000 F30.000
G1 X17.539 Y-30.786 Z-4.000 F30.000
G1 X15.827 Y-33.750 Z-4.000 F30.000
G1 X17.539 Y-36.714 Z-4.000 F30.000
G1 X20.961 Y-36.714 Z-4.000 F30.000
G1 X22.673 Y-33.750 Z-4.000 F30.000
G1 X21.389 Y-31.527 Z-4.000 F30.000
G1 X21.389 Y-31.527 Z-4.250 F30.000
G1 X20.961 Y-30.786 Z-4.250 F30.000
G1 X17.539 Y-30.786 Z-4.250 F30.000
G1 X15.827 Y-33.750 Z-4.250 F30.000
G1 X17.539 Y-36.714 Z-4.250 F30.000
G1 X20.961 Y-36.714 Z-4.250 F30.000
G1 X22.673 Y-33.750 Z-4.250 F30.000
G1 X21.389 Y-31.527 Z-4.250 F30.000
G1 X21.389 Y-31.527 Z-4.500 F30.000
G1 X20.961 Y-30.786 Z-4.500 F30.000
G1 X17.539 Y-30.786 Z-4.500 F30.000
G1 X15.827 Y-33.750 Z-4.500 F30.000
G1 X17.539 Y-36.714 Z-4.500 F30.000
G1 X20.961 Y-36.714 Z-4.500 F30.000
G1 X22.673 Y-33.750 Z-4.500 F30.000
G1 X21.389 Y-31.527 Z-4.500 F30.000
G1 X21.389 Y-31.527 Z-4.750 F30.000
G1 X20.961 Y-30.786 Z-4.750 F30.000
G1 X17.539 Y-30.786 Z-4.750 F30.000
G1 X15.827 Y-33.750 Z-4.750 F30.000
G1 X17.539 Y-36.714 Z-4.750 F30.000
G1 X20.961 Y-36.714 Z-4.750 F30.000
G1 X22.673 Y-33.750 Z-4.750 F30.000
G1 X21.389 Y-31.527 Z-4.750 F30.000
G1 X21.389 Y-31.527 Z-5.000 F30.000
G1 X20.961 Y-30.786 Z-5.000 F30.000
G1 X17.539 Y-30.786 Z-5.000 F30.000
G1 X15.827 Y-33.750 Z-5.000 F30.000
G1 X17.539 Y-36.714 Z-5.000 F30.000
G1 X20.961 Y-36.714 Z-5.000 F30.000
G1 X22.673 Y-33.750 Z-5.000 F30.000
G1 X21.389 Y-31.527 Z-5.000 F30.000
G0 Z5.000
G0 Z5.000
(Finish operation: Profile052)
(Begin operation: Profile053)
(Path: Profile053)
(Profile053)
(Compensated Tool Path. Diameter: 1.0)
G0 Z5.000
G0 X-17.111 Y35.973
G0 Z3.000
G1 X-17.111 Y35.973 Z-0.250 F30.000
G1 X-17.539 Y36.714 Z-0.250 F30.000
G1 X-20.961 Y36.714 Z-0.250 F30.000
G1 X-22.673 Y33.750 Z-0.250 F30.000
G1 X-20.961 Y30.786 Z-0.250 F30.000
G1 X-17.539 Y30.786 Z-0.250 F30.000
G1 X-15.827 Y33.750 Z-0.250 F30.000
G1 X-17.111 Y35.973 Z-0.250 F30.000
G1 X-17.111 Y35.973 Z-0.500 F30.000
G1 X-17.539 Y36.714 Z-0.500 F30.000
G1 X-20.961 Y36.714 Z-0.500 F30.000
G1 X-22.673 Y33.750 Z-0.500 F30.000
G1 X-20.961 Y30.786 Z-0.500 F30.000
G1 X-17.539 Y30.786 Z-0.500 F30.000
G1 X-15.827 Y33.750 Z-0.500 F30.000
G1 X-17.111 Y35.973 Z-0.500 F30.000
G1 X-17.111 Y35.973 Z-0.750 F30.000
G1 X-17.539 Y36.714 Z-0.750 F30.000
G1 X-20.961 Y36.714 Z-0.750 F30.000
G1 X-22.673 Y33.750 Z-0.750 F30.000
G1 X-20.961 Y30.786 Z-0.750 F30.000
G1 X-17.539 Y30.786 Z-0.750 F30.000
G1 X-15.827 Y33.750 Z-0.750 F30.000
G1 X-17.111 Y35.973 Z-0.750 F30.000
G1 X-17.111 Y35.973 Z-1.000 F30.000
G1 X-17.539 Y36.714 Z-1.000 F30.000
G1 X-20.961 Y36.714 Z-1.000 F30.000
G1 X-22.673 Y33.750 Z-1.000 F30.000
G1 X-20.961 Y30.786 Z-1.000 F30.000
G1 X-17.539 Y30.786 Z-1.000 F30.000
G1 X-15.827 Y33.750 Z-1.000 F30.000
G1 X-17.111 Y35.973 Z-1.000 F30.000
G1 X-17.111 Y35.973 Z-1.250 F30.000
G1 X-17.539 Y36.714 Z-1.250 F30.000
G1 X-20.961 Y36.714 Z-1.250 F30.000
G1 X-22.673 Y33.750 Z-1.250 F30.000
G1 X-20.961 Y30.786 Z-1.250 F30.000
G1 X-17.539 Y30.786 Z-1.250 F30.000
G1 X-15.827 Y33.750 Z-1.250 F30.000
G1 X-17.111 Y35.973 Z-1.250 F30.000
G1 X-17.111 Y35.973 Z-1.500 F30.000
G1 X-17.539 Y36.714 Z-1.500 F30.000
G1 X-20.961 Y36.714 Z-1.500 F30.000
G1 X-22.673 Y33.750 Z-1.500 F30.000
G1 X-20.961 Y30.786 Z-1.500 F30.000
G1 X-17.539 Y30.786 Z-1.500 F30.000
G1 X-15.827 Y33.750 Z-1.500 F30.000
G1 X-17.111 Y35.973 Z-1.500 F30.000
G1 X-17.111 Y35.973 Z-1.750 F30.000
G1 X-17.539 Y36.714 Z-1.750 F30.000
G1 X-20.961 Y36.714 Z-1.750 F30.000
G1 X-22.673 Y33.750 Z-1.750 F30.000
G1 X-20.961 Y30.786 Z-1.750 F30.000
G1 X-17.539 Y30.786 Z-1.750 F30.000
G1 X-15.827 Y33.750 Z-1.750 F30.000
G1 X-17.111 Y35.973 Z-1.750 F30.000
G1 X-17.111 Y35.973 Z-2.000 F30.000
G1 X-17.539 Y36.714 Z-2.000 F30.000
G1 X-20.961 Y36.714 Z-2.000 F30.000
G1 X-22.673 Y33.750 Z-2.000 F30.000
G1 X-20.961 Y30.786 Z-2.000 F30.000
G1 X-17.539 Y30.786 Z-2.000 F30.000
G1 X-15.827 Y33.750 Z-2.000 F30.000
G1 X-17.111 Y35.973 Z-2.000 F30.000
G1 X-17.111 Y35.973 Z-2.250 F30.000
G1 X-17.539 Y36.714 Z-2.250 F30.000
G1 X-20.961 Y36.714 Z-2.250 F30.000
G1 X-22.673 Y33.750 Z-2.250 F30.000
G1 X-20.961 Y30.786 Z-2.250 F30.000
G1 X-17.539 Y30.786 Z-2.250 F30.000
G1 X-15.827 Y33.750 Z-2.250 F30.000
G1 X-17.111 Y35.973 Z-2.250 F30.000
G1 X-17.111 Y35.973 Z-2.500 F30.000
G1 X-17.539 Y36.714 Z-2.500 F30.000
G1 X-20.961 Y36.714 Z-2.500 F30.000
G1 X-22.673 Y33.750 Z-2.500 F30.000
G1 X-20.961 Y30.786 Z-2.500 F30.000
G1 X-17.539 Y30.786 Z-2.500 F30.000
G1 X-15.827 Y33.750 Z-2.500 F30.000
G1 X-17.111 Y35.973 Z-2.500 F30.000
G1 X-17.111 Y35.973 Z-2.750 F30.000
G1 X-17.539 Y36.714 Z-2.750 F30.000
G1 X-20.961 Y36.714 Z-2.750 F30.000
G1 X-22.673 Y33.750 Z-2.750 F30.000
G1 X-20.961 Y30.786 Z-2.750 F30.000
G1 X-17.539 Y30.786 Z-2.750 F30.000
G1 X-15.827 Y33.750 Z-2.750 F30.000
G1 X-17.111 Y35.973 Z-2.750 F30.000
G1 X-17.111 Y35.973 Z-3.000 F30.000
G1 X-17.539 Y36.714 Z-3.000 F30.000
G1 X-20.961 Y36.714 Z-3.000 F30.000
G1 X-22.673 Y33.750 Z-3.000 F30.000
G1 X-20.961 Y30.786 Z-3.000 F30.000
G1 X-17.539 Y30.786 Z-3.000 F30.000
G1 X-15.827 Y33.750 Z-3.000 F30.000
G1 X-17.111 Y35.973 Z-3.000 F30.000
G1 X-17.111 Y35.973 Z-3.250 F30.000
G1 X-17.539 Y36.714 Z-3.250 F30.000
G1 X-20.961 Y36.714 Z-3.250 F30.000
G1 X-22.673 Y33.750 Z-3.250 F30.000
G1 X-20.961 Y30.786 Z-3.250 F30.000
G1 X-17.539 Y30.786 Z-3.250 F30.000
G1 X-15.827 Y33.750 Z-3.250 F30.000
G1 X-17.111 Y35.973 Z-3.250 F30.000
G1 X-17.111 Y35.973 Z-3.500 F30.000
G1 X-17.539 Y36.714 Z-3.500 F30.000
G1 X-20.961 Y36.714 Z-3.500 F30.000
G1 X-22.673 Y33.750 Z-3.500 F30.000
G1 X-20.961 Y30.786 Z-3.500 F30.000
G1 X-17.539 Y30.786 Z-3.500 F30.000
G1 X-15.827 Y33.750 Z-3.500 F30.000
G1 X-17.111 Y35.973 Z-3.500 F30.000
G1 X-17.111 Y35.973 Z-3.750 F30.000
G1 X-17.539 Y36.714 Z-3.750 F30.000
G1 X-20.961 Y36.714 Z-3.750 F30.000
G1 X-22.673 Y33.750 Z-3.750 F30.000
G1 X-20.961 Y30.786 Z-3.750 F30.000
G1 X-17.539 Y30.786 Z-3.750 F30.000
G1 X-15.827 Y33.750 Z-3.750 F30.000
G1 X-17.111 Y35.973 Z-3.750 F30.000
G1 X-17.111 Y35.973 Z-4.000 F30.000
G1 X-17.539 Y36.714 Z-4.000 F30.000
G1 X-20.961 Y36.714 Z-4.000 F30.000
G1 X-22.673 Y33.750 Z-4.000 F30.000
G1 X-20.961 Y30.786 Z-4.000 F30.000
G1 X-17.539 Y30.786 Z-4.000 F30.000
G1 X-15.827 Y33.750 Z-4.000 F30.000
G1 X-17.111 Y35.973 Z-4.000 F30.000
G1 X-17.111 Y35.973 Z-4.250 F30.000
G1 X-17.539 Y36.714 Z-4.250 F30.000
G1 X-20.961 Y36.714 Z-4.250 F30.000
G1 X-22.673 Y33.750 Z-4.250 F30.000
G1 X-20.961 Y30.786 Z-4.250 F30.000
G1 X-17.539 Y30.786 Z-4.250 F30.000
G1 X-15.827 Y33.750 Z-4.250 F30.000
G1 X-17.111 Y35.973 Z-4.250 F30.000
G1 X-17.111 Y35.973 Z-4.500 F30.000
G1 X-17.539 Y36.714 Z-4.500 F30.000
G1 X-20.961 Y36.714 Z-4.500 F30.000
G1 X-22.673 Y33.750 Z-4.500 F30.000
G1 X-20.961 Y30.786 Z-4.500 F30.000
G1 X-17.539 Y30.786 Z-4.500 F30.000
G1 X-15.827 Y33.750 Z-4.500 F30.000
G1 X-17.111 Y35.973 Z-4.500 F30.000
G1 X-17.111 Y35.973 Z-4.750 F30.000
G1 X-17.539 Y36.714 Z-4.750 F30.000
G1 X-20.961 Y36.714 Z-4.750 F30.000
G1 X-22.673 Y33.750 Z-4.750 F30.000
G1 X-20.961 Y30.786 Z-4.750 F30.000
G1 X-17.539 Y30.786 Z-4.750 F30.000
G1 X-15.827 Y33.750 Z-4.750 F30.000
G1 X-17.111 Y35.973 Z-4.750 F30.000
G1 X-17.111 Y35.973 Z-5.000 F30.000
G1 X-17.539 Y36.714 Z-5.000 F30.000
G1 X-20.961 Y36.714 Z-5.000 F30.000
G1 X-22.673 Y33.750 Z-5.000 F30.000
G1 X-20.961 Y30.786 Z-5.000 F30.000
G1 X-17.539 Y30.786 Z-5.000 F30.000
G1 X-15.827 Y33.750 Z-5.000 F30.000
G1 X-17.111 Y35.973 Z-5.000 F30.000
G0 Z5.000
G0 Z5.000
(Finish operation: Profile053)
(Begin operation: Profile054)
(Path: Profile054)
(Profile054)
(Compensated Tool Path. Diameter: 1.0)
G0 Z5.000
G0 X21.389 Y35.973
G0 Z3.000
G1 X21.389 Y35.973 Z-0.250 F30.000
G1 X20.961 Y36.714 Z-0.250 F30.000
G1 X17.539 Y36.714 Z-0.250 F30.000
G1 X15.827 Y33.750 Z-0.250 F30.000
G1 X17.539 Y30.786 Z-0.250 F30.000
G1 X20.961 Y30.786 Z-0.250 F30.000
G1 X22.673 Y33.750 Z-0.250 F30.000
G1 X21.389 Y35.973 Z-0.250 F30.000
G1 X21.389 Y35.973 Z-0.500 F30.000
G1 X20.961 Y36.714 Z-0.500 F30.000
G1 X17.539 Y36.714 Z-0.500 F30.000
G1 X15.827 Y33.750 Z-0.500 F30.000
G1 X17.539 Y30.786 Z-0.500 F30.000
G1 X20.961 Y30.786 Z-0.500 F30.000
G1 X22.673 Y33.750 Z-0.500 F30.000
G1 X21.389 Y35.973 Z-0.500 F30.000
G1 X21.389 Y35.973 Z-0.750 F30.000
G1 X20.961 Y36.714 Z-0.750 F30.000
G1 X17.539 Y36.714 Z-0.750 F30.000
G1 X15.827 Y33.750 Z-0.750 F30.000
G1 X17.539 Y30.786 Z-0.750 F30.000
G1 X20.961 Y30.786 Z-0.750 F30.000
G1 X22.673 Y33.750 Z-0.750 F30.000
G1 X21.389 Y35.973 Z-0.750 F30.000
G1 X21.389 Y35.973 Z-1.000 F30.000
G1 X20.961 Y36.714 Z-1.000 F30.000
G1 X17.539 Y36.714 Z-1.000 F30.000
G1 X15.827 Y33.750 Z-1.000 F30.000
G1 X17.539 Y30.786 Z-1.000 F30.000
G1 X20.961 Y30.786 Z-1.000 F30.000
G1 X22.673 Y33.750 Z-1.000 F30.000
G1 X21.389 Y35.973 Z-1.000 F30.000
G1 X21.389 Y35.973 Z-1.250 F30.000
G1 X20.961 Y36.714 Z-1.250 F30.000
G1 X17.539 Y36.714 Z-1.250 F30.000
G1 X15.827 Y33.750 Z-1.250 F30.000
G1 X17.539 Y30.786 Z-1.250 F30.000
G1 X20.961 Y30.786 Z-1.250 F30.000
G1 X22.673 Y33.750 Z-1.250 F30.000
G1 X21.389 Y35.973 Z-1.250 F30.000
G1 X21.389 Y35.973 Z-1.500 F30.000
G1 X20.961 Y36.714 Z-1.500 F30.000
G1 X17.539 Y36.714 Z-1.500 F30.000
G1 X15.827 Y33.750 Z-1.500 F30.000
G1 X17.539 Y30.786 Z-1.500 F30.000
G1 X20.961 Y30.786 Z-1.500 F30.000
G1 X22.673 Y33.750 Z-1.500 F30.000
G1 X21.389 Y35.973 Z-1.500 F30.000
G1 X21.389 Y35.973 Z-1.750 F30.000
G1 X20.961 Y36.714 Z-1.750 F30.000
G1 X17.539 Y36.714 Z-1.750 F30.000
G1 X15.827 Y33.750 Z-1.750 F30.000
G1 X17.539 Y30.786 Z-1.750 F30.000
G1 X20.961 Y30.786 Z-1.750 F30.000
G1 X22.673 Y33.750 Z-1.750 F30.000
G1 X21.389 Y35.973 Z-1.750 F30.000
G1 X21.389 Y35.973 Z-2.000 F30.000
G1 X20.961 Y36.714 Z-2.000 F30.000
G1 X17.539 Y36.714 Z-2.000 F30.000
G1 X15.827 Y33.750 Z-2.000 F30.000
G1 X17.539 Y30.786 Z-2.000 F30.000
G1 X20.961 Y30.786 Z-2.000 F30.000
G1 X22.673 Y33.750 Z-2.000 F30.000
G1 X21.389 Y35.973 Z-2.000 F30.000
G1 X21.389 Y35.973 Z-2.250 F30.000
G1 X20.961 Y36.714 Z-2.250 F30.000
G1 X17.539 Y36.714 Z-2.250 F30.000
G1 X15.827 Y33.750 Z-2.250 F30.000
G1 X17.539 Y30.786 Z-2.250 F30.000
G1 X20.961 Y30.786 Z-2.250 F30.000
G1 X22.673 Y33.750 Z-2.250 F30.000
G1 X21.389 Y35.973 Z-2.250 F30.000
G1 X21.389 Y35.973 Z-2.500 F30.000
G1 X20.961 Y36.714 Z-2.500 F30.000
G1 X17.539 Y36.714 Z-2.500 F30.000
G1 X15.827 Y33.750 Z-2.500 F30.000
G1 X17.539 Y30.786 Z-2.500 F30.000
G1 X20.961 Y30.786 Z-2.500 F30.000
G1 X22.673 Y33.750 Z-2.500 F30.000
G1 X21.389 Y35.973 Z-2.500 F30.000
G1 X21.389 Y35.973 Z-2.750 F30.000
G1 X20.961 Y36.714 Z-2.750 F30.000
G1 X17.539 Y36.714 Z-2.750 F30.000
G1 X15.827 Y33.750 Z-2.750 F30.000
G1 X17.539 Y30.786 Z-2.750 F30.000
G1 X20.961 Y30.786 Z-2.750 F30.000
G1 X22.673 Y33.750 Z-2.750 F30.000
G1 X21.389 Y35.973 Z-2.750 F30.000
G1 X21.389 Y35.973 Z-3.000 F30.000
G1 X20.961 Y36.714 Z-3.000 F30.000
G1 X17.539 Y36.714 Z-3.000 F30.000
G1 X15.827 Y33.750 Z-3.000 F30.000
G1 X17.539 Y30.786 Z-3.000 F30.000
G1 X20.961 Y30.786 Z-3.000 F30.000
G1 X22.673 Y33.750 Z-3.000 F30.000
G1 X21.389 Y35.973 Z-3.000 F30.000
G1 X21.389 Y35.973 Z-3.250 F30.000
G1 X20.961 Y36.714 Z-3.250 F30.000
G1 X17.539 Y36.714 Z-3.250 F30.000
G1 X15.827 Y33.750 Z-3.250 F30.000
G1 X17.539 Y30.786 Z-3.250 F30.000
G1 X20.961 Y30.786 Z-3.250 F30.000
G1 X22.673 Y33.750 Z-3.250 F30.000
G1 X21.389 Y35.973 Z-3.250 F30.000
G1 X21.389 Y35.973 Z-3.500 F30.000
G1 X20.961 Y36.714 Z-3.500 F30.000
G1 X17.539 Y36.714 Z-3.500 F30.000
G1 X15.827 Y33.750 Z-3.500 F30.000
G1 X17.539 Y30.786 Z-3.500 F30.000
G1 X20.961 Y30.786 Z-3.500 F30.000
G1 X22.673 Y33.750 Z-3.500 F30.000
G1 X21.389 Y35.973 Z-3.500 F30.000
G1 X21.389 Y35.973 Z-3.750 F30.000
G1 X20.961 Y36.714 Z-3.750 F30.000
G1 X17.539 Y36.714 Z-3.750 F30.000
G1 X15.827 Y33.750 Z-3.750 F30.000
G1 X17.539 Y30.786 Z-3.750 F30.000
G1 X20.961 Y30.786 Z-3.750 F30.000
G1 X22.673 Y33.750 Z-3.750 F30.000
G1 X21.389 Y35.973 Z-3.750 F30.000
G1 X21.389 Y35.973 Z-4.000 F30.000
G1 X20.961 Y36.714 Z-4.000 F30.000
G1 X17.539 Y36.714 Z-4.000 F30.000
G1 X15.827 Y33.750 Z-4.000 F30.000
G1 X17.539 Y30.786 Z-4.000 F30.000
G1 X20.961 Y30.786 Z-4.000 F30.000
G1 X22.673 Y33.750 Z-4.000 F30.000
G1 X21.389 Y35.973 Z-4.000 F30.000
G1 X21.389 Y35.973 Z-4.250 F30.000
G1 X20.961 Y36.714 Z-4.250 F30.000
G1 X17.539 Y36.714 Z-4.250 F30.000
G1 X15.827 Y33.750 Z-4.250 F30.000
G1 X17.539 Y30.786 Z-4.250 F30.000
G1 X20.961 Y30.786 Z-4.250 F30.000
G1 X22.673 Y33.750 Z-4.250 F30.000
G1 X21.389 Y35.973 Z-4.250 F30.000
G1 X21.389 Y35.973 Z-4.500 F30.000
G1 X20.961 Y36.714 Z-4.500 F30.000
G1 X17.539 Y36.714 Z-4.500 F30.000
G1 X15.827 Y33.750 Z-4.500 F30.000
G1 X17.539 Y30.786 Z-4.500 F30.000
G1 X20.961 Y30.786 Z-4.500 F30.000
G1 X22.673 Y33.750 Z-4.500 F30.000
G1 X21.389 Y35.973 Z-4.500 F30.000
G1 X21.389 Y35.973 Z-4.750 F30.000
G1 X20.961 Y36.714 Z-4.750 F30.000
G1 X17.539 Y36.714 Z-4.750 F30.000
G1 X15.827 Y33.750 Z-4.750 F30.000
G1 X17.539 Y30.786 Z-4.750 F30.000
G1 X20.961 Y30.786 Z-4.750 F30.000
G1 X22.673 Y33.750 Z-4.750 F30.000
G1 X21.389 Y35.973 Z-4.750 F30.000
G1 X21.389 Y35.973 Z-5.000 F30.000
G1 X20.961 Y36.714 Z-5.000 F30.000
G1 X17.539 Y36.714 Z-5.000 F30.000
G1 X15.827 Y33.750 Z-5.000 F30.000
G1 X17.539 Y30.786 Z-5.000 F30.000
G1 X20.961 Y30.786 Z-5.000 F30.000
G1 X22.673 Y33.750 Z-5.000 F30.000
G1 X21.389 Y35.973 Z-5.000 F30.000
G0 Z5.000
G0 Z5.000
(Finish operation: Profile054)
(Begin postamble)
M5
G17 G90
M2
