(Exported by FreeCAD)
(Post Processor: grbl_post)
(Output Time:2025-08-17 09:27:06.710377)
(Begin preamble)
G17 G90
G21
(Begin operation: Fixture)
(Path: Fixture)
G54
(Finish operation: Fixture)
(Begin operation: 2mm-6-Endmill003)
(Path: 2mm-6-Endmill003)
(2mm-6-Endmill003)
(Begin toolchange)
( M6 T2 )
(Finish operation: 2mm-6-Endmill003)
(Begin operation: Pocket_Shape001)
(Path: Pocket_Shape001)
(Pocket_Shape001)
G0 Z5.000
G0
G0 X-6.750 Y-12.250
G0 X-6.750 Y-12.250 Z3.000
G1 X-6.750 Y-12.250 Z-0.500 F30.000
G1 X-6.750 Y-1.250 Z-0.500 F30.000
G1 X-7.750 Y-1.250 Z-0.500 F30.000
G1 X-7.750 Y-12.250 Z-0.500 F30.000
G1 X-6.750 Y-12.250 Z-0.500 F30.000
G1 X-6.750 Y-12.250 Z-1.000 F30.000
G1 X-6.750 Y-1.250 Z-1.000 F30.000
G1 X-7.750 Y-1.250 Z-1.000 F30.000
G1 X-7.750 Y-12.250 Z-1.000 F30.000
G1 X-6.750 Y-12.250 Z-1.000 F30.000
G1 X-6.750 Y-12.250 Z-1.500 F30.000
G1 X-6.750 Y-1.250 Z-1.500 F30.000
G1 X-7.750 Y-1.250 Z-1.500 F30.000
G1 X-7.750 Y-12.250 Z-1.500 F30.000
G1 X-6.750 Y-12.250 Z-1.500 F30.000
G1 X-6.750 Y-12.250 Z-2.000 F30.000
G1 X-6.750 Y-1.250 Z-2.000 F30.000
G1 X-7.750 Y-1.250 Z-2.000 F30.000
G1 X-7.750 Y-12.250 Z-2.000 F30.000
G1 X-6.750 Y-12.250 Z-2.000 F30.000
G1 X-6.750 Y-12.250 Z-2.500 F30.000
G1 X-6.750 Y-1.250 Z-2.500 F30.000
G1 X-7.750 Y-1.250 Z-2.500 F30.000
G1 X-7.750 Y-12.250 Z-2.500 F30.000
G1 X-6.750 Y-12.250 Z-2.500 F30.000
G0 Z5.000
G0 Z5.000
G0 X0.000 Y0.000
G0 X-6.750 Y1.250
G0 X-6.750 Y1.250 Z3.000
G1 X-6.750 Y1.250 Z-0.500 F30.000
G1 X-6.750 Y12.250 Z-0.500 F30.000
G1 X-7.750 Y12.250 Z-0.500 F30.000
G1 X-7.750 Y1.250 Z-0.500 F30.000
G1 X-6.750 Y1.250 Z-0.500 F30.000
G1 X-6.750 Y1.250 Z-1.000 F30.000
G1 X-6.750 Y12.250 Z-1.000 F30.000
G1 X-7.750 Y12.250 Z-1.000 F30.000
G1 X-7.750 Y1.250 Z-1.000 F30.000
G1 X-6.750 Y1.250 Z-1.000 F30.000
G1 X-6.750 Y1.250 Z-1.500 F30.000
G1 X-6.750 Y12.250 Z-1.500 F30.000
G1 X-7.750 Y12.250 Z-1.500 F30.000
G1 X-7.750 Y1.250 Z-1.500 F30.000
G1 X-6.750 Y1.250 Z-1.500 F30.000
G1 X-6.750 Y1.250 Z-2.000 F30.000
G1 X-6.750 Y12.250 Z-2.000 F30.000
G1 X-7.750 Y12.250 Z-2.000 F30.000
G1 X-7.750 Y1.250 Z-2.000 F30.000
G1 X-6.750 Y1.250 Z-2.000 F30.000
G1 X-6.750 Y1.250 Z-2.500 F30.000
G1 X-6.750 Y12.250 Z-2.500 F30.000
G1 X-7.750 Y12.250 Z-2.500 F30.000
G1 X-7.750 Y1.250 Z-2.500 F30.000
G1 X-6.750 Y1.250 Z-2.500 F30.000
G0 Z5.000
G0 Z5.000
G0 X0.000 Y0.000
G0 X7.750 Y1.250
G0 X7.750 Y1.250 Z3.000
G1 X7.750 Y1.250 Z-0.500 F30.000
G1 X7.750 Y12.250 Z-0.500 F30.000
G1 X6.750 Y12.250 Z-0.500 F30.000
G1 X6.750 Y1.250 Z-0.500 F30.000
G1 X7.750 Y1.250 Z-0.500 F30.000
G1 X7.750 Y1.250 Z-1.000 F30.000
G1 X7.750 Y12.250 Z-1.000 F30.000
G1 X6.750 Y12.250 Z-1.000 F30.000
G1 X6.750 Y1.250 Z-1.000 F30.000
G1 X7.750 Y1.250 Z-1.000 F30.000
G1 X7.750 Y1.250 Z-1.500 F30.000
G1 X7.750 Y12.250 Z-1.500 F30.000
G1 X6.750 Y12.250 Z-1.500 F30.000
G1 X6.750 Y1.250 Z-1.500 F30.000
G1 X7.750 Y1.250 Z-1.500 F30.000
G1 X7.750 Y1.250 Z-2.000 F30.000
G1 X7.750 Y12.250 Z-2.000 F30.000
G1 X6.750 Y12.250 Z-2.000 F30.000
G1 X6.750 Y1.250 Z-2.000 F30.000
G1 X7.750 Y1.250 Z-2.000 F30.000
G1 X7.750 Y1.250 Z-2.500 F30.000
G1 X7.750 Y12.250 Z-2.500 F30.000
G1 X6.750 Y12.250 Z-2.500 F30.000
G1 X6.750 Y1.250 Z-2.500 F30.000
G1 X7.750 Y1.250 Z-2.500 F30.000
G0 Z5.000
G0 Z5.000
G0 X0.000 Y0.000
G0 X7.750 Y-12.250
G0 X7.750 Y-12.250 Z3.000
G1 X7.750 Y-12.250 Z-0.500 F30.000
G1 X7.750 Y-1.250 Z-0.500 F30.000
G1 X6.750 Y-1.250 Z-0.500 F30.000
G1 X6.750 Y-12.250 Z-0.500 F30.000
G1 X7.750 Y-12.250 Z-0.500 F30.000
G1 X7.750 Y-12.250 Z-1.000 F30.000
G1 X7.750 Y-1.250 Z-1.000 F30.000
G1 X6.750 Y-1.250 Z-1.000 F30.000
G1 X6.750 Y-12.250 Z-1.000 F30.000
G1 X7.750 Y-12.250 Z-1.000 F30.000
G1 X7.750 Y-12.250 Z-1.500 F30.000
G1 X7.750 Y-1.250 Z-1.500 F30.000
G1 X6.750 Y-1.250 Z-1.500 F30.000
G1 X6.750 Y-12.250 Z-1.500 F30.000
G1 X7.750 Y-12.250 Z-1.500 F30.000
G1 X7.750 Y-12.250 Z-2.000 F30.000
G1 X7.750 Y-1.250 Z-2.000 F30.000
G1 X6.750 Y-1.250 Z-2.000 F30.000
G1 X6.750 Y-12.250 Z-2.000 F30.000
G1 X7.750 Y-12.250 Z-2.000 F30.000
G1 X7.750 Y-12.250 Z-2.500 F30.000
G1 X7.750 Y-1.250 Z-2.500 F30.000
G1 X6.750 Y-1.250 Z-2.500 F30.000
G1 X6.750 Y-12.250 Z-2.500 F30.000
G1 X7.750 Y-12.250 Z-2.500 F30.000
G0 Z5.000
G0 Z5.000
G0 X0.000 Y0.000
G0 X37.750 Y-12.250
G0 X37.750 Y-12.250 Z3.000
G1 X37.750 Y-12.250 Z-0.500 F30.000
G1 X37.750 Y-1.250 Z-0.500 F30.000
G1 X36.750 Y-1.250 Z-0.500 F30.000
G1 X36.750 Y-12.250 Z-0.500 F30.000
G1 X37.750 Y-12.250 Z-0.500 F30.000
G1 X37.750 Y-12.250 Z-1.000 F30.000
G1 X37.750 Y-1.250 Z-1.000 F30.000
G1 X36.750 Y-1.250 Z-1.000 F30.000
G1 X36.750 Y-12.250 Z-1.000 F30.000
G1 X37.750 Y-12.250 Z-1.000 F30.000
G1 X37.750 Y-12.250 Z-1.500 F30.000
G1 X37.750 Y-1.250 Z-1.500 F30.000
G1 X36.750 Y-1.250 Z-1.500 F30.000
G1 X36.750 Y-12.250 Z-1.500 F30.000
G1 X37.750 Y-12.250 Z-1.500 F30.000
G1 X37.750 Y-12.250 Z-2.000 F30.000
G1 X37.750 Y-1.250 Z-2.000 F30.000
G1 X36.750 Y-1.250 Z-2.000 F30.000
G1 X36.750 Y-12.250 Z-2.000 F30.000
G1 X37.750 Y-12.250 Z-2.000 F30.000
G1 X37.750 Y-12.250 Z-2.500 F30.000
G1 X37.750 Y-1.250 Z-2.500 F30.000
G1 X36.750 Y-1.250 Z-2.500 F30.000
G1 X36.750 Y-12.250 Z-2.500 F30.000
G1 X37.750 Y-12.250 Z-2.500 F30.000
G0 Z5.000
G0 Z5.000
G0 X0.000 Y0.000
G0 X37.750 Y1.250
G0 X37.750 Y1.250 Z3.000
G1 X37.750 Y1.250 Z-0.500 F30.000
G1 X37.750 Y12.250 Z-0.500 F30.000
G1 X36.750 Y12.250 Z-0.500 F30.000
G1 X36.750 Y1.250 Z-0.500 F30.000
G1 X37.750 Y1.250 Z-0.500 F30.000
G1 X37.750 Y1.250 Z-1.000 F30.000
G1 X37.750 Y12.250 Z-1.000 F30.000
G1 X36.750 Y12.250 Z-1.000 F30.000
G1 X36.750 Y1.250 Z-1.000 F30.000
G1 X37.750 Y1.250 Z-1.000 F30.000
G1 X37.750 Y1.250 Z-1.500 F30.000
G1 X37.750 Y12.250 Z-1.500 F30.000
G1 X36.750 Y12.250 Z-1.500 F30.000
G1 X36.750 Y1.250 Z-1.500 F30.000
G1 X37.750 Y1.250 Z-1.500 F30.000
G1 X37.750 Y1.250 Z-2.000 F30.000
G1 X37.750 Y12.250 Z-2.000 F30.000
G1 X36.750 Y12.250 Z-2.000 F30.000
G1 X36.750 Y1.250 Z-2.000 F30.000
G1 X37.750 Y1.250 Z-2.000 F30.000
G1 X37.750 Y1.250 Z-2.500 F30.000
G1 X37.750 Y12.250 Z-2.500 F30.000
G1 X36.750 Y12.250 Z-2.500 F30.000
G1 X36.750 Y1.250 Z-2.500 F30.000
G1 X37.750 Y1.250 Z-2.500 F30.000
G0 Z5.000
G0 Z5.000
G0 X0.000 Y0.000
G0 X37.750 Y35.250
G0 X37.750 Y35.250 Z3.000
G1 X37.750 Y35.250 Z-0.500 F30.000
G1 X37.750 Y46.250 Z-0.500 F30.000
G1 X36.750 Y46.250 Z-0.500 F30.000
G1 X36.750 Y35.250 Z-0.500 F30.000
G1 X37.750 Y35.250 Z-0.500 F30.000
G1 X37.750 Y35.250 Z-1.000 F30.000
G1 X37.750 Y46.250 Z-1.000 F30.000
G1 X36.750 Y46.250 Z-1.000 F30.000
G1 X36.750 Y35.250 Z-1.000 F30.000
G1 X37.750 Y35.250 Z-1.000 F30.000
G1 X37.750 Y35.250 Z-1.500 F30.000
G1 X37.750 Y46.250 Z-1.500 F30.000
G1 X36.750 Y46.250 Z-1.500 F30.000
G1 X36.750 Y35.250 Z-1.500 F30.000
G1 X37.750 Y35.250 Z-1.500 F30.000
G1 X37.750 Y35.250 Z-2.000 F30.000
G1 X37.750 Y46.250 Z-2.000 F30.000
G1 X36.750 Y46.250 Z-2.000 F30.000
G1 X36.750 Y35.250 Z-2.000 F30.000
G1 X37.750 Y35.250 Z-2.000 F30.000
G1 X37.750 Y35.250 Z-2.500 F30.000
G1 X37.750 Y46.250 Z-2.500 F30.000
G1 X36.750 Y46.250 Z-2.500 F30.000
G1 X36.750 Y35.250 Z-2.500 F30.000
G1 X37.750 Y35.250 Z-2.500 F30.000
G0 Z5.000
G0 Z5.000
G0 X0.000 Y0.000
G0 X7.750 Y35.250
G0 X7.750 Y35.250 Z3.000
G1 X7.750 Y35.250 Z-0.500 F30.000
G1 X7.750 Y46.250 Z-0.500 F30.000
G1 X6.750 Y46.250 Z-0.500 F30.000
G1 X6.750 Y35.250 Z-0.500 F30.000
G1 X7.750 Y35.250 Z-0.500 F30.000
G1 X7.750 Y35.250 Z-1.000 F30.000
G1 X7.750 Y46.250 Z-1.000 F30.000
G1 X6.750 Y46.250 Z-1.000 F30.000
G1 X6.750 Y35.250 Z-1.000 F30.000
G1 X7.750 Y35.250 Z-1.000 F30.000
G1 X7.750 Y35.250 Z-1.500 F30.000
G1 X7.750 Y46.250 Z-1.500 F30.000
G1 X6.750 Y46.250 Z-1.500 F30.000
G1 X6.750 Y35.250 Z-1.500 F30.000
G1 X7.750 Y35.250 Z-1.500 F30.000
G1 X7.750 Y35.250 Z-2.000 F30.000
G1 X7.750 Y46.250 Z-2.000 F30.000
G1 X6.750 Y46.250 Z-2.000 F30.000
G1 X6.750 Y35.250 Z-2.000 F30.000
G1 X7.750 Y35.250 Z-2.000 F30.000
G1 X7.750 Y35.250 Z-2.500 F30.000
G1 X7.750 Y46.250 Z-2.500 F30.000
G1 X6.750 Y46.250 Z-2.500 F30.000
G1 X6.750 Y35.250 Z-2.500 F30.000
G1 X7.750 Y35.250 Z-2.500 F30.000
G0 Z5.000
G0 Z5.000
G0 X0.000 Y0.000
G0 X-6.750 Y35.250
G0 X-6.750 Y35.250 Z3.000
G1 X-6.750 Y35.250 Z-0.500 F30.000
G1 X-6.750 Y46.250 Z-0.500 F30.000
G1 X-7.750 Y46.250 Z-0.500 F30.000
G1 X-7.750 Y35.250 Z-0.500 F30.000
G1 X-6.750 Y35.250 Z-0.500 F30.000
G1 X-6.750 Y35.250 Z-1.000 F30.000
G1 X-6.750 Y46.250 Z-1.000 F30.000
G1 X-7.750 Y46.250 Z-1.000 F30.000
G1 X-7.750 Y35.250 Z-1.000 F30.000
G1 X-6.750 Y35.250 Z-1.000 F30.000
G1 X-6.750 Y35.250 Z-1.500 F30.000
G1 X-6.750 Y46.250 Z-1.500 F30.000
G1 X-7.750 Y46.250 Z-1.500 F30.000
G1 X-7.750 Y35.250 Z-1.500 F30.000
G1 X-6.750 Y35.250 Z-1.500 F30.000
G1 X-6.750 Y35.250 Z-2.000 F30.000
G1 X-6.750 Y46.250 Z-2.000 F30.000
G1 X-7.750 Y46.250 Z-2.000 F30.000
G1 X-7.750 Y35.250 Z-2.000 F30.000
G1 X-6.750 Y35.250 Z-2.000 F30.000
G1 X-6.750 Y35.250 Z-2.500 F30.000
G1 X-6.750 Y46.250 Z-2.500 F30.000
G1 X-7.750 Y46.250 Z-2.500 F30.000
G1 X-7.750 Y35.250 Z-2.500 F30.000
G1 X-6.750 Y35.250 Z-2.500 F30.000
G0 Z5.000
G0 Z5.000
G0 X0.000 Y0.000
G0 X-36.750 Y35.250
G0 X-36.750 Y35.250 Z3.000
G1 X-36.750 Y35.250 Z-0.500 F30.000
G1 X-36.750 Y46.250 Z-0.500 F30.000
G1 X-37.750 Y46.250 Z-0.500 F30.000
G1 X-37.750 Y35.250 Z-0.500 F30.000
G1 X-36.750 Y35.250 Z-0.500 F30.000
G1 X-36.750 Y35.250 Z-1.000 F30.000
G1 X-36.750 Y46.250 Z-1.000 F30.000
G1 X-37.750 Y46.250 Z-1.000 F30.000
G1 X-37.750 Y35.250 Z-1.000 F30.000
G1 X-36.750 Y35.250 Z-1.000 F30.000
G1 X-36.750 Y35.250 Z-1.500 F30.000
G1 X-36.750 Y46.250 Z-1.500 F30.000
G1 X-37.750 Y46.250 Z-1.500 F30.000
G1 X-37.750 Y35.250 Z-1.500 F30.000
G1 X-36.750 Y35.250 Z-1.500 F30.000
G1 X-36.750 Y35.250 Z-2.000 F30.000
G1 X-36.750 Y46.250 Z-2.000 F30.000
G1 X-37.750 Y46.250 Z-2.000 F30.000
G1 X-37.750 Y35.250 Z-2.000 F30.000
G1 X-36.750 Y35.250 Z-2.000 F30.000
G1 X-36.750 Y35.250 Z-2.500 F30.000
G1 X-36.750 Y46.250 Z-2.500 F30.000
G1 X-37.750 Y46.250 Z-2.500 F30.000
G1 X-37.750 Y35.250 Z-2.500 F30.000
G1 X-36.750 Y35.250 Z-2.500 F30.000
G0 Z5.000
G0 Z5.000
G0 X0.000 Y0.000
G0 X-36.750 Y1.250
G0 X-36.750 Y1.250 Z3.000
G1 X-36.750 Y1.250 Z-0.500 F30.000
G1 X-36.750 Y12.250 Z-0.500 F30.000
G1 X-37.750 Y12.250 Z-0.500 F30.000
G1 X-37.750 Y1.250 Z-0.500 F30.000
G1 X-36.750 Y1.250 Z-0.500 F30.000
G1 X-36.750 Y1.250 Z-1.000 F30.000
G1 X-36.750 Y12.250 Z-1.000 F30.000
G1 X-37.750 Y12.250 Z-1.000 F30.000
G1 X-37.750 Y1.250 Z-1.000 F30.000
G1 X-36.750 Y1.250 Z-1.000 F30.000
G1 X-36.750 Y1.250 Z-1.500 F30.000
G1 X-36.750 Y12.250 Z-1.500 F30.000
G1 X-37.750 Y12.250 Z-1.500 F30.000
G1 X-37.750 Y1.250 Z-1.500 F30.000
G1 X-36.750 Y1.250 Z-1.500 F30.000
G1 X-36.750 Y1.250 Z-2.000 F30.000
G1 X-36.750 Y12.250 Z-2.000 F30.000
G1 X-37.750 Y12.250 Z-2.000 F30.000
G1 X-37.750 Y1.250 Z-2.000 F30.000
G1 X-36.750 Y1.250 Z-2.000 F30.000
G1 X-36.750 Y1.250 Z-2.500 F30.000
G1 X-36.750 Y12.250 Z-2.500 F30.000
G1 X-37.750 Y12.250 Z-2.500 F30.000
G1 X-37.750 Y1.250 Z-2.500 F30.000
G1 X-36.750 Y1.250 Z-2.500 F30.000
G0 Z5.000
G0 Z5.000
G0 X0.000 Y0.000
G0 X-36.750 Y-12.250
G0 X-36.750 Y-12.250 Z3.000
G1 X-36.750 Y-12.250 Z-0.500 F30.000
G1 X-36.750 Y-1.250 Z-0.500 F30.000
G1 X-37.750 Y-1.250 Z-0.500 F30.000
G1 X-37.750 Y-12.250 Z-0.500 F30.000
G1 X-36.750 Y-12.250 Z-0.500 F30.000
G1 X-36.750 Y-12.250 Z-1.000 F30.000
G1 X-36.750 Y-1.250 Z-1.000 F30.000
G1 X-37.750 Y-1.250 Z-1.000 F30.000
G1 X-37.750 Y-12.250 Z-1.000 F30.000
G1 X-36.750 Y-12.250 Z-1.000 F30.000
G1 X-36.750 Y-12.250 Z-1.500 F30.000
G1 X-36.750 Y-1.250 Z-1.500 F30.000
G1 X-37.750 Y-1.250 Z-1.500 F30.000
G1 X-37.750 Y-12.250 Z-1.500 F30.000
G1 X-36.750 Y-12.250 Z-1.500 F30.000
G1 X-36.750 Y-12.250 Z-2.000 F30.000
G1 X-36.750 Y-1.250 Z-2.000 F30.000
G1 X-37.750 Y-1.250 Z-2.000 F30.000
G1 X-37.750 Y-12.250 Z-2.000 F30.000
G1 X-36.750 Y-12.250 Z-2.000 F30.000
G1 X-36.750 Y-12.250 Z-2.500 F30.000
G1 X-36.750 Y-1.250 Z-2.500 F30.000
G1 X-37.750 Y-1.250 Z-2.500 F30.000
G1 X-37.750 Y-12.250 Z-2.500 F30.000
G1 X-36.750 Y-12.250 Z-2.500 F30.000
G0 Z5.000
G0 Z5.000
G0 X0.000 Y0.000
G0 X-36.750 Y-46.250
G0 X-36.750 Y-46.250 Z3.000
G1 X-36.750 Y-46.250 Z-0.500 F30.000
G1 X-36.750 Y-35.250 Z-0.500 F30.000
G1 X-37.750 Y-35.250 Z-0.500 F30.000
G1 X-37.750 Y-46.250 Z-0.500 F30.000
G1 X-36.750 Y-46.250 Z-0.500 F30.000
G1 X-36.750 Y-46.250 Z-1.000 F30.000
G1 X-36.750 Y-35.250 Z-1.000 F30.000
G1 X-37.750 Y-35.250 Z-1.000 F30.000
G1 X-37.750 Y-46.250 Z-1.000 F30.000
G1 X-36.750 Y-46.250 Z-1.000 F30.000
G1 X-36.750 Y-46.250 Z-1.500 F30.000
G1 X-36.750 Y-35.250 Z-1.500 F30.000
G1 X-37.750 Y-35.250 Z-1.500 F30.000
G1 X-37.750 Y-46.250 Z-1.500 F30.000
G1 X-36.750 Y-46.250 Z-1.500 F30.000
G1 X-36.750 Y-46.250 Z-2.000 F30.000
G1 X-36.750 Y-35.250 Z-2.000 F30.000
G1 X-37.750 Y-35.250 Z-2.000 F30.000
G1 X-37.750 Y-46.250 Z-2.000 F30.000
G1 X-36.750 Y-46.250 Z-2.000 F30.000
G1 X-36.750 Y-46.250 Z-2.500 F30.000
G1 X-36.750 Y-35.250 Z-2.500 F30.000
G1 X-37.750 Y-35.250 Z-2.500 F30.000
G1 X-37.750 Y-46.250 Z-2.500 F30.000
G1 X-36.750 Y-46.250 Z-2.500 F30.000
G0 Z5.000
G0 Z5.000
G0 X0.000 Y0.000
G0 X-6.750 Y-46.250
G0 X-6.750 Y-46.250 Z3.000
G1 X-6.750 Y-46.250 Z-0.500 F30.000
G1 X-6.750 Y-35.250 Z-0.500 F30.000
G1 X-7.750 Y-35.250 Z-0.500 F30.000
G1 X-7.750 Y-46.250 Z-0.500 F30.000
G1 X-6.750 Y-46.250 Z-0.500 F30.000
G1 X-6.750 Y-46.250 Z-1.000 F30.000
G1 X-6.750 Y-35.250 Z-1.000 F30.000
G1 X-7.750 Y-35.250 Z-1.000 F30.000
G1 X-7.750 Y-46.250 Z-1.000 F30.000
G1 X-6.750 Y-46.250 Z-1.000 F30.000
G1 X-6.750 Y-46.250 Z-1.500 F30.000
G1 X-6.750 Y-35.250 Z-1.500 F30.000
G1 X-7.750 Y-35.250 Z-1.500 F30.000
G1 X-7.750 Y-46.250 Z-1.500 F30.000
G1 X-6.750 Y-46.250 Z-1.500 F30.000
G1 X-6.750 Y-46.250 Z-2.000 F30.000
G1 X-6.750 Y-35.250 Z-2.000 F30.000
G1 X-7.750 Y-35.250 Z-2.000 F30.000
G1 X-7.750 Y-46.250 Z-2.000 F30.000
G1 X-6.750 Y-46.250 Z-2.000 F30.000
G1 X-6.750 Y-46.250 Z-2.500 F30.000
G1 X-6.750 Y-35.250 Z-2.500 F30.000
G1 X-7.750 Y-35.250 Z-2.500 F30.000
G1 X-7.750 Y-46.250 Z-2.500 F30.000
G1 X-6.750 Y-46.250 Z-2.500 F30.000
G0 Z5.000
G0 Z5.000
G0 X0.000 Y0.000
G0 X7.750 Y-46.250
G0 X7.750 Y-46.250 Z3.000
G1 X7.750 Y-46.250 Z-0.500 F30.000
G1 X7.750 Y-35.250 Z-0.500 F30.000
G1 X6.750 Y-35.250 Z-0.500 F30.000
G1 X6.750 Y-46.250 Z-0.500 F30.000
G1 X7.750 Y-46.250 Z-0.500 F30.000
G1 X7.750 Y-46.250 Z-1.000 F30.000
G1 X7.750 Y-35.250 Z-1.000 F30.000
G1 X6.750 Y-35.250 Z-1.000 F30.000
G1 X6.750 Y-46.250 Z-1.000 F30.000
G1 X7.750 Y-46.250 Z-1.000 F30.000
G1 X7.750 Y-46.250 Z-1.500 F30.000
G1 X7.750 Y-35.250 Z-1.500 F30.000
G1 X6.750 Y-35.250 Z-1.500 F30.000
G1 X6.750 Y-46.250 Z-1.500 F30.000
G1 X7.750 Y-46.250 Z-1.500 F30.000
G1 X7.750 Y-46.250 Z-2.000 F30.000
G1 X7.750 Y-35.250 Z-2.000 F30.000
G1 X6.750 Y-35.250 Z-2.000 F30.000
G1 X6.750 Y-46.250 Z-2.000 F30.000
G1 X7.750 Y-46.250 Z-2.000 F30.000
G1 X7.750 Y-46.250 Z-2.500 F30.000
G1 X7.750 Y-35.250 Z-2.500 F30.000
G1 X6.750 Y-35.250 Z-2.500 F30.000
G1 X6.750 Y-46.250 Z-2.500 F30.000
G1 X7.750 Y-46.250 Z-2.500 F30.000
G0 Z5.000
G0 Z5.000
G0 X0.000 Y0.000
G0 X37.750 Y-46.250
G0 X37.750 Y-46.250 Z3.000
G1 X37.750 Y-46.250 Z-0.500 F30.000
G1 X37.750 Y-35.250 Z-0.500 F30.000
G1 X36.750 Y-35.250 Z-0.500 F30.000
G1 X36.750 Y-46.250 Z-0.500 F30.000
G1 X37.750 Y-46.250 Z-0.500 F30.000
G1 X37.750 Y-46.250 Z-1.000 F30.000
G1 X37.750 Y-35.250 Z-1.000 F30.000
G1 X36.750 Y-35.250 Z-1.000 F30.000
G1 X36.750 Y-46.250 Z-1.000 F30.000
G1 X37.750 Y-46.250 Z-1.000 F30.000
G1 X37.750 Y-46.250 Z-1.500 F30.000
G1 X37.750 Y-35.250 Z-1.500 F30.000
G1 X36.750 Y-35.250 Z-1.500 F30.000
G1 X36.750 Y-46.250 Z-1.500 F30.000
G1 X37.750 Y-46.250 Z-1.500 F30.000
G1 X37.750 Y-46.250 Z-2.000 F30.000
G1 X37.750 Y-35.250 Z-2.000 F30.000
G1 X36.750 Y-35.250 Z-2.000 F30.000
G1 X36.750 Y-46.250 Z-2.000 F30.000
G1 X37.750 Y-46.250 Z-2.000 F30.000
G1 X37.750 Y-46.250 Z-2.500 F30.000
G1 X37.750 Y-35.250 Z-2.500 F30.000
G1 X36.750 Y-35.250 Z-2.500 F30.000
G1 X36.750 Y-46.250 Z-2.500 F30.000
G1 X37.750 Y-46.250 Z-2.500 F30.000
G0 Z5.000
G0 Z5.000
(Finish operation: Pocket_Shape001)
(Begin postamble)
M5
G17 G90
M2
