(Exported by FreeCAD)
(Post Processor: grbl_post)
(Output Time:2025-09-14 00:04:15.012460)
(Begin preamble)
G17 G90
G21
(Begin operation: Fixture)
(Path: Fixture)
G54
(Finish operation: Fixture)
(Begin operation: 2mm-6-Endmill006)
(Path: 2mm-6-Endmill006)
(2mm-6-Endmill006)
(Begin toolchange)
( M6 T2 )
(Finish operation: 2mm-6-Endmill006)
(Begin operation: Profile)
(Path: Profile)
(Profile)
(Compensated Tool Path. Diameter: 2.0)
G0 Z5.000
G0 X1.943 Y1.943
G0 Z3.000
G1 X1.943 Y1.943 Z-0.500 F30.000
G3 X-0.774 Y2.636 Z-0.500 I-1.943 J-1.943 K0.000 F30.000
G3 X0.774 Y-2.636 Z-0.500 I0.774 J-2.636 K0.000 F30.000
G3 X1.943 Y1.943 Z-0.500 I-0.774 J2.636 K0.000 F30.000
G1 X1.943 Y1.943 Z-1.000 F30.000
G3 X-0.774 Y2.636 Z-1.000 I-1.943 J-1.943 K0.000 F30.000
G3 X0.774 Y-2.636 Z-1.000 I0.774 J-2.636 K0.000 F30.000
G3 X1.943 Y1.943 Z-1.000 I-0.774 J2.636 K0.000 F30.000
G1 X1.943 Y1.943 Z-1.500 F30.000
G3 X-0.774 Y2.636 Z-1.500 I-1.943 J-1.943 K0.000 F30.000
G3 X0.774 Y-2.636 Z-1.500 I0.774 J-2.636 K0.000 F30.000
G3 X1.943 Y1.943 Z-1.500 I-0.774 J2.636 K0.000 F30.000
G1 X1.943 Y1.943 Z-2.000 F30.000
G3 X-0.774 Y2.636 Z-2.000 I-1.943 J-1.943 K0.000 F30.000
G3 X0.774 Y-2.636 Z-2.000 I0.774 J-2.636 K0.000 F30.000
G3 X1.943 Y1.943 Z-2.000 I-0.774 J2.636 K0.000 F30.000
G1 X1.943 Y1.943 Z-2.500 F30.000
G3 X-0.774 Y2.636 Z-2.500 I-1.943 J-1.943 K0.000 F30.000
G3 X0.774 Y-2.636 Z-2.500 I0.774 J-2.636 K0.000 F30.000
G3 X1.943 Y1.943 Z-2.500 I-0.774 J2.636 K0.000 F30.000
G1 X1.943 Y1.943 Z-3.000 F30.000
G3 X-0.774 Y2.636 Z-3.000 I-1.943 J-1.943 K0.000 F30.000
G3 X0.774 Y-2.636 Z-3.000 I0.774 J-2.636 K0.000 F30.000
G3 X1.943 Y1.943 Z-3.000 I-0.774 J2.636 K0.000 F30.000
G1 X1.943 Y1.943 Z-3.500 F30.000
G3 X-0.774 Y2.636 Z-3.500 I-1.943 J-1.943 K0.000 F30.000
G3 X0.774 Y-2.636 Z-3.500 I0.774 J-2.636 K0.000 F30.000
G3 X1.943 Y1.943 Z-3.500 I-0.774 J2.636 K0.000 F30.000
G1 X1.943 Y1.943 Z-4.000 F30.000
G3 X-0.774 Y2.636 Z-4.000 I-1.943 J-1.943 K0.000 F30.000
G3 X0.774 Y-2.636 Z-4.000 I0.774 J-2.636 K0.000 F30.000
G3 X1.943 Y1.943 Z-4.000 I-0.774 J2.636 K0.000 F30.000
G1 X1.943 Y1.943 Z-4.500 F30.000
G3 X-0.774 Y2.636 Z-4.500 I-1.943 J-1.943 K0.000 F30.000
G3 X0.774 Y-2.636 Z-4.500 I0.774 J-2.636 K0.000 F30.000
G3 X1.943 Y1.943 Z-4.500 I-0.774 J2.636 K0.000 F30.000
G1 X1.943 Y1.943 Z-5.000 F30.000
G3 X-0.774 Y2.636 Z-5.000 I-1.943 J-1.943 K0.000 F30.000
G3 X0.774 Y-2.636 Z-5.000 I0.774 J-2.636 K0.000 F30.000
G3 X1.943 Y1.943 Z-5.000 I-0.774 J2.636 K0.000 F30.000
G0 Z5.000
G0 Z5.000
(Finish operation: Profile)
(Begin operation: Pocket_Shape001)
(Path: Pocket_Shape001)
(Pocket_Shape001)
G0 Z5.000
G0
G0 X-1.464 Y5.274
G0 X-1.464 Y5.274 Z3.000
G1 X-1.464 Y5.274 Z-0.500 F30.000
G3 X-5.274 Y-1.464 Z-0.500 I1.464 J-5.274 K0.000 F30.000
G3 X1.464 Y-5.274 Z-0.500 I5.274 J1.464 K0.000 F30.000
G3 X5.274 Y1.464 Z-0.500 I-1.464 J5.274 K0.000 F30.000
G3 X-1.464 Y5.274 Z-0.500 I-5.274 J-1.464 K0.000 F30.000
G0 Z5.000
G0 X0.605 Y4.709 Z5.000
G0 X0.605 Y4.709 Z3.000
G1 X0.605 Y4.709 Z-0.500 F30.000
G3 X-4.709 Y0.605 Z-0.500 I-0.605 J-4.709 K0.000 F30.000
G3 X-0.605 Y-4.709 Z-0.500 I4.709 J-0.605 K0.000 F30.000
G3 X0.605 Y4.709 Z-0.500 I0.605 J4.709 K0.000 F30.000
G0 Z5.000
G0 X-1.464 Y5.274 Z5.000
G0 X-1.464 Y5.274 Z3.000
G1 X-1.464 Y5.274 Z-1.000 F30.000
G3 X-5.274 Y-1.464 Z-1.000 I1.464 J-5.274 K0.000 F30.000
G3 X1.464 Y-5.274 Z-1.000 I5.274 J1.464 K0.000 F30.000
G3 X5.274 Y1.464 Z-1.000 I-1.464 J5.274 K0.000 F30.000
G3 X-1.464 Y5.274 Z-1.000 I-5.274 J-1.464 K0.000 F30.000
G0 Z5.000
G0 X0.605 Y4.709 Z5.000
G0 X0.605 Y4.709 Z3.000
G1 X0.605 Y4.709 Z-1.000 F30.000
G3 X-4.709 Y0.605 Z-1.000 I-0.605 J-4.709 K0.000 F30.000
G3 X-0.605 Y-4.709 Z-1.000 I4.709 J-0.605 K0.000 F30.000
G3 X0.605 Y4.709 Z-1.000 I0.605 J4.709 K0.000 F30.000
G0 Z5.000
G0 X-1.464 Y5.274 Z5.000
G0 X-1.464 Y5.274 Z3.000
G1 X-1.464 Y5.274 Z-1.500 F30.000
G3 X-5.274 Y-1.464 Z-1.500 I1.464 J-5.274 K0.000 F30.000
G3 X1.464 Y-5.274 Z-1.500 I5.274 J1.464 K0.000 F30.000
G3 X5.274 Y1.464 Z-1.500 I-1.464 J5.274 K0.000 F30.000
G3 X-1.464 Y5.274 Z-1.500 I-5.274 J-1.464 K0.000 F30.000
G0 Z5.000
G0 X0.605 Y4.709 Z5.000
G0 X0.605 Y4.709 Z3.000
G1 X0.605 Y4.709 Z-1.500 F30.000
G3 X-0.605 Y-4.709 Z-1.500 I-0.605 J-4.709 K0.000 F30.000
G3 X0.605 Y4.709 Z-1.500 I0.605 J4.709 K0.000 F30.000
G0 Z5.000
G0 X-1.464 Y5.274 Z5.000
G0 X-1.464 Y5.274 Z3.000
G1 X-1.464 Y5.274 Z-2.000 F30.000
G3 X-5.274 Y-1.464 Z-2.000 I1.464 J-5.274 K0.000 F30.000
G3 X1.464 Y-5.274 Z-2.000 I5.274 J1.464 K0.000 F30.000
G3 X5.274 Y1.464 Z-2.000 I-1.464 J5.274 K0.000 F30.000
G3 X-1.464 Y5.274 Z-2.000 I-5.274 J-1.464 K0.000 F30.000
G0 Z5.000
G0 X0.605 Y4.709 Z5.000
G0 X0.605 Y4.709 Z3.000
G1 X0.605 Y4.709 Z-2.000 F30.000
G3 X-0.605 Y-4.709 Z-2.000 I-0.605 J-4.709 K0.000 F30.000
G3 X0.605 Y4.709 Z-2.000 I0.605 J4.709 K0.000 F30.000
G0 Z5.000
G0 X-1.464 Y5.274 Z5.000
G0 X-1.464 Y5.274 Z3.000
G1 X-1.464 Y5.274 Z-2.500 F30.000
G3 X-5.274 Y-1.464 Z-2.500 I1.464 J-5.274 K0.000 F30.000
G3 X1.464 Y-5.274 Z-2.500 I5.274 J1.464 K0.000 F30.000
G3 X5.274 Y1.464 Z-2.500 I-1.464 J5.274 K0.000 F30.000
G3 X-1.464 Y5.274 Z-2.500 I-5.274 J-1.464 K0.000 F30.000
G0 Z5.000
G0 X0.605 Y4.709 Z5.000
G0 X0.605 Y4.709 Z3.000
G1 X0.605 Y4.709 Z-2.500 F30.000
G3 X-0.605 Y-4.709 Z-2.500 I-0.605 J-4.709 K0.000 F30.000
G3 X4.709 Y-0.605 Z-2.500 I0.605 J4.709 K0.000 F30.000
G3 X0.605 Y4.709 Z-2.500 I-4.709 J0.605 K0.000 F30.000
G0 Z5.000
G0 X-1.464 Y5.274 Z5.000
G0 X-1.464 Y5.274 Z3.000
G1 X-1.464 Y5.274 Z-2.950 F30.000
G3 X-5.274 Y-1.464 Z-2.950 I1.464 J-5.274 K0.000 F30.000
G3 X1.464 Y-5.274 Z-2.950 I5.274 J1.464 K0.000 F30.000
G3 X5.274 Y1.464 Z-2.950 I-1.464 J5.274 K0.000 F30.000
G3 X-1.464 Y5.274 Z-2.950 I-5.274 J-1.464 K0.000 F30.000
G0 Z5.000
G0 X0.605 Y4.709 Z5.000
G0 X0.605 Y4.709 Z3.000
G1 X0.605 Y4.709 Z-2.950 F30.000
G3 X-0.605 Y-4.709 Z-2.950 I-0.605 J-4.709 K0.000 F30.000
G3 X4.709 Y-0.605 Z-2.950 I0.605 J4.709 K0.000 F30.000
G3 X0.605 Y4.709 Z-2.950 I-4.709 J0.605 K0.000 F30.000
G0 Z5.000
G0 Z5.000
(Finish operation: Pocket_Shape001)
(Begin operation: Profile033)
(Path: Profile033)
(Profile033)
(Compensated Tool Path. Diameter: 2.0)
G0 Z5.000
G0 X-7.983 Y-5.224
G0 Z3.000
G1 X-7.983 Y-5.224 Z-0.500 F30.000
G3 X-8.564 Y-5.159 Z-0.500 I-0.331 J-0.331 K0.000 F30.000
G3 X-8.712 Y-5.805 Z-0.500 I0.249 J-0.397 K0.000 F30.000
G3 X-8.065 Y-5.952 Z-0.500 I0.397 J0.249 K0.000 F30.000
G3 X-7.983 Y-5.224 Z-0.500 I-0.249 J0.397 K0.000 F30.000
G1 X-7.983 Y-5.224 Z-1.000 F30.000
G3 X-8.564 Y-5.159 Z-1.000 I-0.331 J-0.331 K0.000 F30.000
G3 X-8.712 Y-5.805 Z-1.000 I0.249 J-0.397 K0.000 F30.000
G3 X-8.065 Y-5.952 Z-1.000 I0.397 J0.249 K0.000 F30.000
G3 X-7.983 Y-5.224 Z-1.000 I-0.249 J0.397 K0.000 F30.000
G1 X-7.983 Y-5.224 Z-1.500 F30.000
G3 X-8.564 Y-5.159 Z-1.500 I-0.331 J-0.331 K0.000 F30.000
G3 X-8.712 Y-5.805 Z-1.500 I0.249 J-0.397 K0.000 F30.000
G3 X-8.065 Y-5.952 Z-1.500 I0.397 J0.249 K0.000 F30.000
G3 X-7.983 Y-5.224 Z-1.500 I-0.249 J0.397 K0.000 F30.000
G1 X-7.983 Y-5.224 Z-2.000 F30.000
G3 X-8.564 Y-5.159 Z-2.000 I-0.331 J-0.331 K0.000 F30.000
G3 X-8.712 Y-5.805 Z-2.000 I0.249 J-0.397 K0.000 F30.000
G3 X-8.065 Y-5.952 Z-2.000 I0.397 J0.249 K0.000 F30.000
G3 X-7.983 Y-5.224 Z-2.000 I-0.249 J0.397 K0.000 F30.000
G1 X-7.983 Y-5.224 Z-2.500 F30.000
G3 X-8.564 Y-5.159 Z-2.500 I-0.331 J-0.331 K0.000 F30.000
G3 X-8.712 Y-5.805 Z-2.500 I0.249 J-0.397 K0.000 F30.000
G3 X-8.065 Y-5.952 Z-2.500 I0.397 J0.249 K0.000 F30.000
G3 X-7.983 Y-5.224 Z-2.500 I-0.249 J0.397 K0.000 F30.000
G1 X-7.983 Y-5.224 Z-3.000 F30.000
G3 X-8.564 Y-5.159 Z-3.000 I-0.331 J-0.331 K0.000 F30.000
G3 X-8.712 Y-5.805 Z-3.000 I0.249 J-0.397 K0.000 F30.000
G3 X-8.065 Y-5.952 Z-3.000 I0.397 J0.249 K0.000 F30.000
G3 X-7.983 Y-5.224 Z-3.000 I-0.249 J0.397 K0.000 F30.000
G1 X-7.983 Y-5.224 Z-3.500 F30.000
G3 X-8.564 Y-5.159 Z-3.500 I-0.331 J-0.331 K0.000 F30.000
G3 X-8.712 Y-5.805 Z-3.500 I0.249 J-0.397 K0.000 F30.000
G3 X-8.065 Y-5.952 Z-3.500 I0.397 J0.249 K0.000 F30.000
G3 X-7.983 Y-5.224 Z-3.500 I-0.249 J0.397 K0.000 F30.000
G1 X-7.983 Y-5.224 Z-4.000 F30.000
G3 X-8.564 Y-5.159 Z-4.000 I-0.331 J-0.331 K0.000 F30.000
G3 X-8.712 Y-5.805 Z-4.000 I0.249 J-0.397 K0.000 F30.000
G3 X-8.065 Y-5.952 Z-4.000 I0.397 J0.249 K0.000 F30.000
G3 X-7.983 Y-5.224 Z-4.000 I-0.249 J0.397 K0.000 F30.000
G1 X-7.983 Y-5.224 Z-4.500 F30.000
G3 X-8.564 Y-5.159 Z-4.500 I-0.331 J-0.331 K0.000 F30.000
G3 X-8.712 Y-5.805 Z-4.500 I0.249 J-0.397 K0.000 F30.000
G3 X-8.065 Y-5.952 Z-4.500 I0.397 J0.249 K0.000 F30.000
G3 X-7.983 Y-5.224 Z-4.500 I-0.249 J0.397 K0.000 F30.000
G1 X-7.983 Y-5.224 Z-5.000 F30.000
G3 X-8.564 Y-5.159 Z-5.000 I-0.331 J-0.331 K0.000 F30.000
G3 X-8.712 Y-5.805 Z-5.000 I0.249 J-0.397 K0.000 F30.000
G3 X-8.065 Y-5.952 Z-5.000 I0.397 J0.249 K0.000 F30.000
G3 X-7.983 Y-5.224 Z-5.000 I-0.249 J0.397 K0.000 F30.000
G0 Z5.000
G0 Z5.000
(Finish operation: Profile033)
(Begin operation: Profile034)
(Path: Profile034)
(Profile034)
(Compensated Tool Path. Diameter: 2.0)
G0 Z5.000
G0 X-1.620 Y-9.476
G0 Z3.000
G1 X-1.620 Y-9.476 Z-0.500 F30.000
G3 X-2.154 Y-9.386 Z-0.500 I-0.331 J-0.331 K0.000 F30.000
G3 X-1.748 Y-10.230 Z-0.500 I0.203 J-0.422 K0.000 F30.000
G3 X-1.620 Y-9.476 Z-0.500 I-0.203 J0.422 K0.000 F30.000
G1 X-1.620 Y-9.476 Z-1.000 F30.000
G3 X-2.154 Y-9.386 Z-1.000 I-0.331 J-0.331 K0.000 F30.000
G3 X-1.748 Y-10.230 Z-1.000 I0.203 J-0.422 K0.000 F30.000
G3 X-1.620 Y-9.476 Z-1.000 I-0.203 J0.422 K0.000 F30.000
G1 X-1.620 Y-9.476 Z-1.500 F30.000
G3 X-2.154 Y-9.386 Z-1.500 I-0.331 J-0.331 K0.000 F30.000
G3 X-1.748 Y-10.230 Z-1.500 I0.203 J-0.422 K0.000 F30.000
G3 X-1.620 Y-9.476 Z-1.500 I-0.203 J0.422 K0.000 F30.000
G1 X-1.620 Y-9.476 Z-2.000 F30.000
G3 X-2.154 Y-9.386 Z-2.000 I-0.331 J-0.331 K0.000 F30.000
G3 X-1.748 Y-10.230 Z-2.000 I0.203 J-0.422 K0.000 F30.000
G3 X-1.620 Y-9.476 Z-2.000 I-0.203 J0.422 K0.000 F30.000
G1 X-1.620 Y-9.476 Z-2.500 F30.000
G3 X-2.154 Y-9.386 Z-2.500 I-0.331 J-0.331 K0.000 F30.000
G3 X-1.748 Y-10.230 Z-2.500 I0.203 J-0.422 K0.000 F30.000
G3 X-1.620 Y-9.476 Z-2.500 I-0.203 J0.422 K0.000 F30.000
G1 X-1.620 Y-9.476 Z-3.000 F30.000
G3 X-2.154 Y-9.386 Z-3.000 I-0.331 J-0.331 K0.000 F30.000
G3 X-1.748 Y-10.230 Z-3.000 I0.203 J-0.422 K0.000 F30.000
G3 X-1.620 Y-9.476 Z-3.000 I-0.203 J0.422 K0.000 F30.000
G1 X-1.620 Y-9.476 Z-3.500 F30.000
G3 X-2.154 Y-9.386 Z-3.500 I-0.331 J-0.331 K0.000 F30.000
G3 X-1.748 Y-10.230 Z-3.500 I0.203 J-0.422 K0.000 F30.000
G3 X-1.620 Y-9.476 Z-3.500 I-0.203 J0.422 K0.000 F30.000
G1 X-1.620 Y-9.476 Z-4.000 F30.000
G3 X-2.154 Y-9.386 Z-4.000 I-0.331 J-0.331 K0.000 F30.000
G3 X-1.748 Y-10.230 Z-4.000 I0.203 J-0.422 K0.000 F30.000
G3 X-1.620 Y-9.476 Z-4.000 I-0.203 J0.422 K0.000 F30.000
G1 X-1.620 Y-9.476 Z-4.500 F30.000
G3 X-2.154 Y-9.386 Z-4.500 I-0.331 J-0.331 K0.000 F30.000
G3 X-1.748 Y-10.230 Z-4.500 I0.203 J-0.422 K0.000 F30.000
G3 X-1.620 Y-9.476 Z-4.500 I-0.203 J0.422 K0.000 F30.000
G1 X-1.620 Y-9.476 Z-5.000 F30.000
G3 X-2.154 Y-9.386 Z-5.000 I-0.331 J-0.331 K0.000 F30.000
G3 X-1.748 Y-10.230 Z-5.000 I0.203 J-0.422 K0.000 F30.000
G3 X-1.620 Y-9.476 Z-5.000 I-0.203 J0.422 K0.000 F30.000
G0 Z5.000
G0 Z5.000
(Finish operation: Profile034)
(Begin operation: Profile035)
(Path: Profile035)
(Profile035)
(Compensated Tool Path. Diameter: 2.0)
G0 Z5.000
G0 X5.887 Y-7.983
G0 Z3.000
G1 X5.887 Y-7.983 Z-0.500 F30.000
G3 X5.306 Y-7.918 Z-0.500 I-0.331 J-0.331 K0.000 F30.000
G3 X5.805 Y-8.712 Z-0.500 I0.249 J-0.397 K0.000 F30.000
G3 X5.887 Y-7.983 Z-0.500 I-0.249 J0.397 K0.000 F30.000
G1 X5.887 Y-7.983 Z-1.000 F30.000
G3 X5.306 Y-7.918 Z-1.000 I-0.331 J-0.331 K0.000 F30.000
G3 X5.805 Y-8.712 Z-1.000 I0.249 J-0.397 K0.000 F30.000
G3 X5.887 Y-7.983 Z-1.000 I-0.249 J0.397 K0.000 F30.000
G1 X5.887 Y-7.983 Z-1.500 F30.000
G3 X5.306 Y-7.918 Z-1.500 I-0.331 J-0.331 K0.000 F30.000
G3 X5.805 Y-8.712 Z-1.500 I0.249 J-0.397 K0.000 F30.000
G3 X5.887 Y-7.983 Z-1.500 I-0.249 J0.397 K0.000 F30.000
G1 X5.887 Y-7.983 Z-2.000 F30.000
G3 X5.306 Y-7.918 Z-2.000 I-0.331 J-0.331 K0.000 F30.000
G3 X5.805 Y-8.712 Z-2.000 I0.249 J-0.397 K0.000 F30.000
G3 X5.887 Y-7.983 Z-2.000 I-0.249 J0.397 K0.000 F30.000
G1 X5.887 Y-7.983 Z-2.500 F30.000
G3 X5.306 Y-7.918 Z-2.500 I-0.331 J-0.331 K0.000 F30.000
G3 X5.805 Y-8.712 Z-2.500 I0.249 J-0.397 K0.000 F30.000
G3 X5.887 Y-7.983 Z-2.500 I-0.249 J0.397 K0.000 F30.000
G1 X5.887 Y-7.983 Z-3.000 F30.000
G3 X5.306 Y-7.918 Z-3.000 I-0.331 J-0.331 K0.000 F30.000
G3 X5.805 Y-8.712 Z-3.000 I0.249 J-0.397 K0.000 F30.000
G3 X5.887 Y-7.983 Z-3.000 I-0.249 J0.397 K0.000 F30.000
G1 X5.887 Y-7.983 Z-3.500 F30.000
G3 X5.306 Y-7.918 Z-3.500 I-0.331 J-0.331 K0.000 F30.000
G3 X5.805 Y-8.712 Z-3.500 I0.249 J-0.397 K0.000 F30.000
G3 X5.887 Y-7.983 Z-3.500 I-0.249 J0.397 K0.000 F30.000
G1 X5.887 Y-7.983 Z-4.000 F30.000
G3 X5.306 Y-7.918 Z-4.000 I-0.331 J-0.331 K0.000 F30.000
G3 X5.805 Y-8.712 Z-4.000 I0.249 J-0.397 K0.000 F30.000
G3 X5.887 Y-7.983 Z-4.000 I-0.249 J0.397 K0.000 F30.000
G1 X5.887 Y-7.983 Z-4.500 F30.000
G3 X5.306 Y-7.918 Z-4.500 I-0.331 J-0.331 K0.000 F30.000
G3 X5.805 Y-8.712 Z-4.500 I0.249 J-0.397 K0.000 F30.000
G3 X5.887 Y-7.983 Z-4.500 I-0.249 J0.397 K0.000 F30.000
G1 X5.887 Y-7.983 Z-5.000 F30.000
G3 X5.306 Y-7.918 Z-5.000 I-0.331 J-0.331 K0.000 F30.000
G3 X5.805 Y-8.712 Z-5.000 I0.249 J-0.397 K0.000 F30.000
G3 X5.887 Y-7.983 Z-5.000 I-0.249 J0.397 K0.000 F30.000
G0 Z5.000
G0 Z5.000
(Finish operation: Profile035)
(Begin operation: Profile036)
(Path: Profile036)
(Profile036)
(Compensated Tool Path. Diameter: 2.0)
G0 Z5.000
G0 X10.139 Y-1.620
G0 Z3.000
G1 X10.139 Y-1.620 Z-0.500 F30.000
G3 X9.605 Y-1.529 Z-0.500 I-0.331 J-0.331 K0.000 F30.000
G3 X10.011 Y-2.373 Z-0.500 I0.203 J-0.422 K0.000 F30.000
G3 X10.139 Y-1.620 Z-0.500 I-0.203 J0.422 K0.000 F30.000
G1 X10.139 Y-1.620 Z-1.000 F30.000
G3 X9.605 Y-1.529 Z-1.000 I-0.331 J-0.331 K0.000 F30.000
G3 X10.011 Y-2.373 Z-1.000 I0.203 J-0.422 K0.000 F30.000
G3 X10.139 Y-1.620 Z-1.000 I-0.203 J0.422 K0.000 F30.000
G1 X10.139 Y-1.620 Z-1.500 F30.000
G3 X9.605 Y-1.529 Z-1.500 I-0.331 J-0.331 K0.000 F30.000
G3 X10.011 Y-2.373 Z-1.500 I0.203 J-0.422 K0.000 F30.000
G3 X10.139 Y-1.620 Z-1.500 I-0.203 J0.422 K0.000 F30.000
G1 X10.139 Y-1.620 Z-2.000 F30.000
G3 X9.605 Y-1.529 Z-2.000 I-0.331 J-0.331 K0.000 F30.000
G3 X10.011 Y-2.373 Z-2.000 I0.203 J-0.422 K0.000 F30.000
G3 X10.139 Y-1.620 Z-2.000 I-0.203 J0.422 K0.000 F30.000
G1 X10.139 Y-1.620 Z-2.500 F30.000
G3 X9.605 Y-1.529 Z-2.500 I-0.331 J-0.331 K0.000 F30.000
G3 X10.011 Y-2.373 Z-2.500 I0.203 J-0.422 K0.000 F30.000
G3 X10.139 Y-1.620 Z-2.500 I-0.203 J0.422 K0.000 F30.000
G1 X10.139 Y-1.620 Z-3.000 F30.000
G3 X9.605 Y-1.529 Z-3.000 I-0.331 J-0.331 K0.000 F30.000
G3 X10.011 Y-2.373 Z-3.000 I0.203 J-0.422 K0.000 F30.000
G3 X10.139 Y-1.620 Z-3.000 I-0.203 J0.422 K0.000 F30.000
G1 X10.139 Y-1.620 Z-3.500 F30.000
G3 X9.605 Y-1.529 Z-3.500 I-0.331 J-0.331 K0.000 F30.000
G3 X10.011 Y-2.373 Z-3.500 I0.203 J-0.422 K0.000 F30.000
G3 X10.139 Y-1.620 Z-3.500 I-0.203 J0.422 K0.000 F30.000
G1 X10.139 Y-1.620 Z-4.000 F30.000
G3 X9.605 Y-1.529 Z-4.000 I-0.331 J-0.331 K0.000 F30.000
G3 X10.011 Y-2.373 Z-4.000 I0.203 J-0.422 K0.000 F30.000
G3 X10.139 Y-1.620 Z-4.000 I-0.203 J0.422 K0.000 F30.000
G1 X10.139 Y-1.620 Z-4.500 F30.000
G3 X9.605 Y-1.529 Z-4.500 I-0.331 J-0.331 K0.000 F30.000
G3 X10.011 Y-2.373 Z-4.500 I0.203 J-0.422 K0.000 F30.000
G3 X10.139 Y-1.620 Z-4.500 I-0.203 J0.422 K0.000 F30.000
G1 X10.139 Y-1.620 Z-5.000 F30.000
G3 X9.605 Y-1.529 Z-5.000 I-0.331 J-0.331 K0.000 F30.000
G3 X10.011 Y-2.373 Z-5.000 I0.203 J-0.422 K0.000 F30.000
G3 X10.139 Y-1.620 Z-5.000 I-0.203 J0.422 K0.000 F30.000
G0 Z5.000
G0 Z5.000
(Finish operation: Profile036)
(Begin operation: Profile037)
(Path: Profile037)
(Profile037)
(Compensated Tool Path. Diameter: 2.0)
G0 Z5.000
G0 X8.646 Y5.887
G0 Z3.000
G1 X8.646 Y5.887 Z-0.500 F30.000
G3 X8.065 Y5.952 Z-0.500 I-0.331 J-0.331 K0.000 F30.000
G3 X8.564 Y5.159 Z-0.500 I0.249 J-0.397 K0.000 F30.000
G3 X8.646 Y5.887 Z-0.500 I-0.249 J0.397 K0.000 F30.000
G1 X8.646 Y5.887 Z-1.000 F30.000
G3 X8.065 Y5.952 Z-1.000 I-0.331 J-0.331 K0.000 F30.000
G3 X8.564 Y5.159 Z-1.000 I0.249 J-0.397 K0.000 F30.000
G3 X8.646 Y5.887 Z-1.000 I-0.249 J0.397 K0.000 F30.000
G1 X8.646 Y5.887 Z-1.500 F30.000
G3 X8.065 Y5.952 Z-1.500 I-0.331 J-0.331 K0.000 F30.000
G3 X8.564 Y5.159 Z-1.500 I0.249 J-0.397 K0.000 F30.000
G3 X8.646 Y5.887 Z-1.500 I-0.249 J0.397 K0.000 F30.000
G1 X8.646 Y5.887 Z-2.000 F30.000
G3 X8.065 Y5.952 Z-2.000 I-0.331 J-0.331 K0.000 F30.000
G3 X8.564 Y5.159 Z-2.000 I0.249 J-0.397 K0.000 F30.000
G3 X8.646 Y5.887 Z-2.000 I-0.249 J0.397 K0.000 F30.000
G1 X8.646 Y5.887 Z-2.500 F30.000
G3 X8.065 Y5.952 Z-2.500 I-0.331 J-0.331 K0.000 F30.000
G3 X8.564 Y5.159 Z-2.500 I0.249 J-0.397 K0.000 F30.000
G3 X8.646 Y5.887 Z-2.500 I-0.249 J0.397 K0.000 F30.000
G1 X8.646 Y5.887 Z-3.000 F30.000
G3 X8.065 Y5.952 Z-3.000 I-0.331 J-0.331 K0.000 F30.000
G3 X8.564 Y5.159 Z-3.000 I0.249 J-0.397 K0.000 F30.000
G3 X8.646 Y5.887 Z-3.000 I-0.249 J0.397 K0.000 F30.000
G1 X8.646 Y5.887 Z-3.500 F30.000
G3 X8.065 Y5.952 Z-3.500 I-0.331 J-0.331 K0.000 F30.000
G3 X8.564 Y5.159 Z-3.500 I0.249 J-0.397 K0.000 F30.000
G3 X8.646 Y5.887 Z-3.500 I-0.249 J0.397 K0.000 F30.000
G1 X8.646 Y5.887 Z-4.000 F30.000
G3 X8.065 Y5.952 Z-4.000 I-0.331 J-0.331 K0.000 F30.000
G3 X8.564 Y5.159 Z-4.000 I0.249 J-0.397 K0.000 F30.000
G3 X8.646 Y5.887 Z-4.000 I-0.249 J0.397 K0.000 F30.000
G1 X8.646 Y5.887 Z-4.500 F30.000
G3 X8.065 Y5.952 Z-4.500 I-0.331 J-0.331 K0.000 F30.000
G3 X8.564 Y5.159 Z-4.500 I0.249 J-0.397 K0.000 F30.000
G3 X8.646 Y5.887 Z-4.500 I-0.249 J0.397 K0.000 F30.000
G1 X8.646 Y5.887 Z-5.000 F30.000
G3 X8.065 Y5.952 Z-5.000 I-0.331 J-0.331 K0.000 F30.000
G3 X8.564 Y5.159 Z-5.000 I0.249 J-0.397 K0.000 F30.000
G3 X8.646 Y5.887 Z-5.000 I-0.249 J0.397 K0.000 F30.000
G0 Z5.000
G0 Z5.000
(Finish operation: Profile037)
(Begin operation: Profile038)
(Path: Profile038)
(Profile038)
(Compensated Tool Path. Diameter: 2.0)
G0 Z5.000
G0 X2.282 Y10.139
G0 Z3.000
G1 X2.282 Y10.139 Z-0.500 F30.000
G3 X1.748 Y10.230 Z-0.500 I-0.331 J-0.331 K0.000 F30.000
G3 X2.154 Y9.386 Z-0.500 I0.203 J-0.422 K0.000 F30.000
G3 X2.282 Y10.139 Z-0.500 I-0.203 J0.422 K0.000 F30.000
G1 X2.282 Y10.139 Z-1.000 F30.000
G3 X1.748 Y10.230 Z-1.000 I-0.331 J-0.331 K0.000 F30.000
G3 X2.154 Y9.386 Z-1.000 I0.203 J-0.422 K0.000 F30.000
G3 X2.282 Y10.139 Z-1.000 I-0.203 J0.422 K0.000 F30.000
G1 X2.282 Y10.139 Z-1.500 F30.000
G3 X1.748 Y10.230 Z-1.500 I-0.331 J-0.331 K0.000 F30.000
G3 X2.154 Y9.386 Z-1.500 I0.203 J-0.422 K0.000 F30.000
G3 X2.282 Y10.139 Z-1.500 I-0.203 J0.422 K0.000 F30.000
G1 X2.282 Y10.139 Z-2.000 F30.000
G3 X1.748 Y10.230 Z-2.000 I-0.331 J-0.331 K0.000 F30.000
G3 X2.154 Y9.386 Z-2.000 I0.203 J-0.422 K0.000 F30.000
G3 X2.282 Y10.139 Z-2.000 I-0.203 J0.422 K0.000 F30.000
G1 X2.282 Y10.139 Z-2.500 F30.000
G3 X1.748 Y10.230 Z-2.500 I-0.331 J-0.331 K0.000 F30.000
G3 X2.154 Y9.386 Z-2.500 I0.203 J-0.422 K0.000 F30.000
G3 X2.282 Y10.139 Z-2.500 I-0.203 J0.422 K0.000 F30.000
G1 X2.282 Y10.139 Z-3.000 F30.000
G3 X1.748 Y10.230 Z-3.000 I-0.331 J-0.331 K0.000 F30.000
G3 X2.154 Y9.386 Z-3.000 I0.203 J-0.422 K0.000 F30.000
G3 X2.282 Y10.139 Z-3.000 I-0.203 J0.422 K0.000 F30.000
G1 X2.282 Y10.139 Z-3.500 F30.000
G3 X1.748 Y10.230 Z-3.500 I-0.331 J-0.331 K0.000 F30.000
G3 X2.154 Y9.386 Z-3.500 I0.203 J-0.422 K0.000 F30.000
G3 X2.282 Y10.139 Z-3.500 I-0.203 J0.422 K0.000 F30.000
G1 X2.282 Y10.139 Z-4.000 F30.000
G3 X1.748 Y10.230 Z-4.000 I-0.331 J-0.331 K0.000 F30.000
G3 X2.154 Y9.386 Z-4.000 I0.203 J-0.422 K0.000 F30.000
G3 X2.282 Y10.139 Z-4.000 I-0.203 J0.422 K0.000 F30.000
G1 X2.282 Y10.139 Z-4.500 F30.000
G3 X1.748 Y10.230 Z-4.500 I-0.331 J-0.331 K0.000 F30.000
G3 X2.154 Y9.386 Z-4.500 I0.203 J-0.422 K0.000 F30.000
G3 X2.282 Y10.139 Z-4.500 I-0.203 J0.422 K0.000 F30.000
G1 X2.282 Y10.139 Z-5.000 F30.000
G3 X1.748 Y10.230 Z-5.000 I-0.331 J-0.331 K0.000 F30.000
G3 X2.154 Y9.386 Z-5.000 I0.203 J-0.422 K0.000 F30.000
G3 X2.282 Y10.139 Z-5.000 I-0.203 J0.422 K0.000 F30.000
G0 Z5.000
G0 Z5.000
(Finish operation: Profile038)
(Begin operation: Profile039)
(Path: Profile039)
(Profile039)
(Compensated Tool Path. Diameter: 2.0)
G0 Z5.000
G0 X-5.224 Y8.646
G0 Z3.000
G1 X-5.224 Y8.646 Z-0.500 F30.000
G3 X-5.805 Y8.712 Z-0.500 I-0.331 J-0.331 K0.000 F30.000
G3 X-5.952 Y8.065 Z-0.500 I0.249 J-0.397 K0.000 F30.000
G3 X-5.306 Y7.918 Z-0.500 I0.397 J0.249 K0.000 F30.000
G3 X-5.224 Y8.646 Z-0.500 I-0.249 J0.397 K0.000 F30.000
G1 X-5.224 Y8.646 Z-1.000 F30.000
G3 X-5.805 Y8.712 Z-1.000 I-0.331 J-0.331 K0.000 F30.000
G3 X-5.952 Y8.065 Z-1.000 I0.249 J-0.397 K0.000 F30.000
G3 X-5.306 Y7.918 Z-1.000 I0.397 J0.249 K0.000 F30.000
G3 X-5.224 Y8.646 Z-1.000 I-0.249 J0.397 K0.000 F30.000
G1 X-5.224 Y8.646 Z-1.500 F30.000
G3 X-5.805 Y8.712 Z-1.500 I-0.331 J-0.331 K0.000 F30.000
G3 X-5.952 Y8.065 Z-1.500 I0.249 J-0.397 K0.000 F30.000
G3 X-5.306 Y7.918 Z-1.500 I0.397 J0.249 K0.000 F30.000
G3 X-5.224 Y8.646 Z-1.500 I-0.249 J0.397 K0.000 F30.000
G1 X-5.224 Y8.646 Z-2.000 F30.000
G3 X-5.805 Y8.712 Z-2.000 I-0.331 J-0.331 K0.000 F30.000
G3 X-5.952 Y8.065 Z-2.000 I0.249 J-0.397 K0.000 F30.000
G3 X-5.306 Y7.918 Z-2.000 I0.397 J0.249 K0.000 F30.000
G3 X-5.224 Y8.646 Z-2.000 I-0.249 J0.397 K0.000 F30.000
G1 X-5.224 Y8.646 Z-2.500 F30.000
G3 X-5.805 Y8.712 Z-2.500 I-0.331 J-0.331 K0.000 F30.000
G3 X-5.952 Y8.065 Z-2.500 I0.249 J-0.397 K0.000 F30.000
G3 X-5.306 Y7.918 Z-2.500 I0.397 J0.249 K0.000 F30.000
G3 X-5.224 Y8.646 Z-2.500 I-0.249 J0.397 K0.000 F30.000
G1 X-5.224 Y8.646 Z-3.000 F30.000
G3 X-5.805 Y8.712 Z-3.000 I-0.331 J-0.331 K0.000 F30.000
G3 X-5.952 Y8.065 Z-3.000 I0.249 J-0.397 K0.000 F30.000
G3 X-5.306 Y7.918 Z-3.000 I0.397 J0.249 K0.000 F30.000
G3 X-5.224 Y8.646 Z-3.000 I-0.249 J0.397 K0.000 F30.000
G1 X-5.224 Y8.646 Z-3.500 F30.000
G3 X-5.805 Y8.712 Z-3.500 I-0.331 J-0.331 K0.000 F30.000
G3 X-5.952 Y8.065 Z-3.500 I0.249 J-0.397 K0.000 F30.000
G3 X-5.306 Y7.918 Z-3.500 I0.397 J0.249 K0.000 F30.000
G3 X-5.224 Y8.646 Z-3.500 I-0.249 J0.397 K0.000 F30.000
G1 X-5.224 Y8.646 Z-4.000 F30.000
G3 X-5.805 Y8.712 Z-4.000 I-0.331 J-0.331 K0.000 F30.000
G3 X-5.952 Y8.065 Z-4.000 I0.249 J-0.397 K0.000 F30.000
G3 X-5.306 Y7.918 Z-4.000 I0.397 J0.249 K0.000 F30.000
G3 X-5.224 Y8.646 Z-4.000 I-0.249 J0.397 K0.000 F30.000
G1 X-5.224 Y8.646 Z-4.500 F30.000
G3 X-5.805 Y8.712 Z-4.500 I-0.331 J-0.331 K0.000 F30.000
G3 X-5.952 Y8.065 Z-4.500 I0.249 J-0.397 K0.000 F30.000
G3 X-5.306 Y7.918 Z-4.500 I0.397 J0.249 K0.000 F30.000
G3 X-5.224 Y8.646 Z-4.500 I-0.249 J0.397 K0.000 F30.000
G1 X-5.224 Y8.646 Z-5.000 F30.000
G3 X-5.805 Y8.712 Z-5.000 I-0.331 J-0.331 K0.000 F30.000
G3 X-5.952 Y8.065 Z-5.000 I0.249 J-0.397 K0.000 F30.000
G3 X-5.306 Y7.918 Z-5.000 I0.397 J0.249 K0.000 F30.000
G3 X-5.224 Y8.646 Z-5.000 I-0.249 J0.397 K0.000 F30.000
G0 Z5.000
G0 Z5.000
(Finish operation: Profile039)
(Begin operation: Profile040)
(Path: Profile040)
(Profile040)
(Compensated Tool Path. Diameter: 2.0)
G0 Z5.000
G0 X-9.476 Y2.282
G0 Z3.000
G1 X-9.476 Y2.282 Z-0.500 F30.000
G3 X-10.011 Y2.373 Z-0.500 I-0.331 J-0.331 K0.000 F30.000
G3 X-10.230 Y1.748 Z-0.500 I0.203 J-0.422 K0.000 F30.000
G3 X-9.605 Y1.529 Z-0.500 I0.422 J0.203 K0.000 F30.000
G3 X-9.476 Y2.282 Z-0.500 I-0.203 J0.422 K0.000 F30.000
G1 X-9.476 Y2.282 Z-1.000 F30.000
G3 X-10.011 Y2.373 Z-1.000 I-0.331 J-0.331 K0.000 F30.000
G3 X-10.230 Y1.748 Z-1.000 I0.203 J-0.422 K0.000 F30.000
G3 X-9.605 Y1.529 Z-1.000 I0.422 J0.203 K0.000 F30.000
G3 X-9.476 Y2.282 Z-1.000 I-0.203 J0.422 K0.000 F30.000
G1 X-9.476 Y2.282 Z-1.500 F30.000
G3 X-10.011 Y2.373 Z-1.500 I-0.331 J-0.331 K0.000 F30.000
G3 X-10.230 Y1.748 Z-1.500 I0.203 J-0.422 K0.000 F30.000
G3 X-9.605 Y1.529 Z-1.500 I0.422 J0.203 K0.000 F30.000
G3 X-9.476 Y2.282 Z-1.500 I-0.203 J0.422 K0.000 F30.000
G1 X-9.476 Y2.282 Z-2.000 F30.000
G3 X-10.011 Y2.373 Z-2.000 I-0.331 J-0.331 K0.000 F30.000
G3 X-10.230 Y1.748 Z-2.000 I0.203 J-0.422 K0.000 F30.000
G3 X-9.605 Y1.529 Z-2.000 I0.422 J0.203 K0.000 F30.000
G3 X-9.476 Y2.282 Z-2.000 I-0.203 J0.422 K0.000 F30.000
G1 X-9.476 Y2.282 Z-2.500 F30.000
G3 X-10.011 Y2.373 Z-2.500 I-0.331 J-0.331 K0.000 F30.000
G3 X-10.230 Y1.748 Z-2.500 I0.203 J-0.422 K0.000 F30.000
G3 X-9.605 Y1.529 Z-2.500 I0.422 J0.203 K0.000 F30.000
G3 X-9.476 Y2.282 Z-2.500 I-0.203 J0.422 K0.000 F30.000
G1 X-9.476 Y2.282 Z-3.000 F30.000
G3 X-10.011 Y2.373 Z-3.000 I-0.331 J-0.331 K0.000 F30.000
G3 X-10.230 Y1.748 Z-3.000 I0.203 J-0.422 K0.000 F30.000
G3 X-9.605 Y1.529 Z-3.000 I0.422 J0.203 K0.000 F30.000
G3 X-9.476 Y2.282 Z-3.000 I-0.203 J0.422 K0.000 F30.000
G1 X-9.476 Y2.282 Z-3.500 F30.000
G3 X-10.011 Y2.373 Z-3.500 I-0.331 J-0.331 K0.000 F30.000
G3 X-10.230 Y1.748 Z-3.500 I0.203 J-0.422 K0.000 F30.000
G3 X-9.605 Y1.529 Z-3.500 I0.422 J0.203 K0.000 F30.000
G3 X-9.476 Y2.282 Z-3.500 I-0.203 J0.422 K0.000 F30.000
G1 X-9.476 Y2.282 Z-4.000 F30.000
G3 X-10.011 Y2.373 Z-4.000 I-0.331 J-0.331 K0.000 F30.000
G3 X-10.230 Y1.748 Z-4.000 I0.203 J-0.422 K0.000 F30.000
G3 X-9.605 Y1.529 Z-4.000 I0.422 J0.203 K0.000 F30.000
G3 X-9.476 Y2.282 Z-4.000 I-0.203 J0.422 K0.000 F30.000
G1 X-9.476 Y2.282 Z-4.500 F30.000
G3 X-10.011 Y2.373 Z-4.500 I-0.331 J-0.331 K0.000 F30.000
G3 X-10.230 Y1.748 Z-4.500 I0.203 J-0.422 K0.000 F30.000
G3 X-9.605 Y1.529 Z-4.500 I0.422 J0.203 K0.000 F30.000
G3 X-9.476 Y2.282 Z-4.500 I-0.203 J0.422 K0.000 F30.000
G1 X-9.476 Y2.282 Z-5.000 F30.000
G3 X-10.011 Y2.373 Z-5.000 I-0.331 J-0.331 K0.000 F30.000
G3 X-10.230 Y1.748 Z-5.000 I0.203 J-0.422 K0.000 F30.000
G3 X-9.605 Y1.529 Z-5.000 I0.422 J0.203 K0.000 F30.000
G3 X-9.476 Y2.282 Z-5.000 I-0.203 J0.422 K0.000 F30.000
G0 Z5.000
G0 Z5.000
(Finish operation: Profile040)
(Begin postamble)
M5
G17 G90
M2
