(Exported by FreeCAD)
(Post Processor: grbl_post)
(Output Time:2025-07-26 04:29:43.023036)
(Begin preamble)
G17 G90
G21
(Begin operation: Fixture)
(Path: Fixture)
G54
(Finish operation: Fixture)
(Begin operation: 2mm-6-Endmill005)
(Path: 2mm-6-Endmill005)
(2mm-6-Endmill005)
(Begin toolchange)
( M6 T2 )
(Finish operation: 2mm-6-Endmill005)
(Begin operation: Profile032)
(Path: Profile032)
(Profile032)
(Compensated Tool Path. Diameter: 2.0)
G0 Z5.000
G0 X15.539 Y18.241
G0 Z3.000
G1 X15.539 Y18.241 Z-0.500 F30.000
G2 X15.418 Y16.973 Z-0.500 I-0.828 J-0.561 K0.000 F30.000
G1 X9.829 Y11.384 Z-0.500 F30.000
G1 X11.384 Y9.829 Z-0.500 F30.000
G1 X16.973 Y15.418 Z-0.500 F30.000
G2 X18.269 Y15.519 Z-0.500 I0.707 J-0.707 K0.000 F30.000
G2 X21.229 Y11.194 Z-0.500 I-15.199 J-13.577 K0.000 F30.000
G2 X20.740 Y9.781 Z-0.500 I-0.873 J-0.488 K0.000 F30.000
G1 X13.437 Y6.757 Z-0.500 F30.000
G1 X14.279 Y4.724 Z-0.500 F30.000
G1 X21.581 Y7.749 Z-0.500 F30.000
G2 X22.818 Y7.346 Z-0.500 I0.383 J-0.924 K0.000 F30.000
G2 X23.897 Y2.217 Z-0.500 I-19.237 J-6.727 K0.000 F30.000
G2 X22.904 Y1.100 Z-0.500 I-0.993 J-0.117 K0.000 F30.000
G1 X15.000 Y1.100 Z-0.500 F30.000
G1 X15.000 Y-1.100 Z-0.500 F30.000
G1 X22.904 Y-1.100 Z-0.500 F30.000
G2 X23.892 Y-1.945 Z-0.500 I0.000 J-1.000 K0.000 F30.000
G2 X22.927 Y-7.096 Z-0.500 I-20.347 J1.147 K0.000 F30.000
G2 X21.581 Y-7.749 Z-0.500 I-0.962 J0.272 K0.000 F30.000
G1 X14.279 Y-4.724 Z-0.500 F30.000
G1 X13.437 Y-6.757 Z-0.500 F30.000
G1 X20.740 Y-9.781 Z-0.500 F30.000
G2 X21.329 Y-10.940 Z-0.500 I-0.383 J-0.924 K0.000 F30.000
G2 X18.466 Y-15.330 Z-0.500 I-18.360 J8.846 K0.000 F30.000
G2 X16.973 Y-15.418 Z-0.500 I-0.785 J0.619 K0.000 F30.000
G1 X11.384 Y-9.829 Z-0.500 F30.000
G1 X9.829 Y-11.384 Z-0.500 F30.000
G1 X15.418 Y-16.973 Z-0.500 F30.000
G2 X15.519 Y-18.269 Z-0.500 I-0.707 J-0.707 K0.000 F30.000
G2 X11.194 Y-21.229 Z-0.500 I-13.577 J15.199 K0.000 F30.000
G2 X9.781 Y-20.740 Z-0.500 I-0.488 J0.873 K0.000 F30.000
G1 X6.757 Y-13.437 Z-0.500 F30.000
G1 X4.724 Y-14.279 Z-0.500 F30.000
G1 X7.749 Y-21.581 Z-0.500 F30.000
G2 X7.346 Y-22.818 Z-0.500 I-0.924 J-0.383 K0.000 F30.000
G2 X2.217 Y-23.897 Z-0.500 I-6.727 J19.237 K0.000 F30.000
G2 X1.100 Y-22.904 Z-0.500 I-0.117 J0.993 K0.000 F30.000
G1 X1.100 Y-15.000 Z-0.500 F30.000
G1 X-1.100 Y-15.000 Z-0.500 F30.000
G1 X-1.100 Y-22.904 Z-0.500 F30.000
G2 X-1.684 Y-23.813 Z-0.500 I-1.000 J0.000 K0.000 F30.000
G1 X-1.945 Y-23.892 Z-0.500 F30.000
G2 X-7.096 Y-22.927 Z-0.500 I1.147 J20.347 K0.000 F30.000
G2 X-7.749 Y-21.581 Z-0.500 I0.272 J0.962 K0.000 F30.000
G1 X-4.724 Y-14.279 Z-0.500 F30.000
G1 X-6.757 Y-13.437 Z-0.500 F30.000
G1 X-9.781 Y-20.740 Z-0.500 F30.000
G2 X-10.940 Y-21.329 Z-0.500 I-0.924 J0.383 K0.000 F30.000
G2 X-15.330 Y-18.466 Z-0.500 I8.846 J18.360 K0.000 F30.000
G2 X-15.418 Y-16.973 Z-0.500 I0.619 J0.785 K0.000 F30.000
G1 X-9.829 Y-11.384 Z-0.500 F30.000
G1 X-11.384 Y-9.829 Z-0.500 F30.000
G1 X-16.973 Y-15.418 Z-0.500 F30.000
G2 X-18.269 Y-15.519 Z-0.500 I-0.707 J0.707 K0.000 F30.000
G2 X-21.229 Y-11.194 Z-0.500 I15.199 J13.577 K0.000 F30.000
G2 X-20.740 Y-9.781 Z-0.500 I0.873 J0.488 K0.000 F30.000
G1 X-13.437 Y-6.757 Z-0.500 F30.000
G1 X-14.279 Y-4.724 Z-0.500 F30.000
G1 X-21.581 Y-7.749 Z-0.500 F30.000
G2 X-22.818 Y-7.346 Z-0.500 I-0.383 J0.924 K0.000 F30.000
G2 X-23.897 Y-2.217 Z-0.500 I19.237 J6.727 K0.000 F30.000
G2 X-22.904 Y-1.100 Z-0.500 I0.993 J0.117 K0.000 F30.000
G1 X-15.000 Y-1.100 Z-0.500 F30.000
G1 X-15.000 Y1.100 Z-0.500 F30.000
G1 X-22.904 Y1.100 Z-0.500 F30.000
G2 X-23.892 Y1.945 Z-0.500 I0.000 J1.000 K0.000 F30.000
G2 X-22.927 Y7.096 Z-0.500 I20.347 J-1.147 K0.000 F30.000
G2 X-21.581 Y7.749 Z-0.500 I0.962 J-0.272 K0.000 F30.000
G1 X-14.279 Y4.724 Z-0.500 F30.000
G1 X-13.437 Y6.757 Z-0.500 F30.000
G1 X-20.740 Y9.781 Z-0.500 F30.000
G2 X-21.329 Y10.940 Z-0.500 I0.383 J0.924 K0.000 F30.000
G2 X-18.466 Y15.330 Z-0.500 I18.360 J-8.846 K0.000 F30.000
G2 X-16.973 Y15.418 Z-0.500 I0.785 J-0.619 K0.000 F30.000
G1 X-11.384 Y9.829 Z-0.500 F30.000
G1 X-9.829 Y11.384 Z-0.500 F30.000
G1 X-15.418 Y16.973 Z-0.500 F30.000
G2 X-15.519 Y18.269 Z-0.500 I0.707 J0.707 K0.000 F30.000
G2 X-11.194 Y21.229 Z-0.500 I13.577 J-15.199 K0.000 F30.000
G2 X-9.781 Y20.740 Z-0.500 I0.488 J-0.873 K0.000 F30.000
G1 X-6.757 Y13.437 Z-0.500 F30.000
G1 X-4.724 Y14.279 Z-0.500 F30.000
G1 X-7.749 Y21.581 Z-0.500 F30.000
G2 X-7.346 Y22.818 Z-0.500 I0.924 J0.383 K0.000 F30.000
G2 X-2.217 Y23.897 Z-0.500 I6.727 J-19.237 K0.000 F30.000
G2 X-1.100 Y22.904 Z-0.500 I0.117 J-0.993 K0.000 F30.000
G1 X-1.100 Y15.000 Z-0.500 F30.000
G1 X1.100 Y15.000 Z-0.500 F30.000
G1 X1.100 Y22.904 Z-0.500 F30.000
G2 X1.945 Y23.892 Z-0.500 I1.000 J0.000 K0.000 F30.000
G2 X7.096 Y22.927 Z-0.500 I-1.147 J-20.347 K0.000 F30.000
G2 X7.749 Y21.581 Z-0.500 I-0.272 J-0.962 K0.000 F30.000
G1 X4.724 Y14.279 Z-0.500 F30.000
G1 X6.757 Y13.437 Z-0.500 F30.000
G1 X9.781 Y20.740 Z-0.500 F30.000
G2 X10.940 Y21.329 Z-0.500 I0.924 J-0.383 K0.000 F30.000
G2 X15.330 Y18.466 Z-0.500 I-8.846 J-18.360 K0.000 F30.000
G2 X15.539 Y18.241 Z-0.500 I-0.619 J-0.785 K0.000 F30.000
G1 X15.539 Y18.241 Z-1.000 F30.000
G2 X15.418 Y16.973 Z-1.000 I-0.828 J-0.561 K0.000 F30.000
G1 X9.829 Y11.384 Z-1.000 F30.000
G1 X11.384 Y9.829 Z-1.000 F30.000
G1 X16.973 Y15.418 Z-1.000 F30.000
G2 X18.269 Y15.519 Z-1.000 I0.707 J-0.707 K0.000 F30.000
G2 X21.229 Y11.194 Z-1.000 I-15.199 J-13.577 K0.000 F30.000
G2 X20.740 Y9.781 Z-1.000 I-0.873 J-0.488 K0.000 F30.000
G1 X13.437 Y6.757 Z-1.000 F30.000
G1 X14.279 Y4.724 Z-1.000 F30.000
G1 X21.581 Y7.749 Z-1.000 F30.000
G2 X22.818 Y7.346 Z-1.000 I0.383 J-0.924 K0.000 F30.000
G2 X23.897 Y2.217 Z-1.000 I-19.237 J-6.727 K0.000 F30.000
G2 X22.904 Y1.100 Z-1.000 I-0.993 J-0.117 K0.000 F30.000
G1 X15.000 Y1.100 Z-1.000 F30.000
G1 X15.000 Y-1.100 Z-1.000 F30.000
G1 X22.904 Y-1.100 Z-1.000 F30.000
G2 X23.892 Y-1.945 Z-1.000 I0.000 J-1.000 K0.000 F30.000
G2 X22.927 Y-7.096 Z-1.000 I-20.347 J1.147 K0.000 F30.000
G2 X21.581 Y-7.749 Z-1.000 I-0.962 J0.272 K0.000 F30.000
G1 X14.279 Y-4.724 Z-1.000 F30.000
G1 X13.437 Y-6.757 Z-1.000 F30.000
G1 X20.740 Y-9.781 Z-1.000 F30.000
G2 X21.329 Y-10.940 Z-1.000 I-0.383 J-0.924 K0.000 F30.000
G2 X18.466 Y-15.330 Z-1.000 I-18.360 J8.846 K0.000 F30.000
G2 X16.973 Y-15.418 Z-1.000 I-0.785 J0.619 K0.000 F30.000
G1 X11.384 Y-9.829 Z-1.000 F30.000
G1 X9.829 Y-11.384 Z-1.000 F30.000
G1 X15.418 Y-16.973 Z-1.000 F30.000
G2 X15.519 Y-18.269 Z-1.000 I-0.707 J-0.707 K0.000 F30.000
G2 X11.194 Y-21.229 Z-1.000 I-13.577 J15.199 K0.000 F30.000
G2 X9.781 Y-20.740 Z-1.000 I-0.488 J0.873 K0.000 F30.000
G1 X6.757 Y-13.437 Z-1.000 F30.000
G1 X4.724 Y-14.279 Z-1.000 F30.000
G1 X7.749 Y-21.581 Z-1.000 F30.000
G2 X7.346 Y-22.818 Z-1.000 I-0.924 J-0.383 K0.000 F30.000
G2 X2.217 Y-23.897 Z-1.000 I-6.727 J19.237 K0.000 F30.000
G2 X1.100 Y-22.904 Z-1.000 I-0.117 J0.993 K0.000 F30.000
G1 X1.100 Y-15.000 Z-1.000 F30.000
G1 X-1.100 Y-15.000 Z-1.000 F30.000
G1 X-1.100 Y-22.904 Z-1.000 F30.000
G2 X-1.684 Y-23.813 Z-1.000 I-1.000 J0.000 K0.000 F30.000
G1 X-1.945 Y-23.892 Z-1.000 F30.000
G2 X-7.096 Y-22.927 Z-1.000 I1.147 J20.347 K0.000 F30.000
G2 X-7.749 Y-21.581 Z-1.000 I0.272 J0.962 K0.000 F30.000
G1 X-4.724 Y-14.279 Z-1.000 F30.000
G1 X-6.757 Y-13.437 Z-1.000 F30.000
G1 X-9.781 Y-20.740 Z-1.000 F30.000
G2 X-10.940 Y-21.329 Z-1.000 I-0.924 J0.383 K0.000 F30.000
G2 X-15.330 Y-18.466 Z-1.000 I8.846 J18.360 K0.000 F30.000
G2 X-15.418 Y-16.973 Z-1.000 I0.619 J0.785 K0.000 F30.000
G1 X-9.829 Y-11.384 Z-1.000 F30.000
G1 X-11.384 Y-9.829 Z-1.000 F30.000
G1 X-16.973 Y-15.418 Z-1.000 F30.000
G2 X-18.269 Y-15.519 Z-1.000 I-0.707 J0.707 K0.000 F30.000
G2 X-21.229 Y-11.194 Z-1.000 I15.199 J13.577 K0.000 F30.000
G2 X-20.740 Y-9.781 Z-1.000 I0.873 J0.488 K0.000 F30.000
G1 X-13.437 Y-6.757 Z-1.000 F30.000
G1 X-14.279 Y-4.724 Z-1.000 F30.000
G1 X-21.581 Y-7.749 Z-1.000 F30.000
G2 X-22.818 Y-7.346 Z-1.000 I-0.383 J0.924 K0.000 F30.000
G2 X-23.897 Y-2.217 Z-1.000 I19.237 J6.727 K0.000 F30.000
G2 X-22.904 Y-1.100 Z-1.000 I0.993 J0.117 K0.000 F30.000
G1 X-15.000 Y-1.100 Z-1.000 F30.000
G1 X-15.000 Y1.100 Z-1.000 F30.000
G1 X-22.904 Y1.100 Z-1.000 F30.000
G2 X-23.892 Y1.945 Z-1.000 I0.000 J1.000 K0.000 F30.000
G2 X-22.927 Y7.096 Z-1.000 I20.347 J-1.147 K0.000 F30.000
G2 X-21.581 Y7.749 Z-1.000 I0.962 J-0.272 K0.000 F30.000
G1 X-14.279 Y4.724 Z-1.000 F30.000
G1 X-13.437 Y6.757 Z-1.000 F30.000
G1 X-20.740 Y9.781 Z-1.000 F30.000
G2 X-21.329 Y10.940 Z-1.000 I0.383 J0.924 K0.000 F30.000
G2 X-18.466 Y15.330 Z-1.000 I18.360 J-8.846 K0.000 F30.000
G2 X-16.973 Y15.418 Z-1.000 I0.785 J-0.619 K0.000 F30.000
G1 X-11.384 Y9.829 Z-1.000 F30.000
G1 X-9.829 Y11.384 Z-1.000 F30.000
G1 X-15.418 Y16.973 Z-1.000 F30.000
G2 X-15.519 Y18.269 Z-1.000 I0.707 J0.707 K0.000 F30.000
G2 X-11.194 Y21.229 Z-1.000 I13.577 J-15.199 K0.000 F30.000
G2 X-9.781 Y20.740 Z-1.000 I0.488 J-0.873 K0.000 F30.000
G1 X-6.757 Y13.437 Z-1.000 F30.000
G1 X-4.724 Y14.279 Z-1.000 F30.000
G1 X-7.749 Y21.581 Z-1.000 F30.000
G2 X-7.346 Y22.818 Z-1.000 I0.924 J0.383 K0.000 F30.000
G2 X-2.217 Y23.897 Z-1.000 I6.727 J-19.237 K0.000 F30.000
G2 X-1.100 Y22.904 Z-1.000 I0.117 J-0.993 K0.000 F30.000
G1 X-1.100 Y15.000 Z-1.000 F30.000
G1 X1.100 Y15.000 Z-1.000 F30.000
G1 X1.100 Y22.904 Z-1.000 F30.000
G2 X1.945 Y23.892 Z-1.000 I1.000 J0.000 K0.000 F30.000
G2 X7.096 Y22.927 Z-1.000 I-1.147 J-20.347 K0.000 F30.000
G2 X7.749 Y21.581 Z-1.000 I-0.272 J-0.962 K0.000 F30.000
G1 X4.724 Y14.279 Z-1.000 F30.000
G1 X6.757 Y13.437 Z-1.000 F30.000
G1 X9.781 Y20.740 Z-1.000 F30.000
G2 X10.940 Y21.329 Z-1.000 I0.924 J-0.383 K0.000 F30.000
G2 X15.330 Y18.466 Z-1.000 I-8.846 J-18.360 K0.000 F30.000
G2 X15.539 Y18.241 Z-1.000 I-0.619 J-0.785 K0.000 F30.000
G1 X15.539 Y18.241 Z-1.500 F30.000
G2 X15.418 Y16.973 Z-1.500 I-0.828 J-0.561 K0.000 F30.000
G1 X9.829 Y11.384 Z-1.500 F30.000
G1 X11.384 Y9.829 Z-1.500 F30.000
G1 X16.973 Y15.418 Z-1.500 F30.000
G2 X18.269 Y15.519 Z-1.500 I0.707 J-0.707 K0.000 F30.000
G2 X21.229 Y11.194 Z-1.500 I-15.199 J-13.577 K0.000 F30.000
G2 X20.740 Y9.781 Z-1.500 I-0.873 J-0.488 K0.000 F30.000
G1 X13.437 Y6.757 Z-1.500 F30.000
G1 X14.279 Y4.724 Z-1.500 F30.000
G1 X21.581 Y7.749 Z-1.500 F30.000
G2 X22.818 Y7.346 Z-1.500 I0.383 J-0.924 K0.000 F30.000
G2 X23.897 Y2.217 Z-1.500 I-19.237 J-6.727 K0.000 F30.000
G2 X22.904 Y1.100 Z-1.500 I-0.993 J-0.117 K0.000 F30.000
G1 X15.000 Y1.100 Z-1.500 F30.000
G1 X15.000 Y-1.100 Z-1.500 F30.000
G1 X22.904 Y-1.100 Z-1.500 F30.000
G2 X23.892 Y-1.945 Z-1.500 I0.000 J-1.000 K0.000 F30.000
G2 X22.927 Y-7.096 Z-1.500 I-20.347 J1.147 K0.000 F30.000
G2 X21.581 Y-7.749 Z-1.500 I-0.962 J0.272 K0.000 F30.000
G1 X14.279 Y-4.724 Z-1.500 F30.000
G1 X13.437 Y-6.757 Z-1.500 F30.000
G1 X20.740 Y-9.781 Z-1.500 F30.000
G2 X21.329 Y-10.940 Z-1.500 I-0.383 J-0.924 K0.000 F30.000
G2 X18.466 Y-15.330 Z-1.500 I-18.360 J8.846 K0.000 F30.000
G2 X16.973 Y-15.418 Z-1.500 I-0.785 J0.619 K0.000 F30.000
G1 X11.384 Y-9.829 Z-1.500 F30.000
G1 X9.829 Y-11.384 Z-1.500 F30.000
G1 X15.418 Y-16.973 Z-1.500 F30.000
G2 X15.519 Y-18.269 Z-1.500 I-0.707 J-0.707 K0.000 F30.000
G2 X11.194 Y-21.229 Z-1.500 I-13.577 J15.199 K0.000 F30.000
G2 X9.781 Y-20.740 Z-1.500 I-0.488 J0.873 K0.000 F30.000
G1 X6.757 Y-13.437 Z-1.500 F30.000
G1 X4.724 Y-14.279 Z-1.500 F30.000
G1 X7.749 Y-21.581 Z-1.500 F30.000
G2 X7.346 Y-22.818 Z-1.500 I-0.924 J-0.383 K0.000 F30.000
G2 X2.217 Y-23.897 Z-1.500 I-6.727 J19.237 K0.000 F30.000
G2 X1.100 Y-22.904 Z-1.500 I-0.117 J0.993 K0.000 F30.000
G1 X1.100 Y-15.000 Z-1.500 F30.000
G1 X-1.100 Y-15.000 Z-1.500 F30.000
G1 X-1.100 Y-22.904 Z-1.500 F30.000
G2 X-1.684 Y-23.813 Z-1.500 I-1.000 J0.000 K0.000 F30.000
G1 X-1.945 Y-23.892 Z-1.500 F30.000
G2 X-7.096 Y-22.927 Z-1.500 I1.147 J20.347 K0.000 F30.000
G2 X-7.749 Y-21.581 Z-1.500 I0.272 J0.962 K0.000 F30.000
G1 X-4.724 Y-14.279 Z-1.500 F30.000
G1 X-6.757 Y-13.437 Z-1.500 F30.000
G1 X-9.781 Y-20.740 Z-1.500 F30.000
G2 X-10.940 Y-21.329 Z-1.500 I-0.924 J0.383 K0.000 F30.000
G2 X-15.330 Y-18.466 Z-1.500 I8.846 J18.360 K0.000 F30.000
G2 X-15.418 Y-16.973 Z-1.500 I0.619 J0.785 K0.000 F30.000
G1 X-9.829 Y-11.384 Z-1.500 F30.000
G1 X-11.384 Y-9.829 Z-1.500 F30.000
G1 X-16.973 Y-15.418 Z-1.500 F30.000
G2 X-18.269 Y-15.519 Z-1.500 I-0.707 J0.707 K0.000 F30.000
G2 X-21.229 Y-11.194 Z-1.500 I15.199 J13.577 K0.000 F30.000
G2 X-20.740 Y-9.781 Z-1.500 I0.873 J0.488 K0.000 F30.000
G1 X-13.437 Y-6.757 Z-1.500 F30.000
G1 X-14.279 Y-4.724 Z-1.500 F30.000
G1 X-21.581 Y-7.749 Z-1.500 F30.000
G2 X-22.818 Y-7.346 Z-1.500 I-0.383 J0.924 K0.000 F30.000
G2 X-23.897 Y-2.217 Z-1.500 I19.237 J6.727 K0.000 F30.000
G2 X-22.904 Y-1.100 Z-1.500 I0.993 J0.117 K0.000 F30.000
G1 X-15.000 Y-1.100 Z-1.500 F30.000
G1 X-15.000 Y1.100 Z-1.500 F30.000
G1 X-22.904 Y1.100 Z-1.500 F30.000
G2 X-23.892 Y1.945 Z-1.500 I0.000 J1.000 K0.000 F30.000
G2 X-22.927 Y7.096 Z-1.500 I20.347 J-1.147 K0.000 F30.000
G2 X-21.581 Y7.749 Z-1.500 I0.962 J-0.272 K0.000 F30.000
G1 X-14.279 Y4.724 Z-1.500 F30.000
G1 X-13.437 Y6.757 Z-1.500 F30.000
G1 X-20.740 Y9.781 Z-1.500 F30.000
G2 X-21.329 Y10.940 Z-1.500 I0.383 J0.924 K0.000 F30.000
G2 X-18.466 Y15.330 Z-1.500 I18.360 J-8.846 K0.000 F30.000
G2 X-16.973 Y15.418 Z-1.500 I0.785 J-0.619 K0.000 F30.000
G1 X-11.384 Y9.829 Z-1.500 F30.000
G1 X-9.829 Y11.384 Z-1.500 F30.000
G1 X-15.418 Y16.973 Z-1.500 F30.000
G2 X-15.519 Y18.269 Z-1.500 I0.707 J0.707 K0.000 F30.000
G2 X-11.194 Y21.229 Z-1.500 I13.577 J-15.199 K0.000 F30.000
G2 X-9.781 Y20.740 Z-1.500 I0.488 J-0.873 K0.000 F30.000
G1 X-6.757 Y13.437 Z-1.500 F30.000
G1 X-4.724 Y14.279 Z-1.500 F30.000
G1 X-7.749 Y21.581 Z-1.500 F30.000
G2 X-7.346 Y22.818 Z-1.500 I0.924 J0.383 K0.000 F30.000
G2 X-2.217 Y23.897 Z-1.500 I6.727 J-19.237 K0.000 F30.000
G2 X-1.100 Y22.904 Z-1.500 I0.117 J-0.993 K0.000 F30.000
G1 X-1.100 Y15.000 Z-1.500 F30.000
G1 X1.100 Y15.000 Z-1.500 F30.000
G1 X1.100 Y22.904 Z-1.500 F30.000
G2 X1.945 Y23.892 Z-1.500 I1.000 J0.000 K0.000 F30.000
G2 X7.096 Y22.927 Z-1.500 I-1.147 J-20.347 K0.000 F30.000
G2 X7.749 Y21.581 Z-1.500 I-0.272 J-0.962 K0.000 F30.000
G1 X4.724 Y14.279 Z-1.500 F30.000
G1 X6.757 Y13.437 Z-1.500 F30.000
G1 X9.781 Y20.740 Z-1.500 F30.000
G2 X10.940 Y21.329 Z-1.500 I0.924 J-0.383 K0.000 F30.000
G2 X15.330 Y18.466 Z-1.500 I-8.846 J-18.360 K0.000 F30.000
G2 X15.539 Y18.241 Z-1.500 I-0.619 J-0.785 K0.000 F30.000
G1 X15.539 Y18.241 Z-2.000 F30.000
G2 X15.418 Y16.973 Z-2.000 I-0.828 J-0.561 K0.000 F30.000
G1 X9.829 Y11.384 Z-2.000 F30.000
G1 X11.384 Y9.829 Z-2.000 F30.000
G1 X16.973 Y15.418 Z-2.000 F30.000
G2 X18.269 Y15.519 Z-2.000 I0.707 J-0.707 K0.000 F30.000
G2 X21.229 Y11.194 Z-2.000 I-15.199 J-13.577 K0.000 F30.000
G2 X20.740 Y9.781 Z-2.000 I-0.873 J-0.488 K0.000 F30.000
G1 X13.437 Y6.757 Z-2.000 F30.000
G1 X14.279 Y4.724 Z-2.000 F30.000
G1 X21.581 Y7.749 Z-2.000 F30.000
G2 X22.818 Y7.346 Z-2.000 I0.383 J-0.924 K0.000 F30.000
G2 X23.897 Y2.217 Z-2.000 I-19.237 J-6.727 K0.000 F30.000
G2 X22.904 Y1.100 Z-2.000 I-0.993 J-0.117 K0.000 F30.000
G1 X15.000 Y1.100 Z-2.000 F30.000
G1 X15.000 Y-1.100 Z-2.000 F30.000
G1 X22.904 Y-1.100 Z-2.000 F30.000
G2 X23.892 Y-1.945 Z-2.000 I0.000 J-1.000 K0.000 F30.000
G2 X22.927 Y-7.096 Z-2.000 I-20.347 J1.147 K0.000 F30.000
G2 X21.581 Y-7.749 Z-2.000 I-0.962 J0.272 K0.000 F30.000
G1 X14.279 Y-4.724 Z-2.000 F30.000
G1 X13.437 Y-6.757 Z-2.000 F30.000
G1 X20.740 Y-9.781 Z-2.000 F30.000
G2 X21.329 Y-10.940 Z-2.000 I-0.383 J-0.924 K0.000 F30.000
G2 X18.466 Y-15.330 Z-2.000 I-18.360 J8.846 K0.000 F30.000
G2 X16.973 Y-15.418 Z-2.000 I-0.785 J0.619 K0.000 F30.000
G1 X11.384 Y-9.829 Z-2.000 F30.000
G1 X9.829 Y-11.384 Z-2.000 F30.000
G1 X15.418 Y-16.973 Z-2.000 F30.000
G2 X15.519 Y-18.269 Z-2.000 I-0.707 J-0.707 K0.000 F30.000
G2 X11.194 Y-21.229 Z-2.000 I-13.577 J15.199 K0.000 F30.000
G2 X9.781 Y-20.740 Z-2.000 I-0.488 J0.873 K0.000 F30.000
G1 X6.757 Y-13.437 Z-2.000 F30.000
G1 X4.724 Y-14.279 Z-2.000 F30.000
G1 X7.749 Y-21.581 Z-2.000 F30.000
G2 X7.346 Y-22.818 Z-2.000 I-0.924 J-0.383 K0.000 F30.000
G2 X2.217 Y-23.897 Z-2.000 I-6.727 J19.237 K0.000 F30.000
G2 X1.100 Y-22.904 Z-2.000 I-0.117 J0.993 K0.000 F30.000
G1 X1.100 Y-15.000 Z-2.000 F30.000
G1 X-1.100 Y-15.000 Z-2.000 F30.000
G1 X-1.100 Y-22.904 Z-2.000 F30.000
G2 X-1.684 Y-23.813 Z-2.000 I-1.000 J0.000 K0.000 F30.000
G1 X-1.945 Y-23.892 Z-2.000 F30.000
G2 X-7.096 Y-22.927 Z-2.000 I1.147 J20.347 K0.000 F30.000
G2 X-7.749 Y-21.581 Z-2.000 I0.272 J0.962 K0.000 F30.000
G1 X-4.724 Y-14.279 Z-2.000 F30.000
G1 X-6.757 Y-13.437 Z-2.000 F30.000
G1 X-9.781 Y-20.740 Z-2.000 F30.000
G2 X-10.940 Y-21.329 Z-2.000 I-0.924 J0.383 K0.000 F30.000
G2 X-15.330 Y-18.466 Z-2.000 I8.846 J18.360 K0.000 F30.000
G2 X-15.418 Y-16.973 Z-2.000 I0.619 J0.785 K0.000 F30.000
G1 X-9.829 Y-11.384 Z-2.000 F30.000
G1 X-11.384 Y-9.829 Z-2.000 F30.000
G1 X-16.973 Y-15.418 Z-2.000 F30.000
G2 X-18.269 Y-15.519 Z-2.000 I-0.707 J0.707 K0.000 F30.000
G2 X-21.229 Y-11.194 Z-2.000 I15.199 J13.577 K0.000 F30.000
G2 X-20.740 Y-9.781 Z-2.000 I0.873 J0.488 K0.000 F30.000
G1 X-13.437 Y-6.757 Z-2.000 F30.000
G1 X-14.279 Y-4.724 Z-2.000 F30.000
G1 X-21.581 Y-7.749 Z-2.000 F30.000
G2 X-22.818 Y-7.346 Z-2.000 I-0.383 J0.924 K0.000 F30.000
G2 X-23.897 Y-2.217 Z-2.000 I19.237 J6.727 K0.000 F30.000
G2 X-22.904 Y-1.100 Z-2.000 I0.993 J0.117 K0.000 F30.000
G1 X-15.000 Y-1.100 Z-2.000 F30.000
G1 X-15.000 Y1.100 Z-2.000 F30.000
G1 X-22.904 Y1.100 Z-2.000 F30.000
G2 X-23.892 Y1.945 Z-2.000 I0.000 J1.000 K0.000 F30.000
G2 X-22.927 Y7.096 Z-2.000 I20.347 J-1.147 K0.000 F30.000
G2 X-21.581 Y7.749 Z-2.000 I0.962 J-0.272 K0.000 F30.000
G1 X-14.279 Y4.724 Z-2.000 F30.000
G1 X-13.437 Y6.757 Z-2.000 F30.000
G1 X-20.740 Y9.781 Z-2.000 F30.000
G2 X-21.329 Y10.940 Z-2.000 I0.383 J0.924 K0.000 F30.000
G2 X-18.466 Y15.330 Z-2.000 I18.360 J-8.846 K0.000 F30.000
G2 X-16.973 Y15.418 Z-2.000 I0.785 J-0.619 K0.000 F30.000
G1 X-11.384 Y9.829 Z-2.000 F30.000
G1 X-9.829 Y11.384 Z-2.000 F30.000
G1 X-15.418 Y16.973 Z-2.000 F30.000
G2 X-15.519 Y18.269 Z-2.000 I0.707 J0.707 K0.000 F30.000
G2 X-11.194 Y21.229 Z-2.000 I13.577 J-15.199 K0.000 F30.000
G2 X-9.781 Y20.740 Z-2.000 I0.488 J-0.873 K0.000 F30.000
G1 X-6.757 Y13.437 Z-2.000 F30.000
G1 X-4.724 Y14.279 Z-2.000 F30.000
G1 X-7.749 Y21.581 Z-2.000 F30.000
G2 X-7.346 Y22.818 Z-2.000 I0.924 J0.383 K0.000 F30.000
G2 X-2.217 Y23.897 Z-2.000 I6.727 J-19.237 K0.000 F30.000
G2 X-1.100 Y22.904 Z-2.000 I0.117 J-0.993 K0.000 F30.000
G1 X-1.100 Y15.000 Z-2.000 F30.000
G1 X1.100 Y15.000 Z-2.000 F30.000
G1 X1.100 Y22.904 Z-2.000 F30.000
G2 X1.945 Y23.892 Z-2.000 I1.000 J0.000 K0.000 F30.000
G2 X7.096 Y22.927 Z-2.000 I-1.147 J-20.347 K0.000 F30.000
G2 X7.749 Y21.581 Z-2.000 I-0.272 J-0.962 K0.000 F30.000
G1 X4.724 Y14.279 Z-2.000 F30.000
G1 X6.757 Y13.437 Z-2.000 F30.000
G1 X9.781 Y20.740 Z-2.000 F30.000
G2 X10.940 Y21.329 Z-2.000 I0.924 J-0.383 K0.000 F30.000
G2 X15.330 Y18.466 Z-2.000 I-8.846 J-18.360 K0.000 F30.000
G2 X15.539 Y18.241 Z-2.000 I-0.619 J-0.785 K0.000 F30.000
G1 X15.539 Y18.241 Z-2.500 F30.000
G2 X15.418 Y16.973 Z-2.500 I-0.828 J-0.561 K0.000 F30.000
G1 X9.829 Y11.384 Z-2.500 F30.000
G1 X11.384 Y9.829 Z-2.500 F30.000
G1 X16.973 Y15.418 Z-2.500 F30.000
G2 X18.269 Y15.519 Z-2.500 I0.707 J-0.707 K0.000 F30.000
G2 X21.229 Y11.194 Z-2.500 I-15.199 J-13.577 K0.000 F30.000
G2 X20.740 Y9.781 Z-2.500 I-0.873 J-0.488 K0.000 F30.000
G1 X13.437 Y6.757 Z-2.500 F30.000
G1 X14.279 Y4.724 Z-2.500 F30.000
G1 X21.581 Y7.749 Z-2.500 F30.000
G2 X22.818 Y7.346 Z-2.500 I0.383 J-0.924 K0.000 F30.000
G2 X23.897 Y2.217 Z-2.500 I-19.237 J-6.727 K0.000 F30.000
G2 X22.904 Y1.100 Z-2.500 I-0.993 J-0.117 K0.000 F30.000
G1 X15.000 Y1.100 Z-2.500 F30.000
G1 X15.000 Y-1.100 Z-2.500 F30.000
G1 X22.904 Y-1.100 Z-2.500 F30.000
G2 X23.892 Y-1.945 Z-2.500 I0.000 J-1.000 K0.000 F30.000
G2 X22.927 Y-7.096 Z-2.500 I-20.347 J1.147 K0.000 F30.000
G2 X21.581 Y-7.749 Z-2.500 I-0.962 J0.272 K0.000 F30.000
G1 X14.279 Y-4.724 Z-2.500 F30.000
G1 X13.437 Y-6.757 Z-2.500 F30.000
G1 X20.740 Y-9.781 Z-2.500 F30.000
G2 X21.329 Y-10.940 Z-2.500 I-0.383 J-0.924 K0.000 F30.000
G2 X18.466 Y-15.330 Z-2.500 I-18.360 J8.846 K0.000 F30.000
G2 X16.973 Y-15.418 Z-2.500 I-0.785 J0.619 K0.000 F30.000
G1 X11.384 Y-9.829 Z-2.500 F30.000
G1 X9.829 Y-11.384 Z-2.500 F30.000
G1 X15.418 Y-16.973 Z-2.500 F30.000
G2 X15.519 Y-18.269 Z-2.500 I-0.707 J-0.707 K0.000 F30.000
G2 X11.194 Y-21.229 Z-2.500 I-13.577 J15.199 K0.000 F30.000
G2 X9.781 Y-20.740 Z-2.500 I-0.488 J0.873 K0.000 F30.000
G1 X6.757 Y-13.437 Z-2.500 F30.000
G1 X4.724 Y-14.279 Z-2.500 F30.000
G1 X7.749 Y-21.581 Z-2.500 F30.000
G2 X7.346 Y-22.818 Z-2.500 I-0.924 J-0.383 K0.000 F30.000
G2 X2.217 Y-23.897 Z-2.500 I-6.727 J19.237 K0.000 F30.000
G2 X1.100 Y-22.904 Z-2.500 I-0.117 J0.993 K0.000 F30.000
G1 X1.100 Y-15.000 Z-2.500 F30.000
G1 X-1.100 Y-15.000 Z-2.500 F30.000
G1 X-1.100 Y-22.904 Z-2.500 F30.000
G2 X-1.684 Y-23.813 Z-2.500 I-1.000 J0.000 K0.000 F30.000
G1 X-1.945 Y-23.892 Z-2.500 F30.000
G2 X-7.096 Y-22.927 Z-2.500 I1.147 J20.347 K0.000 F30.000
G2 X-7.749 Y-21.581 Z-2.500 I0.272 J0.962 K0.000 F30.000
G1 X-4.724 Y-14.279 Z-2.500 F30.000
G1 X-6.757 Y-13.437 Z-2.500 F30.000
G1 X-9.781 Y-20.740 Z-2.500 F30.000
G2 X-10.940 Y-21.329 Z-2.500 I-0.924 J0.383 K0.000 F30.000
G2 X-15.330 Y-18.466 Z-2.500 I8.846 J18.360 K0.000 F30.000
G2 X-15.418 Y-16.973 Z-2.500 I0.619 J0.785 K0.000 F30.000
G1 X-9.829 Y-11.384 Z-2.500 F30.000
G1 X-11.384 Y-9.829 Z-2.500 F30.000
G1 X-16.973 Y-15.418 Z-2.500 F30.000
G2 X-18.269 Y-15.519 Z-2.500 I-0.707 J0.707 K0.000 F30.000
G2 X-21.229 Y-11.194 Z-2.500 I15.199 J13.577 K0.000 F30.000
G2 X-20.740 Y-9.781 Z-2.500 I0.873 J0.488 K0.000 F30.000
G1 X-13.437 Y-6.757 Z-2.500 F30.000
G1 X-14.279 Y-4.724 Z-2.500 F30.000
G1 X-21.581 Y-7.749 Z-2.500 F30.000
G2 X-22.818 Y-7.346 Z-2.500 I-0.383 J0.924 K0.000 F30.000
G2 X-23.897 Y-2.217 Z-2.500 I19.237 J6.727 K0.000 F30.000
G2 X-22.904 Y-1.100 Z-2.500 I0.993 J0.117 K0.000 F30.000
G1 X-15.000 Y-1.100 Z-2.500 F30.000
G1 X-15.000 Y1.100 Z-2.500 F30.000
G1 X-22.904 Y1.100 Z-2.500 F30.000
G2 X-23.892 Y1.945 Z-2.500 I0.000 J1.000 K0.000 F30.000
G2 X-22.927 Y7.096 Z-2.500 I20.347 J-1.147 K0.000 F30.000
G2 X-21.581 Y7.749 Z-2.500 I0.962 J-0.272 K0.000 F30.000
G1 X-14.279 Y4.724 Z-2.500 F30.000
G1 X-13.437 Y6.757 Z-2.500 F30.000
G1 X-20.740 Y9.781 Z-2.500 F30.000
G2 X-21.329 Y10.940 Z-2.500 I0.383 J0.924 K0.000 F30.000
G2 X-18.466 Y15.330 Z-2.500 I18.360 J-8.846 K0.000 F30.000
G2 X-16.973 Y15.418 Z-2.500 I0.785 J-0.619 K0.000 F30.000
G1 X-11.384 Y9.829 Z-2.500 F30.000
G1 X-9.829 Y11.384 Z-2.500 F30.000
G1 X-15.418 Y16.973 Z-2.500 F30.000
G2 X-15.519 Y18.269 Z-2.500 I0.707 J0.707 K0.000 F30.000
G2 X-11.194 Y21.229 Z-2.500 I13.577 J-15.199 K0.000 F30.000
G2 X-9.781 Y20.740 Z-2.500 I0.488 J-0.873 K0.000 F30.000
G1 X-6.757 Y13.437 Z-2.500 F30.000
G1 X-4.724 Y14.279 Z-2.500 F30.000
G1 X-7.749 Y21.581 Z-2.500 F30.000
G2 X-7.346 Y22.818 Z-2.500 I0.924 J0.383 K0.000 F30.000
G2 X-2.217 Y23.897 Z-2.500 I6.727 J-19.237 K0.000 F30.000
G2 X-1.100 Y22.904 Z-2.500 I0.117 J-0.993 K0.000 F30.000
G1 X-1.100 Y15.000 Z-2.500 F30.000
G1 X1.100 Y15.000 Z-2.500 F30.000
G1 X1.100 Y22.904 Z-2.500 F30.000
G2 X1.945 Y23.892 Z-2.500 I1.000 J0.000 K0.000 F30.000
G2 X7.096 Y22.927 Z-2.500 I-1.147 J-20.347 K0.000 F30.000
G2 X7.749 Y21.581 Z-2.500 I-0.272 J-0.962 K0.000 F30.000
G1 X4.724 Y14.279 Z-2.500 F30.000
G1 X6.757 Y13.437 Z-2.500 F30.000
G1 X9.781 Y20.740 Z-2.500 F30.000
G2 X10.940 Y21.329 Z-2.500 I0.924 J-0.383 K0.000 F30.000
G2 X15.330 Y18.466 Z-2.500 I-8.846 J-18.360 K0.000 F30.000
G2 X15.539 Y18.241 Z-2.500 I-0.619 J-0.785 K0.000 F30.000
G1 X15.539 Y18.241 Z-3.000 F30.000
G2 X15.418 Y16.973 Z-3.000 I-0.828 J-0.561 K0.000 F30.000
G1 X9.829 Y11.384 Z-3.000 F30.000
G1 X11.384 Y9.829 Z-3.000 F30.000
G1 X16.973 Y15.418 Z-3.000 F30.000
G2 X18.269 Y15.519 Z-3.000 I0.707 J-0.707 K0.000 F30.000
G2 X21.229 Y11.194 Z-3.000 I-15.199 J-13.577 K0.000 F30.000
G2 X20.740 Y9.781 Z-3.000 I-0.873 J-0.488 K0.000 F30.000
G1 X13.437 Y6.757 Z-3.000 F30.000
G1 X14.279 Y4.724 Z-3.000 F30.000
G1 X21.581 Y7.749 Z-3.000 F30.000
G2 X22.818 Y7.346 Z-3.000 I0.383 J-0.924 K0.000 F30.000
G2 X23.897 Y2.217 Z-3.000 I-19.237 J-6.727 K0.000 F30.000
G2 X22.904 Y1.100 Z-3.000 I-0.993 J-0.117 K0.000 F30.000
G1 X15.000 Y1.100 Z-3.000 F30.000
G1 X15.000 Y-1.100 Z-3.000 F30.000
G1 X22.904 Y-1.100 Z-3.000 F30.000
G2 X23.892 Y-1.945 Z-3.000 I0.000 J-1.000 K0.000 F30.000
G2 X22.927 Y-7.096 Z-3.000 I-20.347 J1.147 K0.000 F30.000
G2 X21.581 Y-7.749 Z-3.000 I-0.962 J0.272 K0.000 F30.000
G1 X14.279 Y-4.724 Z-3.000 F30.000
G1 X13.437 Y-6.757 Z-3.000 F30.000
G1 X20.740 Y-9.781 Z-3.000 F30.000
G2 X21.329 Y-10.940 Z-3.000 I-0.383 J-0.924 K0.000 F30.000
G2 X18.466 Y-15.330 Z-3.000 I-18.360 J8.846 K0.000 F30.000
G2 X16.973 Y-15.418 Z-3.000 I-0.785 J0.619 K0.000 F30.000
G1 X11.384 Y-9.829 Z-3.000 F30.000
G1 X9.829 Y-11.384 Z-3.000 F30.000
G1 X15.418 Y-16.973 Z-3.000 F30.000
G2 X15.519 Y-18.269 Z-3.000 I-0.707 J-0.707 K0.000 F30.000
G2 X11.194 Y-21.229 Z-3.000 I-13.577 J15.199 K0.000 F30.000
G2 X9.781 Y-20.740 Z-3.000 I-0.488 J0.873 K0.000 F30.000
G1 X6.757 Y-13.437 Z-3.000 F30.000
G1 X4.724 Y-14.279 Z-3.000 F30.000
G1 X7.749 Y-21.581 Z-3.000 F30.000
G2 X7.346 Y-22.818 Z-3.000 I-0.924 J-0.383 K0.000 F30.000
G2 X2.217 Y-23.897 Z-3.000 I-6.727 J19.237 K0.000 F30.000
G2 X1.100 Y-22.904 Z-3.000 I-0.117 J0.993 K0.000 F30.000
G1 X1.100 Y-15.000 Z-3.000 F30.000
G1 X-1.100 Y-15.000 Z-3.000 F30.000
G1 X-1.100 Y-22.904 Z-3.000 F30.000
G2 X-1.684 Y-23.813 Z-3.000 I-1.000 J0.000 K0.000 F30.000
G1 X-1.945 Y-23.892 Z-3.000 F30.000
G2 X-7.096 Y-22.927 Z-3.000 I1.147 J20.347 K0.000 F30.000
G2 X-7.749 Y-21.581 Z-3.000 I0.272 J0.962 K0.000 F30.000
G1 X-4.724 Y-14.279 Z-3.000 F30.000
G1 X-6.757 Y-13.437 Z-3.000 F30.000
G1 X-9.781 Y-20.740 Z-3.000 F30.000
G2 X-10.940 Y-21.329 Z-3.000 I-0.924 J0.383 K0.000 F30.000
G2 X-15.330 Y-18.466 Z-3.000 I8.846 J18.360 K0.000 F30.000
G2 X-15.418 Y-16.973 Z-3.000 I0.619 J0.785 K0.000 F30.000
G1 X-9.829 Y-11.384 Z-3.000 F30.000
G1 X-11.384 Y-9.829 Z-3.000 F30.000
G1 X-16.973 Y-15.418 Z-3.000 F30.000
G2 X-18.269 Y-15.519 Z-3.000 I-0.707 J0.707 K0.000 F30.000
G2 X-21.229 Y-11.194 Z-3.000 I15.199 J13.577 K0.000 F30.000
G2 X-20.740 Y-9.781 Z-3.000 I0.873 J0.488 K0.000 F30.000
G1 X-13.437 Y-6.757 Z-3.000 F30.000
G1 X-14.279 Y-4.724 Z-3.000 F30.000
G1 X-21.581 Y-7.749 Z-3.000 F30.000
G2 X-22.818 Y-7.346 Z-3.000 I-0.383 J0.924 K0.000 F30.000
G2 X-23.897 Y-2.217 Z-3.000 I19.237 J6.727 K0.000 F30.000
G2 X-22.904 Y-1.100 Z-3.000 I0.993 J0.117 K0.000 F30.000
G1 X-15.000 Y-1.100 Z-3.000 F30.000
G1 X-15.000 Y1.100 Z-3.000 F30.000
G1 X-22.904 Y1.100 Z-3.000 F30.000
G2 X-23.892 Y1.945 Z-3.000 I0.000 J1.000 K0.000 F30.000
G2 X-22.927 Y7.096 Z-3.000 I20.347 J-1.147 K0.000 F30.000
G2 X-21.581 Y7.749 Z-3.000 I0.962 J-0.272 K0.000 F30.000
G1 X-14.279 Y4.724 Z-3.000 F30.000
G1 X-13.437 Y6.757 Z-3.000 F30.000
G1 X-20.740 Y9.781 Z-3.000 F30.000
G2 X-21.329 Y10.940 Z-3.000 I0.383 J0.924 K0.000 F30.000
G2 X-18.466 Y15.330 Z-3.000 I18.360 J-8.846 K0.000 F30.000
G2 X-16.973 Y15.418 Z-3.000 I0.785 J-0.619 K0.000 F30.000
G1 X-11.384 Y9.829 Z-3.000 F30.000
G1 X-9.829 Y11.384 Z-3.000 F30.000
G1 X-15.418 Y16.973 Z-3.000 F30.000
G2 X-15.519 Y18.269 Z-3.000 I0.707 J0.707 K0.000 F30.000
G2 X-11.194 Y21.229 Z-3.000 I13.577 J-15.199 K0.000 F30.000
G2 X-9.781 Y20.740 Z-3.000 I0.488 J-0.873 K0.000 F30.000
G1 X-6.757 Y13.437 Z-3.000 F30.000
G1 X-4.724 Y14.279 Z-3.000 F30.000
G1 X-7.749 Y21.581 Z-3.000 F30.000
G2 X-7.346 Y22.818 Z-3.000 I0.924 J0.383 K0.000 F30.000
G2 X-2.217 Y23.897 Z-3.000 I6.727 J-19.237 K0.000 F30.000
G2 X-1.100 Y22.904 Z-3.000 I0.117 J-0.993 K0.000 F30.000
G1 X-1.100 Y15.000 Z-3.000 F30.000
G1 X1.100 Y15.000 Z-3.000 F30.000
G1 X1.100 Y22.904 Z-3.000 F30.000
G2 X1.945 Y23.892 Z-3.000 I1.000 J0.000 K0.000 F30.000
G2 X7.096 Y22.927 Z-3.000 I-1.147 J-20.347 K0.000 F30.000
G2 X7.749 Y21.581 Z-3.000 I-0.272 J-0.962 K0.000 F30.000
G1 X4.724 Y14.279 Z-3.000 F30.000
G1 X6.757 Y13.437 Z-3.000 F30.000
G1 X9.781 Y20.740 Z-3.000 F30.000
G2 X10.940 Y21.329 Z-3.000 I0.924 J-0.383 K0.000 F30.000
G2 X15.330 Y18.466 Z-3.000 I-8.846 J-18.360 K0.000 F30.000
G2 X15.539 Y18.241 Z-3.000 I-0.619 J-0.785 K0.000 F30.000
G1 X15.539 Y18.241 Z-3.500 F30.000
G2 X15.418 Y16.973 Z-3.500 I-0.828 J-0.561 K0.000 F30.000
G1 X9.829 Y11.384 Z-3.500 F30.000
G1 X11.384 Y9.829 Z-3.500 F30.000
G1 X16.973 Y15.418 Z-3.500 F30.000
G2 X18.269 Y15.519 Z-3.500 I0.707 J-0.707 K0.000 F30.000
G2 X21.229 Y11.194 Z-3.500 I-15.199 J-13.577 K0.000 F30.000
G2 X20.740 Y9.781 Z-3.500 I-0.873 J-0.488 K0.000 F30.000
G1 X13.437 Y6.757 Z-3.500 F30.000
G1 X14.279 Y4.724 Z-3.500 F30.000
G1 X21.581 Y7.749 Z-3.500 F30.000
G2 X22.818 Y7.346 Z-3.500 I0.383 J-0.924 K0.000 F30.000
G2 X23.897 Y2.217 Z-3.500 I-19.237 J-6.727 K0.000 F30.000
G2 X22.904 Y1.100 Z-3.500 I-0.993 J-0.117 K0.000 F30.000
G1 X15.000 Y1.100 Z-3.500 F30.000
G1 X15.000 Y-1.100 Z-3.500 F30.000
G1 X22.904 Y-1.100 Z-3.500 F30.000
G2 X23.892 Y-1.945 Z-3.500 I0.000 J-1.000 K0.000 F30.000
G2 X22.927 Y-7.096 Z-3.500 I-20.347 J1.147 K0.000 F30.000
G2 X21.581 Y-7.749 Z-3.500 I-0.962 J0.272 K0.000 F30.000
G1 X14.279 Y-4.724 Z-3.500 F30.000
G1 X13.437 Y-6.757 Z-3.500 F30.000
G1 X20.740 Y-9.781 Z-3.500 F30.000
G2 X21.329 Y-10.940 Z-3.500 I-0.383 J-0.924 K0.000 F30.000
G2 X18.466 Y-15.330 Z-3.500 I-18.360 J8.846 K0.000 F30.000
G2 X16.973 Y-15.418 Z-3.500 I-0.785 J0.619 K0.000 F30.000
G1 X11.384 Y-9.829 Z-3.500 F30.000
G1 X9.829 Y-11.384 Z-3.500 F30.000
G1 X15.418 Y-16.973 Z-3.500 F30.000
G2 X15.519 Y-18.269 Z-3.500 I-0.707 J-0.707 K0.000 F30.000
G2 X11.194 Y-21.229 Z-3.500 I-13.577 J15.199 K0.000 F30.000
G2 X9.781 Y-20.740 Z-3.500 I-0.488 J0.873 K0.000 F30.000
G1 X6.757 Y-13.437 Z-3.500 F30.000
G1 X4.724 Y-14.279 Z-3.500 F30.000
G1 X7.749 Y-21.581 Z-3.500 F30.000
G2 X7.346 Y-22.818 Z-3.500 I-0.924 J-0.383 K0.000 F30.000
G2 X2.217 Y-23.897 Z-3.500 I-6.727 J19.237 K0.000 F30.000
G2 X1.100 Y-22.904 Z-3.500 I-0.117 J0.993 K0.000 F30.000
G1 X1.100 Y-15.000 Z-3.500 F30.000
G1 X-1.100 Y-15.000 Z-3.500 F30.000
G1 X-1.100 Y-22.904 Z-3.500 F30.000
G2 X-1.684 Y-23.813 Z-3.500 I-1.000 J0.000 K0.000 F30.000
G1 X-1.945 Y-23.892 Z-3.500 F30.000
G2 X-7.096 Y-22.927 Z-3.500 I1.147 J20.347 K0.000 F30.000
G2 X-7.749 Y-21.581 Z-3.500 I0.272 J0.962 K0.000 F30.000
G1 X-4.724 Y-14.279 Z-3.500 F30.000
G1 X-6.757 Y-13.437 Z-3.500 F30.000
G1 X-9.781 Y-20.740 Z-3.500 F30.000
G2 X-10.940 Y-21.329 Z-3.500 I-0.924 J0.383 K0.000 F30.000
G2 X-15.330 Y-18.466 Z-3.500 I8.846 J18.360 K0.000 F30.000
G2 X-15.418 Y-16.973 Z-3.500 I0.619 J0.785 K0.000 F30.000
G1 X-9.829 Y-11.384 Z-3.500 F30.000
G1 X-11.384 Y-9.829 Z-3.500 F30.000
G1 X-16.973 Y-15.418 Z-3.500 F30.000
G2 X-18.269 Y-15.519 Z-3.500 I-0.707 J0.707 K0.000 F30.000
G2 X-21.229 Y-11.194 Z-3.500 I15.199 J13.577 K0.000 F30.000
G2 X-20.740 Y-9.781 Z-3.500 I0.873 J0.488 K0.000 F30.000
G1 X-13.437 Y-6.757 Z-3.500 F30.000
G1 X-14.279 Y-4.724 Z-3.500 F30.000
G1 X-21.581 Y-7.749 Z-3.500 F30.000
G2 X-22.818 Y-7.346 Z-3.500 I-0.383 J0.924 K0.000 F30.000
G2 X-23.897 Y-2.217 Z-3.500 I19.237 J6.727 K0.000 F30.000
G2 X-22.904 Y-1.100 Z-3.500 I0.993 J0.117 K0.000 F30.000
G1 X-15.000 Y-1.100 Z-3.500 F30.000
G1 X-15.000 Y1.100 Z-3.500 F30.000
G1 X-22.904 Y1.100 Z-3.500 F30.000
G2 X-23.892 Y1.945 Z-3.500 I0.000 J1.000 K0.000 F30.000
G2 X-22.927 Y7.096 Z-3.500 I20.347 J-1.147 K0.000 F30.000
G2 X-21.581 Y7.749 Z-3.500 I0.962 J-0.272 K0.000 F30.000
G1 X-14.279 Y4.724 Z-3.500 F30.000
G1 X-13.437 Y6.757 Z-3.500 F30.000
G1 X-20.740 Y9.781 Z-3.500 F30.000
G2 X-21.329 Y10.940 Z-3.500 I0.383 J0.924 K0.000 F30.000
G2 X-18.466 Y15.330 Z-3.500 I18.360 J-8.846 K0.000 F30.000
G2 X-16.973 Y15.418 Z-3.500 I0.785 J-0.619 K0.000 F30.000
G1 X-11.384 Y9.829 Z-3.500 F30.000
G1 X-9.829 Y11.384 Z-3.500 F30.000
G1 X-15.418 Y16.973 Z-3.500 F30.000
G2 X-15.519 Y18.269 Z-3.500 I0.707 J0.707 K0.000 F30.000
G2 X-11.194 Y21.229 Z-3.500 I13.577 J-15.199 K0.000 F30.000
G2 X-9.781 Y20.740 Z-3.500 I0.488 J-0.873 K0.000 F30.000
G1 X-6.757 Y13.437 Z-3.500 F30.000
G1 X-4.724 Y14.279 Z-3.500 F30.000
G1 X-7.749 Y21.581 Z-3.500 F30.000
G2 X-7.346 Y22.818 Z-3.500 I0.924 J0.383 K0.000 F30.000
G2 X-2.217 Y23.897 Z-3.500 I6.727 J-19.237 K0.000 F30.000
G2 X-1.100 Y22.904 Z-3.500 I0.117 J-0.993 K0.000 F30.000
G1 X-1.100 Y15.000 Z-3.500 F30.000
G1 X1.100 Y15.000 Z-3.500 F30.000
G1 X1.100 Y22.904 Z-3.500 F30.000
G2 X1.945 Y23.892 Z-3.500 I1.000 J0.000 K0.000 F30.000
G2 X7.096 Y22.927 Z-3.500 I-1.147 J-20.347 K0.000 F30.000
G2 X7.749 Y21.581 Z-3.500 I-0.272 J-0.962 K0.000 F30.000
G1 X4.724 Y14.279 Z-3.500 F30.000
G1 X6.757 Y13.437 Z-3.500 F30.000
G1 X9.781 Y20.740 Z-3.500 F30.000
G2 X10.940 Y21.329 Z-3.500 I0.924 J-0.383 K0.000 F30.000
G2 X15.330 Y18.466 Z-3.500 I-8.846 J-18.360 K0.000 F30.000
G2 X15.539 Y18.241 Z-3.500 I-0.619 J-0.785 K0.000 F30.000
G1 X15.539 Y18.241 Z-4.000 F30.000
G2 X15.418 Y16.973 Z-4.000 I-0.828 J-0.561 K0.000 F30.000
G1 X9.829 Y11.384 Z-4.000 F30.000
G1 X11.384 Y9.829 Z-4.000 F30.000
G1 X16.973 Y15.418 Z-4.000 F30.000
G2 X18.269 Y15.519 Z-4.000 I0.707 J-0.707 K0.000 F30.000
G2 X21.229 Y11.194 Z-4.000 I-15.199 J-13.577 K0.000 F30.000
G2 X20.740 Y9.781 Z-4.000 I-0.873 J-0.488 K0.000 F30.000
G1 X13.437 Y6.757 Z-4.000 F30.000
G1 X14.279 Y4.724 Z-4.000 F30.000
G1 X21.581 Y7.749 Z-4.000 F30.000
G2 X22.818 Y7.346 Z-4.000 I0.383 J-0.924 K0.000 F30.000
G2 X23.897 Y2.217 Z-4.000 I-19.237 J-6.727 K0.000 F30.000
G2 X22.904 Y1.100 Z-4.000 I-0.993 J-0.117 K0.000 F30.000
G1 X15.000 Y1.100 Z-4.000 F30.000
G1 X15.000 Y-1.100 Z-4.000 F30.000
G1 X22.904 Y-1.100 Z-4.000 F30.000
G2 X23.892 Y-1.945 Z-4.000 I0.000 J-1.000 K0.000 F30.000
G2 X22.927 Y-7.096 Z-4.000 I-20.347 J1.147 K0.000 F30.000
G2 X21.581 Y-7.749 Z-4.000 I-0.962 J0.272 K0.000 F30.000
G1 X14.279 Y-4.724 Z-4.000 F30.000
G1 X13.437 Y-6.757 Z-4.000 F30.000
G1 X20.740 Y-9.781 Z-4.000 F30.000
G2 X21.329 Y-10.940 Z-4.000 I-0.383 J-0.924 K0.000 F30.000
G2 X18.466 Y-15.330 Z-4.000 I-18.360 J8.846 K0.000 F30.000
G2 X16.973 Y-15.418 Z-4.000 I-0.785 J0.619 K0.000 F30.000
G1 X11.384 Y-9.829 Z-4.000 F30.000
G1 X9.829 Y-11.384 Z-4.000 F30.000
G1 X15.418 Y-16.973 Z-4.000 F30.000
G2 X15.519 Y-18.269 Z-4.000 I-0.707 J-0.707 K0.000 F30.000
G2 X11.194 Y-21.229 Z-4.000 I-13.577 J15.199 K0.000 F30.000
G2 X9.781 Y-20.740 Z-4.000 I-0.488 J0.873 K0.000 F30.000
G1 X6.757 Y-13.437 Z-4.000 F30.000
G1 X4.724 Y-14.279 Z-4.000 F30.000
G1 X7.749 Y-21.581 Z-4.000 F30.000
G2 X7.346 Y-22.818 Z-4.000 I-0.924 J-0.383 K0.000 F30.000
G2 X2.217 Y-23.897 Z-4.000 I-6.727 J19.237 K0.000 F30.000
G2 X1.100 Y-22.904 Z-4.000 I-0.117 J0.993 K0.000 F30.000
G1 X1.100 Y-15.000 Z-4.000 F30.000
G1 X-1.100 Y-15.000 Z-4.000 F30.000
G1 X-1.100 Y-22.904 Z-4.000 F30.000
G2 X-1.684 Y-23.813 Z-4.000 I-1.000 J0.000 K0.000 F30.000
G1 X-1.945 Y-23.892 Z-4.000 F30.000
G2 X-7.096 Y-22.927 Z-4.000 I1.147 J20.347 K0.000 F30.000
G2 X-7.749 Y-21.581 Z-4.000 I0.272 J0.962 K0.000 F30.000
G1 X-4.724 Y-14.279 Z-4.000 F30.000
G1 X-6.757 Y-13.437 Z-4.000 F30.000
G1 X-9.781 Y-20.740 Z-4.000 F30.000
G2 X-10.940 Y-21.329 Z-4.000 I-0.924 J0.383 K0.000 F30.000
G2 X-15.330 Y-18.466 Z-4.000 I8.846 J18.360 K0.000 F30.000
G2 X-15.418 Y-16.973 Z-4.000 I0.619 J0.785 K0.000 F30.000
G1 X-9.829 Y-11.384 Z-4.000 F30.000
G1 X-11.384 Y-9.829 Z-4.000 F30.000
G1 X-16.973 Y-15.418 Z-4.000 F30.000
G2 X-18.269 Y-15.519 Z-4.000 I-0.707 J0.707 K0.000 F30.000
G2 X-21.229 Y-11.194 Z-4.000 I15.199 J13.577 K0.000 F30.000
G2 X-20.740 Y-9.781 Z-4.000 I0.873 J0.488 K0.000 F30.000
G1 X-13.437 Y-6.757 Z-4.000 F30.000
G1 X-14.279 Y-4.724 Z-4.000 F30.000
G1 X-21.581 Y-7.749 Z-4.000 F30.000
G2 X-22.818 Y-7.346 Z-4.000 I-0.383 J0.924 K0.000 F30.000
G2 X-23.897 Y-2.217 Z-4.000 I19.237 J6.727 K0.000 F30.000
G2 X-22.904 Y-1.100 Z-4.000 I0.993 J0.117 K0.000 F30.000
G1 X-15.000 Y-1.100 Z-4.000 F30.000
G1 X-15.000 Y1.100 Z-4.000 F30.000
G1 X-22.904 Y1.100 Z-4.000 F30.000
G2 X-23.892 Y1.945 Z-4.000 I0.000 J1.000 K0.000 F30.000
G2 X-22.927 Y7.096 Z-4.000 I20.347 J-1.147 K0.000 F30.000
G2 X-21.581 Y7.749 Z-4.000 I0.962 J-0.272 K0.000 F30.000
G1 X-14.279 Y4.724 Z-4.000 F30.000
G1 X-13.437 Y6.757 Z-4.000 F30.000
G1 X-20.740 Y9.781 Z-4.000 F30.000
G2 X-21.329 Y10.940 Z-4.000 I0.383 J0.924 K0.000 F30.000
G2 X-18.466 Y15.330 Z-4.000 I18.360 J-8.846 K0.000 F30.000
G2 X-16.973 Y15.418 Z-4.000 I0.785 J-0.619 K0.000 F30.000
G1 X-11.384 Y9.829 Z-4.000 F30.000
G1 X-9.829 Y11.384 Z-4.000 F30.000
G1 X-15.418 Y16.973 Z-4.000 F30.000
G2 X-15.519 Y18.269 Z-4.000 I0.707 J0.707 K0.000 F30.000
G2 X-11.194 Y21.229 Z-4.000 I13.577 J-15.199 K0.000 F30.000
G2 X-9.781 Y20.740 Z-4.000 I0.488 J-0.873 K0.000 F30.000
G1 X-6.757 Y13.437 Z-4.000 F30.000
G1 X-4.724 Y14.279 Z-4.000 F30.000
G1 X-7.749 Y21.581 Z-4.000 F30.000
G2 X-7.346 Y22.818 Z-4.000 I0.924 J0.383 K0.000 F30.000
G2 X-2.217 Y23.897 Z-4.000 I6.727 J-19.237 K0.000 F30.000
G2 X-1.100 Y22.904 Z-4.000 I0.117 J-0.993 K0.000 F30.000
G1 X-1.100 Y15.000 Z-4.000 F30.000
G1 X1.100 Y15.000 Z-4.000 F30.000
G1 X1.100 Y22.904 Z-4.000 F30.000
G2 X1.945 Y23.892 Z-4.000 I1.000 J0.000 K0.000 F30.000
G2 X7.096 Y22.927 Z-4.000 I-1.147 J-20.347 K0.000 F30.000
G2 X7.749 Y21.581 Z-4.000 I-0.272 J-0.962 K0.000 F30.000
G1 X4.724 Y14.279 Z-4.000 F30.000
G1 X6.757 Y13.437 Z-4.000 F30.000
G1 X9.781 Y20.740 Z-4.000 F30.000
G2 X10.940 Y21.329 Z-4.000 I0.924 J-0.383 K0.000 F30.000
G2 X15.330 Y18.466 Z-4.000 I-8.846 J-18.360 K0.000 F30.000
G2 X15.539 Y18.241 Z-4.000 I-0.619 J-0.785 K0.000 F30.000
G1 X15.539 Y18.241 Z-4.500 F30.000
G2 X15.418 Y16.973 Z-4.500 I-0.828 J-0.561 K0.000 F30.000
G1 X9.829 Y11.384 Z-4.500 F30.000
G1 X11.384 Y9.829 Z-4.500 F30.000
G1 X16.973 Y15.418 Z-4.500 F30.000
G2 X18.269 Y15.519 Z-4.500 I0.707 J-0.707 K0.000 F30.000
G2 X21.229 Y11.194 Z-4.500 I-15.199 J-13.577 K0.000 F30.000
G2 X20.740 Y9.781 Z-4.500 I-0.873 J-0.488 K0.000 F30.000
G1 X13.437 Y6.757 Z-4.500 F30.000
G1 X14.279 Y4.724 Z-4.500 F30.000
G1 X21.581 Y7.749 Z-4.500 F30.000
G2 X22.818 Y7.346 Z-4.500 I0.383 J-0.924 K0.000 F30.000
G2 X23.897 Y2.217 Z-4.500 I-19.237 J-6.727 K0.000 F30.000
G2 X22.904 Y1.100 Z-4.500 I-0.993 J-0.117 K0.000 F30.000
G1 X15.000 Y1.100 Z-4.500 F30.000
G1 X15.000 Y-1.100 Z-4.500 F30.000
G1 X22.904 Y-1.100 Z-4.500 F30.000
G2 X23.892 Y-1.945 Z-4.500 I0.000 J-1.000 K0.000 F30.000
G2 X22.927 Y-7.096 Z-4.500 I-20.347 J1.147 K0.000 F30.000
G2 X21.581 Y-7.749 Z-4.500 I-0.962 J0.272 K0.000 F30.000
G1 X14.279 Y-4.724 Z-4.500 F30.000
G1 X13.437 Y-6.757 Z-4.500 F30.000
G1 X20.740 Y-9.781 Z-4.500 F30.000
G2 X21.329 Y-10.940 Z-4.500 I-0.383 J-0.924 K0.000 F30.000
G2 X18.466 Y-15.330 Z-4.500 I-18.360 J8.846 K0.000 F30.000
G2 X16.973 Y-15.418 Z-4.500 I-0.785 J0.619 K0.000 F30.000
G1 X11.384 Y-9.829 Z-4.500 F30.000
G1 X9.829 Y-11.384 Z-4.500 F30.000
G1 X15.418 Y-16.973 Z-4.500 F30.000
G2 X15.519 Y-18.269 Z-4.500 I-0.707 J-0.707 K0.000 F30.000
G2 X11.194 Y-21.229 Z-4.500 I-13.577 J15.199 K0.000 F30.000
G2 X9.781 Y-20.740 Z-4.500 I-0.488 J0.873 K0.000 F30.000
G1 X6.757 Y-13.437 Z-4.500 F30.000
G1 X4.724 Y-14.279 Z-4.500 F30.000
G1 X7.749 Y-21.581 Z-4.500 F30.000
G2 X7.346 Y-22.818 Z-4.500 I-0.924 J-0.383 K0.000 F30.000
G2 X2.217 Y-23.897 Z-4.500 I-6.727 J19.237 K0.000 F30.000
G2 X1.100 Y-22.904 Z-4.500 I-0.117 J0.993 K0.000 F30.000
G1 X1.100 Y-15.000 Z-4.500 F30.000
G1 X-1.100 Y-15.000 Z-4.500 F30.000
G1 X-1.100 Y-22.904 Z-4.500 F30.000
G2 X-1.684 Y-23.813 Z-4.500 I-1.000 J0.000 K0.000 F30.000
G1 X-1.945 Y-23.892 Z-4.500 F30.000
G2 X-7.096 Y-22.927 Z-4.500 I1.147 J20.347 K0.000 F30.000
G2 X-7.749 Y-21.581 Z-4.500 I0.272 J0.962 K0.000 F30.000
G1 X-4.724 Y-14.279 Z-4.500 F30.000
G1 X-6.757 Y-13.437 Z-4.500 F30.000
G1 X-9.781 Y-20.740 Z-4.500 F30.000
G2 X-10.940 Y-21.329 Z-4.500 I-0.924 J0.383 K0.000 F30.000
G2 X-15.330 Y-18.466 Z-4.500 I8.846 J18.360 K0.000 F30.000
G2 X-15.418 Y-16.973 Z-4.500 I0.619 J0.785 K0.000 F30.000
G1 X-9.829 Y-11.384 Z-4.500 F30.000
G1 X-11.384 Y-9.829 Z-4.500 F30.000
G1 X-16.973 Y-15.418 Z-4.500 F30.000
G2 X-18.269 Y-15.519 Z-4.500 I-0.707 J0.707 K0.000 F30.000
G2 X-21.229 Y-11.194 Z-4.500 I15.199 J13.577 K0.000 F30.000
G2 X-20.740 Y-9.781 Z-4.500 I0.873 J0.488 K0.000 F30.000
G1 X-13.437 Y-6.757 Z-4.500 F30.000
G1 X-14.279 Y-4.724 Z-4.500 F30.000
G1 X-21.581 Y-7.749 Z-4.500 F30.000
G2 X-22.818 Y-7.346 Z-4.500 I-0.383 J0.924 K0.000 F30.000
G2 X-23.897 Y-2.217 Z-4.500 I19.237 J6.727 K0.000 F30.000
G2 X-22.904 Y-1.100 Z-4.500 I0.993 J0.117 K0.000 F30.000
G1 X-15.000 Y-1.100 Z-4.500 F30.000
G1 X-15.000 Y1.100 Z-4.500 F30.000
G1 X-22.904 Y1.100 Z-4.500 F30.000
G2 X-23.892 Y1.945 Z-4.500 I0.000 J1.000 K0.000 F30.000
G2 X-22.927 Y7.096 Z-4.500 I20.347 J-1.147 K0.000 F30.000
G2 X-21.581 Y7.749 Z-4.500 I0.962 J-0.272 K0.000 F30.000
G1 X-14.279 Y4.724 Z-4.500 F30.000
G1 X-13.437 Y6.757 Z-4.500 F30.000
G1 X-20.740 Y9.781 Z-4.500 F30.000
G2 X-21.329 Y10.940 Z-4.500 I0.383 J0.924 K0.000 F30.000
G2 X-18.466 Y15.330 Z-4.500 I18.360 J-8.846 K0.000 F30.000
G2 X-16.973 Y15.418 Z-4.500 I0.785 J-0.619 K0.000 F30.000
G1 X-11.384 Y9.829 Z-4.500 F30.000
G1 X-9.829 Y11.384 Z-4.500 F30.000
G1 X-15.418 Y16.973 Z-4.500 F30.000
G2 X-15.519 Y18.269 Z-4.500 I0.707 J0.707 K0.000 F30.000
G2 X-11.194 Y21.229 Z-4.500 I13.577 J-15.199 K0.000 F30.000
G2 X-9.781 Y20.740 Z-4.500 I0.488 J-0.873 K0.000 F30.000
G1 X-6.757 Y13.437 Z-4.500 F30.000
G1 X-4.724 Y14.279 Z-4.500 F30.000
G1 X-7.749 Y21.581 Z-4.500 F30.000
G2 X-7.346 Y22.818 Z-4.500 I0.924 J0.383 K0.000 F30.000
G2 X-2.217 Y23.897 Z-4.500 I6.727 J-19.237 K0.000 F30.000
G2 X-1.100 Y22.904 Z-4.500 I0.117 J-0.993 K0.000 F30.000
G1 X-1.100 Y15.000 Z-4.500 F30.000
G1 X1.100 Y15.000 Z-4.500 F30.000
G1 X1.100 Y22.904 Z-4.500 F30.000
G2 X1.945 Y23.892 Z-4.500 I1.000 J0.000 K0.000 F30.000
G2 X7.096 Y22.927 Z-4.500 I-1.147 J-20.347 K0.000 F30.000
G2 X7.749 Y21.581 Z-4.500 I-0.272 J-0.962 K0.000 F30.000
G1 X4.724 Y14.279 Z-4.500 F30.000
G1 X6.757 Y13.437 Z-4.500 F30.000
G1 X9.781 Y20.740 Z-4.500 F30.000
G2 X10.940 Y21.329 Z-4.500 I0.924 J-0.383 K0.000 F30.000
G2 X15.330 Y18.466 Z-4.500 I-8.846 J-18.360 K0.000 F30.000
G2 X15.539 Y18.241 Z-4.500 I-0.619 J-0.785 K0.000 F30.000
G1 X15.539 Y18.241 Z-5.000 F30.000
G2 X15.418 Y16.973 Z-5.000 I-0.828 J-0.561 K0.000 F30.000
G1 X9.829 Y11.384 Z-5.000 F30.000
G1 X11.384 Y9.829 Z-5.000 F30.000
G1 X16.973 Y15.418 Z-5.000 F30.000
G2 X18.269 Y15.519 Z-5.000 I0.707 J-0.707 K0.000 F30.000
G2 X21.229 Y11.194 Z-5.000 I-15.199 J-13.577 K0.000 F30.000
G2 X20.740 Y9.781 Z-5.000 I-0.873 J-0.488 K0.000 F30.000
G1 X13.437 Y6.757 Z-5.000 F30.000
G1 X14.279 Y4.724 Z-5.000 F30.000
G1 X21.581 Y7.749 Z-5.000 F30.000
G2 X22.818 Y7.346 Z-5.000 I0.383 J-0.924 K0.000 F30.000
G2 X23.897 Y2.217 Z-5.000 I-19.237 J-6.727 K0.000 F30.000
G2 X22.904 Y1.100 Z-5.000 I-0.993 J-0.117 K0.000 F30.000
G1 X15.000 Y1.100 Z-5.000 F30.000
G1 X15.000 Y-1.100 Z-5.000 F30.000
G1 X22.904 Y-1.100 Z-5.000 F30.000
G2 X23.892 Y-1.945 Z-5.000 I0.000 J-1.000 K0.000 F30.000
G2 X22.927 Y-7.096 Z-5.000 I-20.347 J1.147 K0.000 F30.000
G2 X21.581 Y-7.749 Z-5.000 I-0.962 J0.272 K0.000 F30.000
G1 X14.279 Y-4.724 Z-5.000 F30.000
G1 X13.437 Y-6.757 Z-5.000 F30.000
G1 X20.740 Y-9.781 Z-5.000 F30.000
G2 X21.329 Y-10.940 Z-5.000 I-0.383 J-0.924 K0.000 F30.000
G2 X18.466 Y-15.330 Z-5.000 I-18.360 J8.846 K0.000 F30.000
G2 X16.973 Y-15.418 Z-5.000 I-0.785 J0.619 K0.000 F30.000
G1 X11.384 Y-9.829 Z-5.000 F30.000
G1 X9.829 Y-11.384 Z-5.000 F30.000
G1 X15.418 Y-16.973 Z-5.000 F30.000
G2 X15.519 Y-18.269 Z-5.000 I-0.707 J-0.707 K0.000 F30.000
G2 X11.194 Y-21.229 Z-5.000 I-13.577 J15.199 K0.000 F30.000
G2 X9.781 Y-20.740 Z-5.000 I-0.488 J0.873 K0.000 F30.000
G1 X6.757 Y-13.437 Z-5.000 F30.000
G1 X4.724 Y-14.279 Z-5.000 F30.000
G1 X7.749 Y-21.581 Z-5.000 F30.000
G2 X7.346 Y-22.818 Z-5.000 I-0.924 J-0.383 K0.000 F30.000
G2 X2.217 Y-23.897 Z-5.000 I-6.727 J19.237 K0.000 F30.000
G2 X1.100 Y-22.904 Z-5.000 I-0.117 J0.993 K0.000 F30.000
G1 X1.100 Y-15.000 Z-5.000 F30.000
G1 X-1.100 Y-15.000 Z-5.000 F30.000
G1 X-1.100 Y-22.904 Z-5.000 F30.000
G2 X-1.684 Y-23.813 Z-5.000 I-1.000 J0.000 K0.000 F30.000
G1 X-1.945 Y-23.892 Z-5.000 F30.000
G2 X-7.096 Y-22.927 Z-5.000 I1.147 J20.347 K0.000 F30.000
G2 X-7.749 Y-21.581 Z-5.000 I0.272 J0.962 K0.000 F30.000
G1 X-4.724 Y-14.279 Z-5.000 F30.000
G1 X-6.757 Y-13.437 Z-5.000 F30.000
G1 X-9.781 Y-20.740 Z-5.000 F30.000
G2 X-10.940 Y-21.329 Z-5.000 I-0.924 J0.383 K0.000 F30.000
G2 X-15.330 Y-18.466 Z-5.000 I8.846 J18.360 K0.000 F30.000
G2 X-15.418 Y-16.973 Z-5.000 I0.619 J0.785 K0.000 F30.000
G1 X-9.829 Y-11.384 Z-5.000 F30.000
G1 X-11.384 Y-9.829 Z-5.000 F30.000
G1 X-16.973 Y-15.418 Z-5.000 F30.000
G2 X-18.269 Y-15.519 Z-5.000 I-0.707 J0.707 K0.000 F30.000
G2 X-21.229 Y-11.194 Z-5.000 I15.199 J13.577 K0.000 F30.000
G2 X-20.740 Y-9.781 Z-5.000 I0.873 J0.488 K0.000 F30.000
G1 X-13.437 Y-6.757 Z-5.000 F30.000
G1 X-14.279 Y-4.724 Z-5.000 F30.000
G1 X-21.581 Y-7.749 Z-5.000 F30.000
G2 X-22.818 Y-7.346 Z-5.000 I-0.383 J0.924 K0.000 F30.000
G2 X-23.897 Y-2.217 Z-5.000 I19.237 J6.727 K0.000 F30.000
G2 X-22.904 Y-1.100 Z-5.000 I0.993 J0.117 K0.000 F30.000
G1 X-15.000 Y-1.100 Z-5.000 F30.000
G1 X-15.000 Y1.100 Z-5.000 F30.000
G1 X-22.904 Y1.100 Z-5.000 F30.000
G2 X-23.892 Y1.945 Z-5.000 I0.000 J1.000 K0.000 F30.000
G2 X-22.927 Y7.096 Z-5.000 I20.347 J-1.147 K0.000 F30.000
G2 X-21.581 Y7.749 Z-5.000 I0.962 J-0.272 K0.000 F30.000
G1 X-14.279 Y4.724 Z-5.000 F30.000
G1 X-13.437 Y6.757 Z-5.000 F30.000
G1 X-20.740 Y9.781 Z-5.000 F30.000
G2 X-21.329 Y10.940 Z-5.000 I0.383 J0.924 K0.000 F30.000
G2 X-18.466 Y15.330 Z-5.000 I18.360 J-8.846 K0.000 F30.000
G2 X-16.973 Y15.418 Z-5.000 I0.785 J-0.619 K0.000 F30.000
G1 X-11.384 Y9.829 Z-5.000 F30.000
G1 X-9.829 Y11.384 Z-5.000 F30.000
G1 X-15.418 Y16.973 Z-5.000 F30.000
G2 X-15.519 Y18.269 Z-5.000 I0.707 J0.707 K0.000 F30.000
G2 X-11.194 Y21.229 Z-5.000 I13.577 J-15.199 K0.000 F30.000
G2 X-9.781 Y20.740 Z-5.000 I0.488 J-0.873 K0.000 F30.000
G1 X-6.757 Y13.437 Z-5.000 F30.000
G1 X-4.724 Y14.279 Z-5.000 F30.000
G1 X-7.749 Y21.581 Z-5.000 F30.000
G2 X-7.346 Y22.818 Z-5.000 I0.924 J0.383 K0.000 F30.000
G2 X-2.217 Y23.897 Z-5.000 I6.727 J-19.237 K0.000 F30.000
G2 X-1.100 Y22.904 Z-5.000 I0.117 J-0.993 K0.000 F30.000
G1 X-1.100 Y15.000 Z-5.000 F30.000
G1 X1.100 Y15.000 Z-5.000 F30.000
G1 X1.100 Y22.904 Z-5.000 F30.000
G2 X1.945 Y23.892 Z-5.000 I1.000 J0.000 K0.000 F30.000
G2 X7.096 Y22.927 Z-5.000 I-1.147 J-20.347 K0.000 F30.000
G2 X7.749 Y21.581 Z-5.000 I-0.272 J-0.962 K0.000 F30.000
G1 X4.724 Y14.279 Z-5.000 F30.000
G1 X6.757 Y13.437 Z-5.000 F30.000
G1 X9.781 Y20.740 Z-5.000 F30.000
G2 X10.940 Y21.329 Z-5.000 I0.924 J-0.383 K0.000 F30.000
G2 X15.330 Y18.466 Z-5.000 I-8.846 J-18.360 K0.000 F30.000
G2 X15.539 Y18.241 Z-5.000 I-0.619 J-0.785 K0.000 F30.000
G0 Z5.000
G0 Z5.000
(Finish operation: Profile032)
(Begin postamble)
M5
G17 G90
M2
