(Exported by FreeCAD)
(Post Processor: grbl_post)
(Output Time:2025-07-26 04:28:22.088416)
(Begin preamble)
G17 G90
G21
(Begin operation: Fixture)
(Path: Fixture)
G54
(Finish operation: Fixture)
(Begin operation: 1mm-3-Endmill001)
(Path: 1mm-3-Endmill001)
(1mm-3-Endmill001)
(Begin toolchange)
( M6 T2 )
(Finish operation: 1mm-3-Endmill001)
(Begin operation: Pocket_Shape)
(Path: Pocket_Shape)
(Pocket_Shape)
G0 Z5.000
G0
G0 X-13.081 Y-16.617
G0 X-13.081 Y-16.617 Z3.000
G1 X-13.081 Y-16.617 Z-0.500 F30.000
G1 X-11.667 Y-15.203 Z-0.500 F30.000
G1 X-12.021 Y-14.849 Z-0.500 F30.000
G1 X-13.435 Y-16.263 Z-0.500 F30.000
G1 X-13.081 Y-16.617 Z-0.500 F30.000
G1 X-13.081 Y-16.617 Z-1.000 F30.000
G1 X-11.667 Y-15.203 Z-1.000 F30.000
G1 X-12.021 Y-14.849 Z-1.000 F30.000
G1 X-13.435 Y-16.263 Z-1.000 F30.000
G1 X-13.081 Y-16.617 Z-1.000 F30.000
G1 X-13.081 Y-16.617 Z-1.500 F30.000
G1 X-11.667 Y-15.203 Z-1.500 F30.000
G1 X-12.021 Y-14.849 Z-1.500 F30.000
G1 X-13.435 Y-16.263 Z-1.500 F30.000
G1 X-13.081 Y-16.617 Z-1.500 F30.000
G1 X-13.081 Y-16.617 Z-2.000 F30.000
G1 X-11.667 Y-15.203 Z-2.000 F30.000
G1 X-12.021 Y-14.849 Z-2.000 F30.000
G1 X-13.435 Y-16.263 Z-2.000 F30.000
G1 X-13.081 Y-16.617 Z-2.000 F30.000
G1 X-13.081 Y-16.617 Z-2.500 F30.000
G1 X-11.667 Y-15.203 Z-2.500 F30.000
G1 X-12.021 Y-14.849 Z-2.500 F30.000
G1 X-13.435 Y-16.263 Z-2.500 F30.000
G1 X-13.081 Y-16.617 Z-2.500 F30.000
G1 X-13.081 Y-16.617 Z-3.000 F30.000
G1 X-11.667 Y-15.203 Z-3.000 F30.000
G1 X-12.021 Y-14.849 Z-3.000 F30.000
G1 X-13.435 Y-16.263 Z-3.000 F30.000
G1 X-13.081 Y-16.617 Z-3.000 F30.000
G0 Z5.000
G0 Z5.000
G0 X0.000 Y0.000
G0 X-9.884 Y-18.636
G0 X-9.884 Y-18.636 Z3.000
G1 X-9.884 Y-18.636 Z-0.500 F30.000
G1 X-9.119 Y-16.788 Z-0.500 F30.000
G1 X-9.581 Y-16.597 Z-0.500 F30.000
G1 X-10.346 Y-18.445 Z-0.500 F30.000
G1 X-9.884 Y-18.636 Z-0.500 F30.000
G1 X-9.884 Y-18.636 Z-1.000 F30.000
G1 X-9.119 Y-16.788 Z-1.000 F30.000
G1 X-9.581 Y-16.597 Z-1.000 F30.000
G1 X-10.346 Y-18.445 Z-1.000 F30.000
G1 X-9.884 Y-18.636 Z-1.000 F30.000
G1 X-9.884 Y-18.636 Z-1.500 F30.000
G1 X-9.119 Y-16.788 Z-1.500 F30.000
G1 X-9.581 Y-16.597 Z-1.500 F30.000
G1 X-10.346 Y-18.445 Z-1.500 F30.000
G1 X-9.884 Y-18.636 Z-1.500 F30.000
G1 X-9.884 Y-18.636 Z-2.000 F30.000
G1 X-9.119 Y-16.788 Z-2.000 F30.000
G1 X-9.581 Y-16.597 Z-2.000 F30.000
G1 X-10.346 Y-18.445 Z-2.000 F30.000
G1 X-9.884 Y-18.636 Z-2.000 F30.000
G1 X-9.884 Y-18.636 Z-2.500 F30.000
G1 X-9.119 Y-16.788 Z-2.500 F30.000
G1 X-9.581 Y-16.597 Z-2.500 F30.000
G1 X-10.346 Y-18.445 Z-2.500 F30.000
G1 X-9.884 Y-18.636 Z-2.500 F30.000
G1 X-9.884 Y-18.636 Z-3.000 F30.000
G1 X-9.119 Y-16.788 Z-3.000 F30.000
G1 X-9.581 Y-16.597 Z-3.000 F30.000
G1 X-10.346 Y-18.445 Z-3.000 F30.000
G1 X-9.884 Y-18.636 Z-3.000 F30.000
G0 Z5.000
G0 Z5.000
G0 X0.000 Y0.000
G0 X-5.727 Y-20.358
G0 X-5.727 Y-20.358 Z3.000
G1 X-5.727 Y-20.358 Z-0.500 F30.000
G1 X-4.961 Y-18.510 Z-0.500 F30.000
G1 X-5.423 Y-18.319 Z-0.500 F30.000
G1 X-6.189 Y-20.167 Z-0.500 F30.000
G1 X-5.727 Y-20.358 Z-0.500 F30.000
G1 X-5.727 Y-20.358 Z-1.000 F30.000
G1 X-4.961 Y-18.510 Z-1.000 F30.000
G1 X-5.423 Y-18.319 Z-1.000 F30.000
G1 X-6.189 Y-20.167 Z-1.000 F30.000
G1 X-5.727 Y-20.358 Z-1.000 F30.000
G1 X-5.727 Y-20.358 Z-1.500 F30.000
G1 X-4.961 Y-18.510 Z-1.500 F30.000
G1 X-5.423 Y-18.319 Z-1.500 F30.000
G1 X-6.189 Y-20.167 Z-1.500 F30.000
G1 X-5.727 Y-20.358 Z-1.500 F30.000
G1 X-5.727 Y-20.358 Z-2.000 F30.000
G1 X-4.961 Y-18.510 Z-2.000 F30.000
G1 X-5.423 Y-18.319 Z-2.000 F30.000
G1 X-6.189 Y-20.167 Z-2.000 F30.000
G1 X-5.727 Y-20.358 Z-2.000 F30.000
G1 X-5.727 Y-20.358 Z-2.500 F30.000
G1 X-4.961 Y-18.510 Z-2.500 F30.000
G1 X-5.423 Y-18.319 Z-2.500 F30.000
G1 X-6.189 Y-20.167 Z-2.500 F30.000
G1 X-5.727 Y-20.358 Z-2.500 F30.000
G1 X-5.727 Y-20.358 Z-3.000 F30.000
G1 X-4.961 Y-18.510 Z-3.000 F30.000
G1 X-5.423 Y-18.319 Z-3.000 F30.000
G1 X-6.189 Y-20.167 Z-3.000 F30.000
G1 X-5.727 Y-20.358 Z-3.000 F30.000
G0 Z5.000
G0 Z5.000
G0 X0.000 Y0.000
G0 X-2.000 Y-21.000
G0 X-2.000 Y-21.000 Z3.000
G1 X-2.000 Y-21.000 Z-0.500 F30.000
G1 X-2.000 Y-19.000 Z-0.500 F30.000
G1 X-2.500 Y-19.000 Z-0.500 F30.000
G1 X-2.500 Y-21.000 Z-0.500 F30.000
G1 X-2.000 Y-21.000 Z-0.500 F30.000
G1 X-2.000 Y-21.000 Z-1.000 F30.000
G1 X-2.000 Y-19.000 Z-1.000 F30.000
G1 X-2.500 Y-19.000 Z-1.000 F30.000
G1 X-2.500 Y-21.000 Z-1.000 F30.000
G1 X-2.000 Y-21.000 Z-1.000 F30.000
G1 X-2.000 Y-21.000 Z-1.500 F30.000
G1 X-2.000 Y-19.000 Z-1.500 F30.000
G1 X-2.500 Y-19.000 Z-1.500 F30.000
G1 X-2.500 Y-21.000 Z-1.500 F30.000
G1 X-2.000 Y-21.000 Z-1.500 F30.000
G1 X-2.000 Y-21.000 Z-2.000 F30.000
G1 X-2.000 Y-19.000 Z-2.000 F30.000
G1 X-2.500 Y-19.000 Z-2.000 F30.000
G1 X-2.500 Y-21.000 Z-2.000 F30.000
G1 X-2.000 Y-21.000 Z-2.000 F30.000
G1 X-2.000 Y-21.000 Z-2.500 F30.000
G1 X-2.000 Y-19.000 Z-2.500 F30.000
G1 X-2.500 Y-19.000 Z-2.500 F30.000
G1 X-2.500 Y-21.000 Z-2.500 F30.000
G1 X-2.000 Y-21.000 Z-2.500 F30.000
G1 X-2.000 Y-21.000 Z-3.000 F30.000
G1 X-2.000 Y-19.000 Z-3.000 F30.000
G1 X-2.500 Y-19.000 Z-3.000 F30.000
G1 X-2.500 Y-21.000 Z-3.000 F30.000
G1 X-2.000 Y-21.000 Z-3.000 F30.000
G0 Z5.000
G0 Z5.000
G0 X0.000 Y0.000
G0 X2.500 Y-21.000
G0 X2.500 Y-21.000 Z3.000
G1 X2.500 Y-21.000 Z-0.500 F30.000
G1 X2.500 Y-19.000 Z-0.500 F30.000
G1 X2.000 Y-19.000 Z-0.500 F30.000
G1 X2.000 Y-21.000 Z-0.500 F30.000
G1 X2.500 Y-21.000 Z-0.500 F30.000
G1 X2.500 Y-21.000 Z-1.000 F30.000
G1 X2.500 Y-19.000 Z-1.000 F30.000
G1 X2.000 Y-19.000 Z-1.000 F30.000
G1 X2.000 Y-21.000 Z-1.000 F30.000
G1 X2.500 Y-21.000 Z-1.000 F30.000
G1 X2.500 Y-21.000 Z-1.500 F30.000
G1 X2.500 Y-19.000 Z-1.500 F30.000
G1 X2.000 Y-19.000 Z-1.500 F30.000
G1 X2.000 Y-21.000 Z-1.500 F30.000
G1 X2.500 Y-21.000 Z-1.500 F30.000
G1 X2.500 Y-21.000 Z-2.000 F30.000
G1 X2.500 Y-19.000 Z-2.000 F30.000
G1 X2.000 Y-19.000 Z-2.000 F30.000
G1 X2.000 Y-21.000 Z-2.000 F30.000
G1 X2.500 Y-21.000 Z-2.000 F30.000
G1 X2.500 Y-21.000 Z-2.500 F30.000
G1 X2.500 Y-19.000 Z-2.500 F30.000
G1 X2.000 Y-19.000 Z-2.500 F30.000
G1 X2.000 Y-21.000 Z-2.500 F30.000
G1 X2.500 Y-21.000 Z-2.500 F30.000
G1 X2.500 Y-21.000 Z-3.000 F30.000
G1 X2.500 Y-19.000 Z-3.000 F30.000
G1 X2.000 Y-19.000 Z-3.000 F30.000
G1 X2.000 Y-21.000 Z-3.000 F30.000
G1 X2.500 Y-21.000 Z-3.000 F30.000
G0 Z5.000
G0 Z5.000
G0 X0.000 Y0.000
G0 X5.727 Y-20.358
G0 X5.727 Y-20.358 Z3.000
G1 X5.727 Y-20.358 Z-0.500 F30.000
G1 X6.189 Y-20.167 Z-0.500 F30.000
G1 X5.423 Y-18.319 Z-0.500 F30.000
G1 X4.961 Y-18.510 Z-0.500 F30.000
G1 X5.727 Y-20.358 Z-0.500 F30.000
G1 X5.727 Y-20.358 Z-1.000 F30.000
G1 X6.189 Y-20.167 Z-1.000 F30.000
G1 X5.423 Y-18.319 Z-1.000 F30.000
G1 X4.961 Y-18.510 Z-1.000 F30.000
G1 X5.727 Y-20.358 Z-1.000 F30.000
G1 X5.727 Y-20.358 Z-1.500 F30.000
G1 X6.189 Y-20.167 Z-1.500 F30.000
G1 X5.423 Y-18.319 Z-1.500 F30.000
G1 X4.961 Y-18.510 Z-1.500 F30.000
G1 X5.727 Y-20.358 Z-1.500 F30.000
G1 X5.727 Y-20.358 Z-2.000 F30.000
G1 X6.189 Y-20.167 Z-2.000 F30.000
G1 X5.423 Y-18.319 Z-2.000 F30.000
G1 X4.961 Y-18.510 Z-2.000 F30.000
G1 X5.727 Y-20.358 Z-2.000 F30.000
G1 X5.727 Y-20.358 Z-2.500 F30.000
G1 X6.189 Y-20.167 Z-2.500 F30.000
G1 X5.423 Y-18.319 Z-2.500 F30.000
G1 X4.961 Y-18.510 Z-2.500 F30.000
G1 X5.727 Y-20.358 Z-2.500 F30.000
G1 X5.727 Y-20.358 Z-3.000 F30.000
G1 X6.189 Y-20.167 Z-3.000 F30.000
G1 X5.423 Y-18.319 Z-3.000 F30.000
G1 X4.961 Y-18.510 Z-3.000 F30.000
G1 X5.727 Y-20.358 Z-3.000 F30.000
G0 Z5.000
G0 Z5.000
G0 X0.000 Y0.000
G0 X9.884 Y-18.636
G0 X9.884 Y-18.636 Z3.000
G1 X9.884 Y-18.636 Z-0.500 F30.000
G1 X10.346 Y-18.445 Z-0.500 F30.000
G1 X9.581 Y-16.597 Z-0.500 F30.000
G1 X9.119 Y-16.788 Z-0.500 F30.000
G1 X9.884 Y-18.636 Z-0.500 F30.000
G1 X9.884 Y-18.636 Z-1.000 F30.000
G1 X10.346 Y-18.445 Z-1.000 F30.000
G1 X9.581 Y-16.597 Z-1.000 F30.000
G1 X9.119 Y-16.788 Z-1.000 F30.000
G1 X9.884 Y-18.636 Z-1.000 F30.000
G1 X9.884 Y-18.636 Z-1.500 F30.000
G1 X10.346 Y-18.445 Z-1.500 F30.000
G1 X9.581 Y-16.597 Z-1.500 F30.000
G1 X9.119 Y-16.788 Z-1.500 F30.000
G1 X9.884 Y-18.636 Z-1.500 F30.000
G1 X9.884 Y-18.636 Z-2.000 F30.000
G1 X10.346 Y-18.445 Z-2.000 F30.000
G1 X9.581 Y-16.597 Z-2.000 F30.000
G1 X9.119 Y-16.788 Z-2.000 F30.000
G1 X9.884 Y-18.636 Z-2.000 F30.000
G1 X9.884 Y-18.636 Z-2.500 F30.000
G1 X10.346 Y-18.445 Z-2.500 F30.000
G1 X9.581 Y-16.597 Z-2.500 F30.000
G1 X9.119 Y-16.788 Z-2.500 F30.000
G1 X9.884 Y-18.636 Z-2.500 F30.000
G1 X9.884 Y-18.636 Z-3.000 F30.000
G1 X10.346 Y-18.445 Z-3.000 F30.000
G1 X9.581 Y-16.597 Z-3.000 F30.000
G1 X9.119 Y-16.788 Z-3.000 F30.000
G1 X9.884 Y-18.636 Z-3.000 F30.000
G0 Z5.000
G0 Z5.000
G0 X0.000 Y0.000
G0 X13.081 Y-16.617
G0 X13.081 Y-16.617 Z3.000
G1 X13.081 Y-16.617 Z-0.500 F30.000
G1 X13.435 Y-16.263 Z-0.500 F30.000
G1 X12.021 Y-14.849 Z-0.500 F30.000
G1 X11.667 Y-15.203 Z-0.500 F30.000
G1 X13.081 Y-16.617 Z-0.500 F30.000
G1 X13.081 Y-16.617 Z-1.000 F30.000
G1 X13.435 Y-16.263 Z-1.000 F30.000
G1 X12.021 Y-14.849 Z-1.000 F30.000
G1 X11.667 Y-15.203 Z-1.000 F30.000
G1 X13.081 Y-16.617 Z-1.000 F30.000
G1 X13.081 Y-16.617 Z-1.500 F30.000
G1 X13.435 Y-16.263 Z-1.500 F30.000
G1 X12.021 Y-14.849 Z-1.500 F30.000
G1 X11.667 Y-15.203 Z-1.500 F30.000
G1 X13.081 Y-16.617 Z-1.500 F30.000
G1 X13.081 Y-16.617 Z-2.000 F30.000
G1 X13.435 Y-16.263 Z-2.000 F30.000
G1 X12.021 Y-14.849 Z-2.000 F30.000
G1 X11.667 Y-15.203 Z-2.000 F30.000
G1 X13.081 Y-16.617 Z-2.000 F30.000
G1 X13.081 Y-16.617 Z-2.500 F30.000
G1 X13.435 Y-16.263 Z-2.500 F30.000
G1 X12.021 Y-14.849 Z-2.500 F30.000
G1 X11.667 Y-15.203 Z-2.500 F30.000
G1 X13.081 Y-16.617 Z-2.500 F30.000
G1 X13.081 Y-16.617 Z-3.000 F30.000
G1 X13.435 Y-16.263 Z-3.000 F30.000
G1 X12.021 Y-14.849 Z-3.000 F30.000
G1 X11.667 Y-15.203 Z-3.000 F30.000
G1 X13.081 Y-16.617 Z-3.000 F30.000
G0 Z5.000
G0 Z5.000
G0 X0.000 Y0.000
G0 X16.263 Y-13.435
G0 X16.263 Y-13.435 Z3.000
G1 X16.263 Y-13.435 Z-0.500 F30.000
G1 X16.617 Y-13.081 Z-0.500 F30.000
G1 X15.203 Y-11.667 Z-0.500 F30.000
G1 X14.849 Y-12.021 Z-0.500 F30.000
G1 X16.263 Y-13.435 Z-0.500 F30.000
G1 X16.263 Y-13.435 Z-1.000 F30.000
G1 X16.617 Y-13.081 Z-1.000 F30.000
G1 X15.203 Y-11.667 Z-1.000 F30.000
G1 X14.849 Y-12.021 Z-1.000 F30.000
G1 X16.263 Y-13.435 Z-1.000 F30.000
G1 X16.263 Y-13.435 Z-1.500 F30.000
G1 X16.617 Y-13.081 Z-1.500 F30.000
G1 X15.203 Y-11.667 Z-1.500 F30.000
G1 X14.849 Y-12.021 Z-1.500 F30.000
G1 X16.263 Y-13.435 Z-1.500 F30.000
G1 X16.263 Y-13.435 Z-2.000 F30.000
G1 X16.617 Y-13.081 Z-2.000 F30.000
G1 X15.203 Y-11.667 Z-2.000 F30.000
G1 X14.849 Y-12.021 Z-2.000 F30.000
G1 X16.263 Y-13.435 Z-2.000 F30.000
G1 X16.263 Y-13.435 Z-2.500 F30.000
G1 X16.617 Y-13.081 Z-2.500 F30.000
G1 X15.203 Y-11.667 Z-2.500 F30.000
G1 X14.849 Y-12.021 Z-2.500 F30.000
G1 X16.263 Y-13.435 Z-2.500 F30.000
G1 X16.263 Y-13.435 Z-3.000 F30.000
G1 X16.617 Y-13.081 Z-3.000 F30.000
G1 X15.203 Y-11.667 Z-3.000 F30.000
G1 X14.849 Y-12.021 Z-3.000 F30.000
G1 X16.263 Y-13.435 Z-3.000 F30.000
G0 Z5.000
G0 Z5.000
G0 X0.000 Y0.000
G0 X18.445 Y-10.346
G0 X18.445 Y-10.346 Z3.000
G1 X18.445 Y-10.346 Z-0.500 F30.000
G1 X18.636 Y-9.884 Z-0.500 F30.000
G1 X16.788 Y-9.119 Z-0.500 F30.000
G1 X16.597 Y-9.581 Z-0.500 F30.000
G1 X18.445 Y-10.346 Z-0.500 F30.000
G1 X18.445 Y-10.346 Z-1.000 F30.000
G1 X18.636 Y-9.884 Z-1.000 F30.000
G1 X16.788 Y-9.119 Z-1.000 F30.000
G1 X16.597 Y-9.581 Z-1.000 F30.000
G1 X18.445 Y-10.346 Z-1.000 F30.000
G1 X18.445 Y-10.346 Z-1.500 F30.000
G1 X18.636 Y-9.884 Z-1.500 F30.000
G1 X16.788 Y-9.119 Z-1.500 F30.000
G1 X16.597 Y-9.581 Z-1.500 F30.000
G1 X18.445 Y-10.346 Z-1.500 F30.000
G1 X18.445 Y-10.346 Z-2.000 F30.000
G1 X18.636 Y-9.884 Z-2.000 F30.000
G1 X16.788 Y-9.119 Z-2.000 F30.000
G1 X16.597 Y-9.581 Z-2.000 F30.000
G1 X18.445 Y-10.346 Z-2.000 F30.000
G1 X18.445 Y-10.346 Z-2.500 F30.000
G1 X18.636 Y-9.884 Z-2.500 F30.000
G1 X16.788 Y-9.119 Z-2.500 F30.000
G1 X16.597 Y-9.581 Z-2.500 F30.000
G1 X18.445 Y-10.346 Z-2.500 F30.000
G1 X18.445 Y-10.346 Z-3.000 F30.000
G1 X18.636 Y-9.884 Z-3.000 F30.000
G1 X16.788 Y-9.119 Z-3.000 F30.000
G1 X16.597 Y-9.581 Z-3.000 F30.000
G1 X18.445 Y-10.346 Z-3.000 F30.000
G0 Z5.000
G0 Z5.000
G0 X0.000 Y0.000
G0 X20.167 Y-6.189
G0 X20.167 Y-6.189 Z3.000
G1 X20.167 Y-6.189 Z-0.500 F30.000
G1 X20.358 Y-5.727 Z-0.500 F30.000
G1 X18.510 Y-4.961 Z-0.500 F30.000
G1 X18.319 Y-5.423 Z-0.500 F30.000
G1 X20.167 Y-6.189 Z-0.500 F30.000
G1 X20.167 Y-6.189 Z-1.000 F30.000
G1 X20.358 Y-5.727 Z-1.000 F30.000
G1 X18.510 Y-4.961 Z-1.000 F30.000
G1 X18.319 Y-5.423 Z-1.000 F30.000
G1 X20.167 Y-6.189 Z-1.000 F30.000
G1 X20.167 Y-6.189 Z-1.500 F30.000
G1 X20.358 Y-5.727 Z-1.500 F30.000
G1 X18.510 Y-4.961 Z-1.500 F30.000
G1 X18.319 Y-5.423 Z-1.500 F30.000
G1 X20.167 Y-6.189 Z-1.500 F30.000
G1 X20.167 Y-6.189 Z-2.000 F30.000
G1 X20.358 Y-5.727 Z-2.000 F30.000
G1 X18.510 Y-4.961 Z-2.000 F30.000
G1 X18.319 Y-5.423 Z-2.000 F30.000
G1 X20.167 Y-6.189 Z-2.000 F30.000
G1 X20.167 Y-6.189 Z-2.500 F30.000
G1 X20.358 Y-5.727 Z-2.500 F30.000
G1 X18.510 Y-4.961 Z-2.500 F30.000
G1 X18.319 Y-5.423 Z-2.500 F30.000
G1 X20.167 Y-6.189 Z-2.500 F30.000
G1 X20.167 Y-6.189 Z-3.000 F30.000
G1 X20.358 Y-5.727 Z-3.000 F30.000
G1 X18.510 Y-4.961 Z-3.000 F30.000
G1 X18.319 Y-5.423 Z-3.000 F30.000
G1 X20.167 Y-6.189 Z-3.000 F30.000
G0 Z5.000
G0 Z5.000
G0 X0.000 Y0.000
G0 X21.000 Y-2.500
G0 X21.000 Y-2.500 Z3.000
G1 X21.000 Y-2.500 Z-0.500 F30.000
G1 X21.000 Y-2.000 Z-0.500 F30.000
G1 X19.000 Y-2.000 Z-0.500 F30.000
G1 X19.000 Y-2.500 Z-0.500 F30.000
G1 X21.000 Y-2.500 Z-0.500 F30.000
G1 X21.000 Y-2.500 Z-1.000 F30.000
G1 X21.000 Y-2.000 Z-1.000 F30.000
G1 X19.000 Y-2.000 Z-1.000 F30.000
G1 X19.000 Y-2.500 Z-1.000 F30.000
G1 X21.000 Y-2.500 Z-1.000 F30.000
G1 X21.000 Y-2.500 Z-1.500 F30.000
G1 X21.000 Y-2.000 Z-1.500 F30.000
G1 X19.000 Y-2.000 Z-1.500 F30.000
G1 X19.000 Y-2.500 Z-1.500 F30.000
G1 X21.000 Y-2.500 Z-1.500 F30.000
G1 X21.000 Y-2.500 Z-2.000 F30.000
G1 X21.000 Y-2.000 Z-2.000 F30.000
G1 X19.000 Y-2.000 Z-2.000 F30.000
G1 X19.000 Y-2.500 Z-2.000 F30.000
G1 X21.000 Y-2.500 Z-2.000 F30.000
G1 X21.000 Y-2.500 Z-2.500 F30.000
G1 X21.000 Y-2.000 Z-2.500 F30.000
G1 X19.000 Y-2.000 Z-2.500 F30.000
G1 X19.000 Y-2.500 Z-2.500 F30.000
G1 X21.000 Y-2.500 Z-2.500 F30.000
G1 X21.000 Y-2.500 Z-3.000 F30.000
G1 X21.000 Y-2.000 Z-3.000 F30.000
G1 X19.000 Y-2.000 Z-3.000 F30.000
G1 X19.000 Y-2.500 Z-3.000 F30.000
G1 X21.000 Y-2.500 Z-3.000 F30.000
G0 Z5.000
G0 Z5.000
G0 X0.000 Y0.000
G0 X21.000 Y2.000
G0 X21.000 Y2.000 Z3.000
G1 X21.000 Y2.000 Z-0.500 F30.000
G1 X21.000 Y2.500 Z-0.500 F30.000
G1 X19.000 Y2.500 Z-0.500 F30.000
G1 X19.000 Y2.000 Z-0.500 F30.000
G1 X21.000 Y2.000 Z-0.500 F30.000
G1 X21.000 Y2.000 Z-1.000 F30.000
G1 X21.000 Y2.500 Z-1.000 F30.000
G1 X19.000 Y2.500 Z-1.000 F30.000
G1 X19.000 Y2.000 Z-1.000 F30.000
G1 X21.000 Y2.000 Z-1.000 F30.000
G1 X21.000 Y2.000 Z-1.500 F30.000
G1 X21.000 Y2.500 Z-1.500 F30.000
G1 X19.000 Y2.500 Z-1.500 F30.000
G1 X19.000 Y2.000 Z-1.500 F30.000
G1 X21.000 Y2.000 Z-1.500 F30.000
G1 X21.000 Y2.000 Z-2.000 F30.000
G1 X21.000 Y2.500 Z-2.000 F30.000
G1 X19.000 Y2.500 Z-2.000 F30.000
G1 X19.000 Y2.000 Z-2.000 F30.000
G1 X21.000 Y2.000 Z-2.000 F30.000
G1 X21.000 Y2.000 Z-2.500 F30.000
G1 X21.000 Y2.500 Z-2.500 F30.000
G1 X19.000 Y2.500 Z-2.500 F30.000
G1 X19.000 Y2.000 Z-2.500 F30.000
G1 X21.000 Y2.000 Z-2.500 F30.000
G1 X21.000 Y2.000 Z-3.000 F30.000
G1 X21.000 Y2.500 Z-3.000 F30.000
G1 X19.000 Y2.500 Z-3.000 F30.000
G1 X19.000 Y2.000 Z-3.000 F30.000
G1 X21.000 Y2.000 Z-3.000 F30.000
G0 Z5.000
G0 Z5.000
G0 X0.000 Y0.000
G0 X18.510 Y4.961
G0 X18.510 Y4.961 Z3.000
G1 X18.510 Y4.961 Z-0.500 F30.000
G1 X20.358 Y5.727 Z-0.500 F30.000
G1 X20.167 Y6.189 Z-0.500 F30.000
G1 X18.319 Y5.423 Z-0.500 F30.000
G1 X18.510 Y4.961 Z-0.500 F30.000
G1 X18.510 Y4.961 Z-1.000 F30.000
G1 X20.358 Y5.727 Z-1.000 F30.000
G1 X20.167 Y6.189 Z-1.000 F30.000
G1 X18.319 Y5.423 Z-1.000 F30.000
G1 X18.510 Y4.961 Z-1.000 F30.000
G1 X18.510 Y4.961 Z-1.500 F30.000
G1 X20.358 Y5.727 Z-1.500 F30.000
G1 X20.167 Y6.189 Z-1.500 F30.000
G1 X18.319 Y5.423 Z-1.500 F30.000
G1 X18.510 Y4.961 Z-1.500 F30.000
G1 X18.510 Y4.961 Z-2.000 F30.000
G1 X20.358 Y5.727 Z-2.000 F30.000
G1 X20.167 Y6.189 Z-2.000 F30.000
G1 X18.319 Y5.423 Z-2.000 F30.000
G1 X18.510 Y4.961 Z-2.000 F30.000
G1 X18.510 Y4.961 Z-2.500 F30.000
G1 X20.358 Y5.727 Z-2.500 F30.000
G1 X20.167 Y6.189 Z-2.500 F30.000
G1 X18.319 Y5.423 Z-2.500 F30.000
G1 X18.510 Y4.961 Z-2.500 F30.000
G1 X18.510 Y4.961 Z-3.000 F30.000
G1 X20.358 Y5.727 Z-3.000 F30.000
G1 X20.167 Y6.189 Z-3.000 F30.000
G1 X18.319 Y5.423 Z-3.000 F30.000
G1 X18.510 Y4.961 Z-3.000 F30.000
G0 Z5.000
G0 Z5.000
G0 X0.000 Y0.000
G0 X16.788 Y9.119
G0 X16.788 Y9.119 Z3.000
G1 X16.788 Y9.119 Z-0.500 F30.000
G1 X18.636 Y9.884 Z-0.500 F30.000
G1 X18.445 Y10.346 Z-0.500 F30.000
G1 X16.597 Y9.581 Z-0.500 F30.000
G1 X16.788 Y9.119 Z-0.500 F30.000
G1 X16.788 Y9.119 Z-1.000 F30.000
G1 X18.636 Y9.884 Z-1.000 F30.000
G1 X18.445 Y10.346 Z-1.000 F30.000
G1 X16.597 Y9.581 Z-1.000 F30.000
G1 X16.788 Y9.119 Z-1.000 F30.000
G1 X16.788 Y9.119 Z-1.500 F30.000
G1 X18.636 Y9.884 Z-1.500 F30.000
G1 X18.445 Y10.346 Z-1.500 F30.000
G1 X16.597 Y9.581 Z-1.500 F30.000
G1 X16.788 Y9.119 Z-1.500 F30.000
G1 X16.788 Y9.119 Z-2.000 F30.000
G1 X18.636 Y9.884 Z-2.000 F30.000
G1 X18.445 Y10.346 Z-2.000 F30.000
G1 X16.597 Y9.581 Z-2.000 F30.000
G1 X16.788 Y9.119 Z-2.000 F30.000
G1 X16.788 Y9.119 Z-2.500 F30.000
G1 X18.636 Y9.884 Z-2.500 F30.000
G1 X18.445 Y10.346 Z-2.500 F30.000
G1 X16.597 Y9.581 Z-2.500 F30.000
G1 X16.788 Y9.119 Z-2.500 F30.000
G1 X16.788 Y9.119 Z-3.000 F30.000
G1 X18.636 Y9.884 Z-3.000 F30.000
G1 X18.445 Y10.346 Z-3.000 F30.000
G1 X16.597 Y9.581 Z-3.000 F30.000
G1 X16.788 Y9.119 Z-3.000 F30.000
G0 Z5.000
G0 Z5.000
G0 X0.000 Y0.000
G0 X15.203 Y11.667
G0 X15.203 Y11.667 Z3.000
G1 X15.203 Y11.667 Z-0.500 F30.000
G1 X16.617 Y13.081 Z-0.500 F30.000
G1 X16.263 Y13.435 Z-0.500 F30.000
G1 X14.849 Y12.021 Z-0.500 F30.000
G1 X15.203 Y11.667 Z-0.500 F30.000
G1 X15.203 Y11.667 Z-1.000 F30.000
G1 X16.617 Y13.081 Z-1.000 F30.000
G1 X16.263 Y13.435 Z-1.000 F30.000
G1 X14.849 Y12.021 Z-1.000 F30.000
G1 X15.203 Y11.667 Z-1.000 F30.000
G1 X15.203 Y11.667 Z-1.500 F30.000
G1 X16.617 Y13.081 Z-1.500 F30.000
G1 X16.263 Y13.435 Z-1.500 F30.000
G1 X14.849 Y12.021 Z-1.500 F30.000
G1 X15.203 Y11.667 Z-1.500 F30.000
G1 X15.203 Y11.667 Z-2.000 F30.000
G1 X16.617 Y13.081 Z-2.000 F30.000
G1 X16.263 Y13.435 Z-2.000 F30.000
G1 X14.849 Y12.021 Z-2.000 F30.000
G1 X15.203 Y11.667 Z-2.000 F30.000
G1 X15.203 Y11.667 Z-2.500 F30.000
G1 X16.617 Y13.081 Z-2.500 F30.000
G1 X16.263 Y13.435 Z-2.500 F30.000
G1 X14.849 Y12.021 Z-2.500 F30.000
G1 X15.203 Y11.667 Z-2.500 F30.000
G1 X15.203 Y11.667 Z-3.000 F30.000
G1 X16.617 Y13.081 Z-3.000 F30.000
G1 X16.263 Y13.435 Z-3.000 F30.000
G1 X14.849 Y12.021 Z-3.000 F30.000
G1 X15.203 Y11.667 Z-3.000 F30.000
G0 Z5.000
G0 Z5.000
G0 X0.000 Y0.000
G0 X12.021 Y14.849
G0 X12.021 Y14.849 Z3.000
G1 X12.021 Y14.849 Z-0.500 F30.000
G1 X13.435 Y16.263 Z-0.500 F30.000
G1 X13.081 Y16.617 Z-0.500 F30.000
G1 X11.667 Y15.203 Z-0.500 F30.000
G1 X12.021 Y14.849 Z-0.500 F30.000
G1 X12.021 Y14.849 Z-1.000 F30.000
G1 X13.435 Y16.263 Z-1.000 F30.000
G1 X13.081 Y16.617 Z-1.000 F30.000
G1 X11.667 Y15.203 Z-1.000 F30.000
G1 X12.021 Y14.849 Z-1.000 F30.000
G1 X12.021 Y14.849 Z-1.500 F30.000
G1 X13.435 Y16.263 Z-1.500 F30.000
G1 X13.081 Y16.617 Z-1.500 F30.000
G1 X11.667 Y15.203 Z-1.500 F30.000
G1 X12.021 Y14.849 Z-1.500 F30.000
G1 X12.021 Y14.849 Z-2.000 F30.000
G1 X13.435 Y16.263 Z-2.000 F30.000
G1 X13.081 Y16.617 Z-2.000 F30.000
G1 X11.667 Y15.203 Z-2.000 F30.000
G1 X12.021 Y14.849 Z-2.000 F30.000
G1 X12.021 Y14.849 Z-2.500 F30.000
G1 X13.435 Y16.263 Z-2.500 F30.000
G1 X13.081 Y16.617 Z-2.500 F30.000
G1 X11.667 Y15.203 Z-2.500 F30.000
G1 X12.021 Y14.849 Z-2.500 F30.000
G1 X12.021 Y14.849 Z-3.000 F30.000
G1 X13.435 Y16.263 Z-3.000 F30.000
G1 X13.081 Y16.617 Z-3.000 F30.000
G1 X11.667 Y15.203 Z-3.000 F30.000
G1 X12.021 Y14.849 Z-3.000 F30.000
G0 Z5.000
G0 Z5.000
G0 X0.000 Y0.000
G0 X9.581 Y16.597
G0 X9.581 Y16.597 Z3.000
G1 X9.581 Y16.597 Z-0.500 F30.000
G1 X10.346 Y18.445 Z-0.500 F30.000
G1 X9.884 Y18.636 Z-0.500 F30.000
G1 X9.119 Y16.788 Z-0.500 F30.000
G1 X9.581 Y16.597 Z-0.500 F30.000
G1 X9.581 Y16.597 Z-1.000 F30.000
G1 X10.346 Y18.445 Z-1.000 F30.000
G1 X9.884 Y18.636 Z-1.000 F30.000
G1 X9.119 Y16.788 Z-1.000 F30.000
G1 X9.581 Y16.597 Z-1.000 F30.000
G1 X9.581 Y16.597 Z-1.500 F30.000
G1 X10.346 Y18.445 Z-1.500 F30.000
G1 X9.884 Y18.636 Z-1.500 F30.000
G1 X9.119 Y16.788 Z-1.500 F30.000
G1 X9.581 Y16.597 Z-1.500 F30.000
G1 X9.581 Y16.597 Z-2.000 F30.000
G1 X10.346 Y18.445 Z-2.000 F30.000
G1 X9.884 Y18.636 Z-2.000 F30.000
G1 X9.119 Y16.788 Z-2.000 F30.000
G1 X9.581 Y16.597 Z-2.000 F30.000
G1 X9.581 Y16.597 Z-2.500 F30.000
G1 X10.346 Y18.445 Z-2.500 F30.000
G1 X9.884 Y18.636 Z-2.500 F30.000
G1 X9.119 Y16.788 Z-2.500 F30.000
G1 X9.581 Y16.597 Z-2.500 F30.000
G1 X9.581 Y16.597 Z-3.000 F30.000
G1 X10.346 Y18.445 Z-3.000 F30.000
G1 X9.884 Y18.636 Z-3.000 F30.000
G1 X9.119 Y16.788 Z-3.000 F30.000
G1 X9.581 Y16.597 Z-3.000 F30.000
G0 Z5.000
G0 Z5.000
G0 X0.000 Y0.000
G0 X5.423 Y18.319
G0 X5.423 Y18.319 Z3.000
G1 X5.423 Y18.319 Z-0.500 F30.000
G1 X6.189 Y20.167 Z-0.500 F30.000
G1 X5.727 Y20.358 Z-0.500 F30.000
G1 X4.961 Y18.510 Z-0.500 F30.000
G1 X5.423 Y18.319 Z-0.500 F30.000
G1 X5.423 Y18.319 Z-1.000 F30.000
G1 X6.189 Y20.167 Z-1.000 F30.000
G1 X5.727 Y20.358 Z-1.000 F30.000
G1 X4.961 Y18.510 Z-1.000 F30.000
G1 X5.423 Y18.319 Z-1.000 F30.000
G1 X5.423 Y18.319 Z-1.500 F30.000
G1 X6.189 Y20.167 Z-1.500 F30.000
G1 X5.727 Y20.358 Z-1.500 F30.000
G1 X4.961 Y18.510 Z-1.500 F30.000
G1 X5.423 Y18.319 Z-1.500 F30.000
G1 X5.423 Y18.319 Z-2.000 F30.000
G1 X6.189 Y20.167 Z-2.000 F30.000
G1 X5.727 Y20.358 Z-2.000 F30.000
G1 X4.961 Y18.510 Z-2.000 F30.000
G1 X5.423 Y18.319 Z-2.000 F30.000
G1 X5.423 Y18.319 Z-2.500 F30.000
G1 X6.189 Y20.167 Z-2.500 F30.000
G1 X5.727 Y20.358 Z-2.500 F30.000
G1 X4.961 Y18.510 Z-2.500 F30.000
G1 X5.423 Y18.319 Z-2.500 F30.000
G1 X5.423 Y18.319 Z-3.000 F30.000
G1 X6.189 Y20.167 Z-3.000 F30.000
G1 X5.727 Y20.358 Z-3.000 F30.000
G1 X4.961 Y18.510 Z-3.000 F30.000
G1 X5.423 Y18.319 Z-3.000 F30.000
G0 Z5.000
G0 Z5.000
G0 X0.000 Y0.000
G0 X2.500 Y19.000
G0 X2.500 Y19.000 Z3.000
G1 X2.500 Y19.000 Z-0.500 F30.000
G1 X2.500 Y21.000 Z-0.500 F30.000
G1 X2.000 Y21.000 Z-0.500 F30.000
G1 X2.000 Y19.000 Z-0.500 F30.000
G1 X2.500 Y19.000 Z-0.500 F30.000
G1 X2.500 Y19.000 Z-1.000 F30.000
G1 X2.500 Y21.000 Z-1.000 F30.000
G1 X2.000 Y21.000 Z-1.000 F30.000
G1 X2.000 Y19.000 Z-1.000 F30.000
G1 X2.500 Y19.000 Z-1.000 F30.000
G1 X2.500 Y19.000 Z-1.500 F30.000
G1 X2.500 Y21.000 Z-1.500 F30.000
G1 X2.000 Y21.000 Z-1.500 F30.000
G1 X2.000 Y19.000 Z-1.500 F30.000
G1 X2.500 Y19.000 Z-1.500 F30.000
G1 X2.500 Y19.000 Z-2.000 F30.000
G1 X2.500 Y21.000 Z-2.000 F30.000
G1 X2.000 Y21.000 Z-2.000 F30.000
G1 X2.000 Y19.000 Z-2.000 F30.000
G1 X2.500 Y19.000 Z-2.000 F30.000
G1 X2.500 Y19.000 Z-2.500 F30.000
G1 X2.500 Y21.000 Z-2.500 F30.000
G1 X2.000 Y21.000 Z-2.500 F30.000
G1 X2.000 Y19.000 Z-2.500 F30.000
G1 X2.500 Y19.000 Z-2.500 F30.000
G1 X2.500 Y19.000 Z-3.000 F30.000
G1 X2.500 Y21.000 Z-3.000 F30.000
G1 X2.000 Y21.000 Z-3.000 F30.000
G1 X2.000 Y19.000 Z-3.000 F30.000
G1 X2.500 Y19.000 Z-3.000 F30.000
G0 Z5.000
G0 Z5.000
G0 X0.000 Y0.000
G0 X-2.000 Y19.000
G0 X-2.000 Y19.000 Z3.000
G1 X-2.000 Y19.000 Z-0.500 F30.000
G1 X-2.000 Y21.000 Z-0.500 F30.000
G1 X-2.500 Y21.000 Z-0.500 F30.000
G1 X-2.500 Y19.000 Z-0.500 F30.000
G1 X-2.000 Y19.000 Z-0.500 F30.000
G1 X-2.000 Y19.000 Z-1.000 F30.000
G1 X-2.000 Y21.000 Z-1.000 F30.000
G1 X-2.500 Y21.000 Z-1.000 F30.000
G1 X-2.500 Y19.000 Z-1.000 F30.000
G1 X-2.000 Y19.000 Z-1.000 F30.000
G1 X-2.000 Y19.000 Z-1.500 F30.000
G1 X-2.000 Y21.000 Z-1.500 F30.000
G1 X-2.500 Y21.000 Z-1.500 F30.000
G1 X-2.500 Y19.000 Z-1.500 F30.000
G1 X-2.000 Y19.000 Z-1.500 F30.000
G1 X-2.000 Y19.000 Z-2.000 F30.000
G1 X-2.000 Y21.000 Z-2.000 F30.000
G1 X-2.500 Y21.000 Z-2.000 F30.000
G1 X-2.500 Y19.000 Z-2.000 F30.000
G1 X-2.000 Y19.000 Z-2.000 F30.000
G1 X-2.000 Y19.000 Z-2.500 F30.000
G1 X-2.000 Y21.000 Z-2.500 F30.000
G1 X-2.500 Y21.000 Z-2.500 F30.000
G1 X-2.500 Y19.000 Z-2.500 F30.000
G1 X-2.000 Y19.000 Z-2.500 F30.000
G1 X-2.000 Y19.000 Z-3.000 F30.000
G1 X-2.000 Y21.000 Z-3.000 F30.000
G1 X-2.500 Y21.000 Z-3.000 F30.000
G1 X-2.500 Y19.000 Z-3.000 F30.000
G1 X-2.000 Y19.000 Z-3.000 F30.000
G0 Z5.000
G0 Z5.000
G0 X0.000 Y0.000
G0 X-5.423 Y18.319
G0 X-5.423 Y18.319 Z3.000
G1 X-5.423 Y18.319 Z-0.500 F30.000
G1 X-4.961 Y18.510 Z-0.500 F30.000
G1 X-5.727 Y20.358 Z-0.500 F30.000
G1 X-6.189 Y20.167 Z-0.500 F30.000
G1 X-5.423 Y18.319 Z-0.500 F30.000
G1 X-5.423 Y18.319 Z-1.000 F30.000
G1 X-4.961 Y18.510 Z-1.000 F30.000
G1 X-5.727 Y20.358 Z-1.000 F30.000
G1 X-6.189 Y20.167 Z-1.000 F30.000
G1 X-5.423 Y18.319 Z-1.000 F30.000
G1 X-5.423 Y18.319 Z-1.500 F30.000
G1 X-4.961 Y18.510 Z-1.500 F30.000
G1 X-5.727 Y20.358 Z-1.500 F30.000
G1 X-6.189 Y20.167 Z-1.500 F30.000
G1 X-5.423 Y18.319 Z-1.500 F30.000
G1 X-5.423 Y18.319 Z-2.000 F30.000
G1 X-4.961 Y18.510 Z-2.000 F30.000
G1 X-5.727 Y20.358 Z-2.000 F30.000
G1 X-6.189 Y20.167 Z-2.000 F30.000
G1 X-5.423 Y18.319 Z-2.000 F30.000
G1 X-5.423 Y18.319 Z-2.500 F30.000
G1 X-4.961 Y18.510 Z-2.500 F30.000
G1 X-5.727 Y20.358 Z-2.500 F30.000
G1 X-6.189 Y20.167 Z-2.500 F30.000
G1 X-5.423 Y18.319 Z-2.500 F30.000
G1 X-5.423 Y18.319 Z-3.000 F30.000
G1 X-4.961 Y18.510 Z-3.000 F30.000
G1 X-5.727 Y20.358 Z-3.000 F30.000
G1 X-6.189 Y20.167 Z-3.000 F30.000
G1 X-5.423 Y18.319 Z-3.000 F30.000
G0 Z5.000
G0 Z5.000
G0 X0.000 Y0.000
G0 X-9.581 Y16.597
G0 X-9.581 Y16.597 Z3.000
G1 X-9.581 Y16.597 Z-0.500 F30.000
G1 X-9.119 Y16.788 Z-0.500 F30.000
G1 X-9.884 Y18.636 Z-0.500 F30.000
G1 X-10.346 Y18.445 Z-0.500 F30.000
G1 X-9.581 Y16.597 Z-0.500 F30.000
G1 X-9.581 Y16.597 Z-1.000 F30.000
G1 X-9.119 Y16.788 Z-1.000 F30.000
G1 X-9.884 Y18.636 Z-1.000 F30.000
G1 X-10.346 Y18.445 Z-1.000 F30.000
G1 X-9.581 Y16.597 Z-1.000 F30.000
G1 X-9.581 Y16.597 Z-1.500 F30.000
G1 X-9.119 Y16.788 Z-1.500 F30.000
G1 X-9.884 Y18.636 Z-1.500 F30.000
G1 X-10.346 Y18.445 Z-1.500 F30.000
G1 X-9.581 Y16.597 Z-1.500 F30.000
G1 X-9.581 Y16.597 Z-2.000 F30.000
G1 X-9.119 Y16.788 Z-2.000 F30.000
G1 X-9.884 Y18.636 Z-2.000 F30.000
G1 X-10.346 Y18.445 Z-2.000 F30.000
G1 X-9.581 Y16.597 Z-2.000 F30.000
G1 X-9.581 Y16.597 Z-2.500 F30.000
G1 X-9.119 Y16.788 Z-2.500 F30.000
G1 X-9.884 Y18.636 Z-2.500 F30.000
G1 X-10.346 Y18.445 Z-2.500 F30.000
G1 X-9.581 Y16.597 Z-2.500 F30.000
G1 X-9.581 Y16.597 Z-3.000 F30.000
G1 X-9.119 Y16.788 Z-3.000 F30.000
G1 X-9.884 Y18.636 Z-3.000 F30.000
G1 X-10.346 Y18.445 Z-3.000 F30.000
G1 X-9.581 Y16.597 Z-3.000 F30.000
G0 Z5.000
G0 Z5.000
G0 X0.000 Y0.000
G0 X-12.021 Y14.849
G0 X-12.021 Y14.849 Z3.000
G1 X-12.021 Y14.849 Z-0.500 F30.000
G1 X-11.667 Y15.203 Z-0.500 F30.000
G1 X-13.081 Y16.617 Z-0.500 F30.000
G1 X-13.435 Y16.263 Z-0.500 F30.000
G1 X-12.021 Y14.849 Z-0.500 F30.000
G1 X-12.021 Y14.849 Z-1.000 F30.000
G1 X-11.667 Y15.203 Z-1.000 F30.000
G1 X-13.081 Y16.617 Z-1.000 F30.000
G1 X-13.435 Y16.263 Z-1.000 F30.000
G1 X-12.021 Y14.849 Z-1.000 F30.000
G1 X-12.021 Y14.849 Z-1.500 F30.000
G1 X-11.667 Y15.203 Z-1.500 F30.000
G1 X-13.081 Y16.617 Z-1.500 F30.000
G1 X-13.435 Y16.263 Z-1.500 F30.000
G1 X-12.021 Y14.849 Z-1.500 F30.000
G1 X-12.021 Y14.849 Z-2.000 F30.000
G1 X-11.667 Y15.203 Z-2.000 F30.000
G1 X-13.081 Y16.617 Z-2.000 F30.000
G1 X-13.435 Y16.263 Z-2.000 F30.000
G1 X-12.021 Y14.849 Z-2.000 F30.000
G1 X-12.021 Y14.849 Z-2.500 F30.000
G1 X-11.667 Y15.203 Z-2.500 F30.000
G1 X-13.081 Y16.617 Z-2.500 F30.000
G1 X-13.435 Y16.263 Z-2.500 F30.000
G1 X-12.021 Y14.849 Z-2.500 F30.000
G1 X-12.021 Y14.849 Z-3.000 F30.000
G1 X-11.667 Y15.203 Z-3.000 F30.000
G1 X-13.081 Y16.617 Z-3.000 F30.000
G1 X-13.435 Y16.263 Z-3.000 F30.000
G1 X-12.021 Y14.849 Z-3.000 F30.000
G0 Z5.000
G0 Z5.000
G0 X0.000 Y0.000
G0 X-15.203 Y11.667
G0 X-15.203 Y11.667 Z3.000
G1 X-15.203 Y11.667 Z-0.500 F30.000
G1 X-14.849 Y12.021 Z-0.500 F30.000
G1 X-16.263 Y13.435 Z-0.500 F30.000
G1 X-16.617 Y13.081 Z-0.500 F30.000
G1 X-15.203 Y11.667 Z-0.500 F30.000
G1 X-15.203 Y11.667 Z-1.000 F30.000
G1 X-14.849 Y12.021 Z-1.000 F30.000
G1 X-16.263 Y13.435 Z-1.000 F30.000
G1 X-16.617 Y13.081 Z-1.000 F30.000
G1 X-15.203 Y11.667 Z-1.000 F30.000
G1 X-15.203 Y11.667 Z-1.500 F30.000
G1 X-14.849 Y12.021 Z-1.500 F30.000
G1 X-16.263 Y13.435 Z-1.500 F30.000
G1 X-16.617 Y13.081 Z-1.500 F30.000
G1 X-15.203 Y11.667 Z-1.500 F30.000
G1 X-15.203 Y11.667 Z-2.000 F30.000
G1 X-14.849 Y12.021 Z-2.000 F30.000
G1 X-16.263 Y13.435 Z-2.000 F30.000
G1 X-16.617 Y13.081 Z-2.000 F30.000
G1 X-15.203 Y11.667 Z-2.000 F30.000
G1 X-15.203 Y11.667 Z-2.500 F30.000
G1 X-14.849 Y12.021 Z-2.500 F30.000
G1 X-16.263 Y13.435 Z-2.500 F30.000
G1 X-16.617 Y13.081 Z-2.500 F30.000
G1 X-15.203 Y11.667 Z-2.500 F30.000
G1 X-15.203 Y11.667 Z-3.000 F30.000
G1 X-14.849 Y12.021 Z-3.000 F30.000
G1 X-16.263 Y13.435 Z-3.000 F30.000
G1 X-16.617 Y13.081 Z-3.000 F30.000
G1 X-15.203 Y11.667 Z-3.000 F30.000
G0 Z5.000
G0 Z5.000
G0 X0.000 Y0.000
G0 X-16.788 Y9.119
G0 X-16.788 Y9.119 Z3.000
G1 X-16.788 Y9.119 Z-0.500 F30.000
G1 X-16.597 Y9.581 Z-0.500 F30.000
G1 X-18.445 Y10.346 Z-0.500 F30.000
G1 X-18.636 Y9.884 Z-0.500 F30.000
G1 X-16.788 Y9.119 Z-0.500 F30.000
G1 X-16.788 Y9.119 Z-1.000 F30.000
G1 X-16.597 Y9.581 Z-1.000 F30.000
G1 X-18.445 Y10.346 Z-1.000 F30.000
G1 X-18.636 Y9.884 Z-1.000 F30.000
G1 X-16.788 Y9.119 Z-1.000 F30.000
G1 X-16.788 Y9.119 Z-1.500 F30.000
G1 X-16.597 Y9.581 Z-1.500 F30.000
G1 X-18.445 Y10.346 Z-1.500 F30.000
G1 X-18.636 Y9.884 Z-1.500 F30.000
G1 X-16.788 Y9.119 Z-1.500 F30.000
G1 X-16.788 Y9.119 Z-2.000 F30.000
G1 X-16.597 Y9.581 Z-2.000 F30.000
G1 X-18.445 Y10.346 Z-2.000 F30.000
G1 X-18.636 Y9.884 Z-2.000 F30.000
G1 X-16.788 Y9.119 Z-2.000 F30.000
G1 X-16.788 Y9.119 Z-2.500 F30.000
G1 X-16.597 Y9.581 Z-2.500 F30.000
G1 X-18.445 Y10.346 Z-2.500 F30.000
G1 X-18.636 Y9.884 Z-2.500 F30.000
G1 X-16.788 Y9.119 Z-2.500 F30.000
G1 X-16.788 Y9.119 Z-3.000 F30.000
G1 X-16.597 Y9.581 Z-3.000 F30.000
G1 X-18.445 Y10.346 Z-3.000 F30.000
G1 X-18.636 Y9.884 Z-3.000 F30.000
G1 X-16.788 Y9.119 Z-3.000 F30.000
G0 Z5.000
G0 Z5.000
G0 X0.000 Y0.000
G0 X-18.510 Y4.961
G0 X-18.510 Y4.961 Z3.000
G1 X-18.510 Y4.961 Z-0.500 F30.000
G1 X-18.319 Y5.423 Z-0.500 F30.000
G1 X-20.167 Y6.189 Z-0.500 F30.000
G1 X-20.358 Y5.727 Z-0.500 F30.000
G1 X-18.510 Y4.961 Z-0.500 F30.000
G1 X-18.510 Y4.961 Z-1.000 F30.000
G1 X-18.319 Y5.423 Z-1.000 F30.000
G1 X-20.167 Y6.189 Z-1.000 F30.000
G1 X-20.358 Y5.727 Z-1.000 F30.000
G1 X-18.510 Y4.961 Z-1.000 F30.000
G1 X-18.510 Y4.961 Z-1.500 F30.000
G1 X-18.319 Y5.423 Z-1.500 F30.000
G1 X-20.167 Y6.189 Z-1.500 F30.000
G1 X-20.358 Y5.727 Z-1.500 F30.000
G1 X-18.510 Y4.961 Z-1.500 F30.000
G1 X-18.510 Y4.961 Z-2.000 F30.000
G1 X-18.319 Y5.423 Z-2.000 F30.000
G1 X-20.167 Y6.189 Z-2.000 F30.000
G1 X-20.358 Y5.727 Z-2.000 F30.000
G1 X-18.510 Y4.961 Z-2.000 F30.000
G1 X-18.510 Y4.961 Z-2.500 F30.000
G1 X-18.319 Y5.423 Z-2.500 F30.000
G1 X-20.167 Y6.189 Z-2.500 F30.000
G1 X-20.358 Y5.727 Z-2.500 F30.000
G1 X-18.510 Y4.961 Z-2.500 F30.000
G1 X-18.510 Y4.961 Z-3.000 F30.000
G1 X-18.319 Y5.423 Z-3.000 F30.000
G1 X-20.167 Y6.189 Z-3.000 F30.000
G1 X-20.358 Y5.727 Z-3.000 F30.000
G1 X-18.510 Y4.961 Z-3.000 F30.000
G0 Z5.000
G0 Z5.000
G0 X0.000 Y0.000
G0 X-19.000 Y2.000
G0 X-19.000 Y2.000 Z3.000
G1 X-19.000 Y2.000 Z-0.500 F30.000
G1 X-19.000 Y2.500 Z-0.500 F30.000
G1 X-21.000 Y2.500 Z-0.500 F30.000
G1 X-21.000 Y2.000 Z-0.500 F30.000
G1 X-19.000 Y2.000 Z-0.500 F30.000
G1 X-19.000 Y2.000 Z-1.000 F30.000
G1 X-19.000 Y2.500 Z-1.000 F30.000
G1 X-21.000 Y2.500 Z-1.000 F30.000
G1 X-21.000 Y2.000 Z-1.000 F30.000
G1 X-19.000 Y2.000 Z-1.000 F30.000
G1 X-19.000 Y2.000 Z-1.500 F30.000
G1 X-19.000 Y2.500 Z-1.500 F30.000
G1 X-21.000 Y2.500 Z-1.500 F30.000
G1 X-21.000 Y2.000 Z-1.500 F30.000
G1 X-19.000 Y2.000 Z-1.500 F30.000
G1 X-19.000 Y2.000 Z-2.000 F30.000
G1 X-19.000 Y2.500 Z-2.000 F30.000
G1 X-21.000 Y2.500 Z-2.000 F30.000
G1 X-21.000 Y2.000 Z-2.000 F30.000
G1 X-19.000 Y2.000 Z-2.000 F30.000
G1 X-19.000 Y2.000 Z-2.500 F30.000
G1 X-19.000 Y2.500 Z-2.500 F30.000
G1 X-21.000 Y2.500 Z-2.500 F30.000
G1 X-21.000 Y2.000 Z-2.500 F30.000
G1 X-19.000 Y2.000 Z-2.500 F30.000
G1 X-19.000 Y2.000 Z-3.000 F30.000
G1 X-19.000 Y2.500 Z-3.000 F30.000
G1 X-21.000 Y2.500 Z-3.000 F30.000
G1 X-21.000 Y2.000 Z-3.000 F30.000
G1 X-19.000 Y2.000 Z-3.000 F30.000
G0 Z5.000
G0 Z5.000
G0 X0.000 Y0.000
G0 X-19.000 Y-2.500
G0 X-19.000 Y-2.500 Z3.000
G1 X-19.000 Y-2.500 Z-0.500 F30.000
G1 X-19.000 Y-2.000 Z-0.500 F30.000
G1 X-21.000 Y-2.000 Z-0.500 F30.000
G1 X-21.000 Y-2.500 Z-0.500 F30.000
G1 X-19.000 Y-2.500 Z-0.500 F30.000
G1 X-19.000 Y-2.500 Z-1.000 F30.000
G1 X-19.000 Y-2.000 Z-1.000 F30.000
G1 X-21.000 Y-2.000 Z-1.000 F30.000
G1 X-21.000 Y-2.500 Z-1.000 F30.000
G1 X-19.000 Y-2.500 Z-1.000 F30.000
G1 X-19.000 Y-2.500 Z-1.500 F30.000
G1 X-19.000 Y-2.000 Z-1.500 F30.000
G1 X-21.000 Y-2.000 Z-1.500 F30.000
G1 X-21.000 Y-2.500 Z-1.500 F30.000
G1 X-19.000 Y-2.500 Z-1.500 F30.000
G1 X-19.000 Y-2.500 Z-2.000 F30.000
G1 X-19.000 Y-2.000 Z-2.000 F30.000
G1 X-21.000 Y-2.000 Z-2.000 F30.000
G1 X-21.000 Y-2.500 Z-2.000 F30.000
G1 X-19.000 Y-2.500 Z-2.000 F30.000
G1 X-19.000 Y-2.500 Z-2.500 F30.000
G1 X-19.000 Y-2.000 Z-2.500 F30.000
G1 X-21.000 Y-2.000 Z-2.500 F30.000
G1 X-21.000 Y-2.500 Z-2.500 F30.000
G1 X-19.000 Y-2.500 Z-2.500 F30.000
G1 X-19.000 Y-2.500 Z-3.000 F30.000
G1 X-19.000 Y-2.000 Z-3.000 F30.000
G1 X-21.000 Y-2.000 Z-3.000 F30.000
G1 X-21.000 Y-2.500 Z-3.000 F30.000
G1 X-19.000 Y-2.500 Z-3.000 F30.000
G0 Z5.000
G0 Z5.000
G0 X0.000 Y0.000
G0 X-20.167 Y-6.189
G0 X-20.167 Y-6.189 Z3.000
G1 X-20.167 Y-6.189 Z-0.500 F30.000
G1 X-18.319 Y-5.423 Z-0.500 F30.000
G1 X-18.510 Y-4.961 Z-0.500 F30.000
G1 X-20.358 Y-5.727 Z-0.500 F30.000
G1 X-20.167 Y-6.189 Z-0.500 F30.000
G1 X-20.167 Y-6.189 Z-1.000 F30.000
G1 X-18.319 Y-5.423 Z-1.000 F30.000
G1 X-18.510 Y-4.961 Z-1.000 F30.000
G1 X-20.358 Y-5.727 Z-1.000 F30.000
G1 X-20.167 Y-6.189 Z-1.000 F30.000
G1 X-20.167 Y-6.189 Z-1.500 F30.000
G1 X-18.319 Y-5.423 Z-1.500 F30.000
G1 X-18.510 Y-4.961 Z-1.500 F30.000
G1 X-20.358 Y-5.727 Z-1.500 F30.000
G1 X-20.167 Y-6.189 Z-1.500 F30.000
G1 X-20.167 Y-6.189 Z-2.000 F30.000
G1 X-18.319 Y-5.423 Z-2.000 F30.000
G1 X-18.510 Y-4.961 Z-2.000 F30.000
G1 X-20.358 Y-5.727 Z-2.000 F30.000
G1 X-20.167 Y-6.189 Z-2.000 F30.000
G1 X-20.167 Y-6.189 Z-2.500 F30.000
G1 X-18.319 Y-5.423 Z-2.500 F30.000
G1 X-18.510 Y-4.961 Z-2.500 F30.000
G1 X-20.358 Y-5.727 Z-2.500 F30.000
G1 X-20.167 Y-6.189 Z-2.500 F30.000
G1 X-20.167 Y-6.189 Z-3.000 F30.000
G1 X-18.319 Y-5.423 Z-3.000 F30.000
G1 X-18.510 Y-4.961 Z-3.000 F30.000
G1 X-20.358 Y-5.727 Z-3.000 F30.000
G1 X-20.167 Y-6.189 Z-3.000 F30.000
G0 Z5.000
G0 Z5.000
G0 X0.000 Y0.000
G0 X-18.445 Y-10.346
G0 X-18.445 Y-10.346 Z3.000
G1 X-18.445 Y-10.346 Z-0.500 F30.000
G1 X-16.597 Y-9.581 Z-0.500 F30.000
G1 X-16.788 Y-9.119 Z-0.500 F30.000
G1 X-18.636 Y-9.884 Z-0.500 F30.000
G1 X-18.445 Y-10.346 Z-0.500 F30.000
G1 X-18.445 Y-10.346 Z-1.000 F30.000
G1 X-16.597 Y-9.581 Z-1.000 F30.000
G1 X-16.788 Y-9.119 Z-1.000 F30.000
G1 X-18.636 Y-9.884 Z-1.000 F30.000
G1 X-18.445 Y-10.346 Z-1.000 F30.000
G1 X-18.445 Y-10.346 Z-1.500 F30.000
G1 X-16.597 Y-9.581 Z-1.500 F30.000
G1 X-16.788 Y-9.119 Z-1.500 F30.000
G1 X-18.636 Y-9.884 Z-1.500 F30.000
G1 X-18.445 Y-10.346 Z-1.500 F30.000
G1 X-18.445 Y-10.346 Z-2.000 F30.000
G1 X-16.597 Y-9.581 Z-2.000 F30.000
G1 X-16.788 Y-9.119 Z-2.000 F30.000
G1 X-18.636 Y-9.884 Z-2.000 F30.000
G1 X-18.445 Y-10.346 Z-2.000 F30.000
G1 X-18.445 Y-10.346 Z-2.500 F30.000
G1 X-16.597 Y-9.581 Z-2.500 F30.000
G1 X-16.788 Y-9.119 Z-2.500 F30.000
G1 X-18.636 Y-9.884 Z-2.500 F30.000
G1 X-18.445 Y-10.346 Z-2.500 F30.000
G1 X-18.445 Y-10.346 Z-3.000 F30.000
G1 X-16.597 Y-9.581 Z-3.000 F30.000
G1 X-16.788 Y-9.119 Z-3.000 F30.000
G1 X-18.636 Y-9.884 Z-3.000 F30.000
G1 X-18.445 Y-10.346 Z-3.000 F30.000
G0 Z5.000
G0 Z5.000
G0 X0.000 Y0.000
G0 X-16.263 Y-13.435
G0 X-16.263 Y-13.435 Z3.000
G1 X-16.263 Y-13.435 Z-0.500 F30.000
G1 X-14.849 Y-12.021 Z-0.500 F30.000
G1 X-15.203 Y-11.667 Z-0.500 F30.000
G1 X-16.617 Y-13.081 Z-0.500 F30.000
G1 X-16.263 Y-13.435 Z-0.500 F30.000
G1 X-16.263 Y-13.435 Z-1.000 F30.000
G1 X-14.849 Y-12.021 Z-1.000 F30.000
G1 X-15.203 Y-11.667 Z-1.000 F30.000
G1 X-16.617 Y-13.081 Z-1.000 F30.000
G1 X-16.263 Y-13.435 Z-1.000 F30.000
G1 X-16.263 Y-13.435 Z-1.500 F30.000
G1 X-14.849 Y-12.021 Z-1.500 F30.000
G1 X-15.203 Y-11.667 Z-1.500 F30.000
G1 X-16.617 Y-13.081 Z-1.500 F30.000
G1 X-16.263 Y-13.435 Z-1.500 F30.000
G1 X-16.263 Y-13.435 Z-2.000 F30.000
G1 X-14.849 Y-12.021 Z-2.000 F30.000
G1 X-15.203 Y-11.667 Z-2.000 F30.000
G1 X-16.617 Y-13.081 Z-2.000 F30.000
G1 X-16.263 Y-13.435 Z-2.000 F30.000
G1 X-16.263 Y-13.435 Z-2.500 F30.000
G1 X-14.849 Y-12.021 Z-2.500 F30.000
G1 X-15.203 Y-11.667 Z-2.500 F30.000
G1 X-16.617 Y-13.081 Z-2.500 F30.000
G1 X-16.263 Y-13.435 Z-2.500 F30.000
G1 X-16.263 Y-13.435 Z-3.000 F30.000
G1 X-14.849 Y-12.021 Z-3.000 F30.000
G1 X-15.203 Y-11.667 Z-3.000 F30.000
G1 X-16.617 Y-13.081 Z-3.000 F30.000
G1 X-16.263 Y-13.435 Z-3.000 F30.000
G0 Z5.000
G0 Z5.000
(Finish operation: Pocket_Shape)
(Begin postamble)
M5
G17 G90
M2
