(Exported by FreeCAD)
(Post Processor: grbl_post)
(Output Time:2025-09-13 23:58:16.175098)
(Begin preamble)
G17 G90
G21
(Begin operation: Fixture)
(Path: Fixture)
G54
(Finish operation: Fixture)
(Begin operation: 2mm-6-Endmill006)
(Path: 2mm-6-Endmill006)
(2mm-6-Endmill006)
(Begin toolchange)
( M6 T2 )
(Finish operation: 2mm-6-Endmill006)
(Begin operation: Profile)
(Path: Profile)
(Profile)
(Compensated Tool Path. Diameter: 2.0)
G0 Z5.000
G0 X1.943 Y1.943
G0 Z3.000
G1 X1.943 Y1.943 Z-0.500 F30.000
G3 X-0.774 Y2.636 Z-0.500 I-1.943 J-1.943 K0.000 F30.000
G3 X0.774 Y-2.636 Z-0.500 I0.774 J-2.636 K0.000 F30.000
G3 X1.943 Y1.943 Z-0.500 I-0.774 J2.636 K0.000 F30.000
G1 X1.943 Y1.943 Z-1.000 F30.000
G3 X-0.774 Y2.636 Z-1.000 I-1.943 J-1.943 K0.000 F30.000
G3 X0.774 Y-2.636 Z-1.000 I0.774 J-2.636 K0.000 F30.000
G3 X1.943 Y1.943 Z-1.000 I-0.774 J2.636 K0.000 F30.000
G1 X1.943 Y1.943 Z-1.500 F30.000
G3 X-0.774 Y2.636 Z-1.500 I-1.943 J-1.943 K0.000 F30.000
G3 X0.774 Y-2.636 Z-1.500 I0.774 J-2.636 K0.000 F30.000
G3 X1.943 Y1.943 Z-1.500 I-0.774 J2.636 K0.000 F30.000
G1 X1.943 Y1.943 Z-2.000 F30.000
G3 X-0.774 Y2.636 Z-2.000 I-1.943 J-1.943 K0.000 F30.000
G3 X0.774 Y-2.636 Z-2.000 I0.774 J-2.636 K0.000 F30.000
G3 X1.943 Y1.943 Z-2.000 I-0.774 J2.636 K0.000 F30.000
G1 X1.943 Y1.943 Z-2.500 F30.000
G3 X-0.774 Y2.636 Z-2.500 I-1.943 J-1.943 K0.000 F30.000
G3 X0.774 Y-2.636 Z-2.500 I0.774 J-2.636 K0.000 F30.000
G3 X1.943 Y1.943 Z-2.500 I-0.774 J2.636 K0.000 F30.000
G1 X1.943 Y1.943 Z-3.000 F30.000
G3 X-0.774 Y2.636 Z-3.000 I-1.943 J-1.943 K0.000 F30.000
G3 X0.774 Y-2.636 Z-3.000 I0.774 J-2.636 K0.000 F30.000
G3 X1.943 Y1.943 Z-3.000 I-0.774 J2.636 K0.000 F30.000
G1 X1.943 Y1.943 Z-3.500 F30.000
G3 X-0.774 Y2.636 Z-3.500 I-1.943 J-1.943 K0.000 F30.000
G3 X0.774 Y-2.636 Z-3.500 I0.774 J-2.636 K0.000 F30.000
G3 X1.943 Y1.943 Z-3.500 I-0.774 J2.636 K0.000 F30.000
G1 X1.943 Y1.943 Z-4.000 F30.000
G3 X-0.774 Y2.636 Z-4.000 I-1.943 J-1.943 K0.000 F30.000
G3 X0.774 Y-2.636 Z-4.000 I0.774 J-2.636 K0.000 F30.000
G3 X1.943 Y1.943 Z-4.000 I-0.774 J2.636 K0.000 F30.000
G1 X1.943 Y1.943 Z-4.500 F30.000
G3 X-0.774 Y2.636 Z-4.500 I-1.943 J-1.943 K0.000 F30.000
G3 X0.774 Y-2.636 Z-4.500 I0.774 J-2.636 K0.000 F30.000
G3 X1.943 Y1.943 Z-4.500 I-0.774 J2.636 K0.000 F30.000
G1 X1.943 Y1.943 Z-5.000 F30.000
G3 X-0.774 Y2.636 Z-5.000 I-1.943 J-1.943 K0.000 F30.000
G3 X0.774 Y-2.636 Z-5.000 I0.774 J-2.636 K0.000 F30.000
G3 X1.943 Y1.943 Z-5.000 I-0.774 J2.636 K0.000 F30.000
G0 Z5.000
G0 Z5.000
(Finish operation: Profile)
(Begin operation: Pocket_Shape001)
(Path: Pocket_Shape001)
(Pocket_Shape001)
G0 Z5.000
G0
G0 X-1.464 Y5.274
G0 X-1.464 Y5.274 Z3.000
G1 X-1.464 Y5.274 Z-0.500 F30.000
G3 X-5.274 Y-1.464 Z-0.500 I1.464 J-5.274 K0.000 F30.000
G3 X1.464 Y-5.274 Z-0.500 I5.274 J1.464 K0.000 F30.000
G3 X5.274 Y1.464 Z-0.500 I-1.464 J5.274 K0.000 F30.000
G3 X-1.464 Y5.274 Z-0.500 I-5.274 J-1.464 K0.000 F30.000
G0 Z5.000
G0 X0.605 Y4.709 Z5.000
G0 X0.605 Y4.709 Z3.000
G1 X0.605 Y4.709 Z-0.500 F30.000
G3 X-4.709 Y0.605 Z-0.500 I-0.605 J-4.709 K0.000 F30.000
G3 X-0.605 Y-4.709 Z-0.500 I4.709 J-0.605 K0.000 F30.000
G3 X0.605 Y4.709 Z-0.500 I0.605 J4.709 K0.000 F30.000
G0 Z5.000
G0 X-1.464 Y5.274 Z5.000
G0 X-1.464 Y5.274 Z3.000
G1 X-1.464 Y5.274 Z-1.000 F30.000
G3 X-5.274 Y-1.464 Z-1.000 I1.464 J-5.274 K0.000 F30.000
G3 X1.464 Y-5.274 Z-1.000 I5.274 J1.464 K0.000 F30.000
G3 X5.274 Y1.464 Z-1.000 I-1.464 J5.274 K0.000 F30.000
G3 X-1.464 Y5.274 Z-1.000 I-5.274 J-1.464 K0.000 F30.000
G0 Z5.000
G0 X0.605 Y4.709 Z5.000
G0 X0.605 Y4.709 Z3.000
G1 X0.605 Y4.709 Z-1.000 F30.000
G3 X-4.709 Y0.605 Z-1.000 I-0.605 J-4.709 K0.000 F30.000
G3 X-0.605 Y-4.709 Z-1.000 I4.709 J-0.605 K0.000 F30.000
G3 X0.605 Y4.709 Z-1.000 I0.605 J4.709 K0.000 F30.000
G0 Z5.000
G0 X-1.464 Y5.274 Z5.000
G0 X-1.464 Y5.274 Z3.000
G1 X-1.464 Y5.274 Z-1.500 F30.000
G3 X-5.274 Y-1.464 Z-1.500 I1.464 J-5.274 K0.000 F30.000
G3 X1.464 Y-5.274 Z-1.500 I5.274 J1.464 K0.000 F30.000
G3 X5.274 Y1.464 Z-1.500 I-1.464 J5.274 K0.000 F30.000
G3 X-1.464 Y5.274 Z-1.500 I-5.274 J-1.464 K0.000 F30.000
G0 Z5.000
G0 X0.605 Y4.709 Z5.000
G0 X0.605 Y4.709 Z3.000
G1 X0.605 Y4.709 Z-1.500 F30.000
G3 X-0.605 Y-4.709 Z-1.500 I-0.605 J-4.709 K0.000 F30.000
G3 X0.605 Y4.709 Z-1.500 I0.605 J4.709 K0.000 F30.000
G0 Z5.000
G0 X-1.464 Y5.274 Z5.000
G0 X-1.464 Y5.274 Z3.000
G1 X-1.464 Y5.274 Z-2.000 F30.000
G3 X-5.274 Y-1.464 Z-2.000 I1.464 J-5.274 K0.000 F30.000
G3 X1.464 Y-5.274 Z-2.000 I5.274 J1.464 K0.000 F30.000
G3 X5.274 Y1.464 Z-2.000 I-1.464 J5.274 K0.000 F30.000
G3 X-1.464 Y5.274 Z-2.000 I-5.274 J-1.464 K0.000 F30.000
G0 Z5.000
G0 X0.605 Y4.709 Z5.000
G0 X0.605 Y4.709 Z3.000
G1 X0.605 Y4.709 Z-2.000 F30.000
G3 X-0.605 Y-4.709 Z-2.000 I-0.605 J-4.709 K0.000 F30.000
G3 X0.605 Y4.709 Z-2.000 I0.605 J4.709 K0.000 F30.000
G0 Z5.000
G0 X-1.464 Y5.274 Z5.000
G0 X-1.464 Y5.274 Z3.000
G1 X-1.464 Y5.274 Z-2.500 F30.000
G3 X-5.274 Y-1.464 Z-2.500 I1.464 J-5.274 K0.000 F30.000
G3 X1.464 Y-5.274 Z-2.500 I5.274 J1.464 K0.000 F30.000
G3 X5.274 Y1.464 Z-2.500 I-1.464 J5.274 K0.000 F30.000
G3 X-1.464 Y5.274 Z-2.500 I-5.274 J-1.464 K0.000 F30.000
G0 Z5.000
G0 X0.605 Y4.709 Z5.000
G0 X0.605 Y4.709 Z3.000
G1 X0.605 Y4.709 Z-2.500 F30.000
G3 X-0.605 Y-4.709 Z-2.500 I-0.605 J-4.709 K0.000 F30.000
G3 X4.709 Y-0.605 Z-2.500 I0.605 J4.709 K0.000 F30.000
G3 X0.605 Y4.709 Z-2.500 I-4.709 J0.605 K0.000 F30.000
G0 Z5.000
G0 X-1.464 Y5.274 Z5.000
G0 X-1.464 Y5.274 Z3.000
G1 X-1.464 Y5.274 Z-2.950 F30.000
G3 X-5.274 Y-1.464 Z-2.950 I1.464 J-5.274 K0.000 F30.000
G3 X1.464 Y-5.274 Z-2.950 I5.274 J1.464 K0.000 F30.000
G3 X5.274 Y1.464 Z-2.950 I-1.464 J5.274 K0.000 F30.000
G3 X-1.464 Y5.274 Z-2.950 I-5.274 J-1.464 K0.000 F30.000
G0 Z5.000
G0 X0.605 Y4.709 Z5.000
G0 X0.605 Y4.709 Z3.000
G1 X0.605 Y4.709 Z-2.950 F30.000
G3 X-0.605 Y-4.709 Z-2.950 I-0.605 J-4.709 K0.000 F30.000
G3 X4.709 Y-0.605 Z-2.950 I0.605 J4.709 K0.000 F30.000
G3 X0.605 Y4.709 Z-2.950 I-4.709 J0.605 K0.000 F30.000
G0 Z5.000
G0 Z5.000
(Finish operation: Pocket_Shape001)
(Begin operation: Profile033)
(Path: Profile033)
(Profile033)
(Compensated Tool Path. Diameter: 2.0)
G0 Z5.000
G0 X-1.673 Y-9.529
G0 Z3.000
G1 X-1.673 Y-9.529 Z-0.500 F30.000
G3 X-2.122 Y-9.453 Z-0.500 I-0.278 J-0.278 K0.000 F30.000
G3 X-2.306 Y-9.979 Z-0.500 I0.171 J-0.355 K0.000 F30.000
G3 X-1.780 Y-10.163 Z-0.500 I0.355 J0.171 K0.000 F30.000
G3 X-1.673 Y-9.529 Z-0.500 I-0.171 J0.355 K0.000 F30.000
G1 X-1.673 Y-9.529 Z-1.000 F30.000
G3 X-2.122 Y-9.453 Z-1.000 I-0.278 J-0.278 K0.000 F30.000
G3 X-2.306 Y-9.979 Z-1.000 I0.171 J-0.355 K0.000 F30.000
G3 X-1.780 Y-10.163 Z-1.000 I0.355 J0.171 K0.000 F30.000
G3 X-1.673 Y-9.529 Z-1.000 I-0.171 J0.355 K0.000 F30.000
G1 X-1.673 Y-9.529 Z-1.500 F30.000
G3 X-2.122 Y-9.453 Z-1.500 I-0.278 J-0.278 K0.000 F30.000
G3 X-2.306 Y-9.979 Z-1.500 I0.171 J-0.355 K0.000 F30.000
G3 X-1.780 Y-10.163 Z-1.500 I0.355 J0.171 K0.000 F30.000
G3 X-1.673 Y-9.529 Z-1.500 I-0.171 J0.355 K0.000 F30.000
G1 X-1.673 Y-9.529 Z-2.000 F30.000
G3 X-2.122 Y-9.453 Z-2.000 I-0.278 J-0.278 K0.000 F30.000
G3 X-2.306 Y-9.979 Z-2.000 I0.171 J-0.355 K0.000 F30.000
G3 X-1.780 Y-10.163 Z-2.000 I0.355 J0.171 K0.000 F30.000
G3 X-1.673 Y-9.529 Z-2.000 I-0.171 J0.355 K0.000 F30.000
G1 X-1.673 Y-9.529 Z-2.500 F30.000
G3 X-2.122 Y-9.453 Z-2.500 I-0.278 J-0.278 K0.000 F30.000
G3 X-2.306 Y-9.979 Z-2.500 I0.171 J-0.355 K0.000 F30.000
G3 X-1.780 Y-10.163 Z-2.500 I0.355 J0.171 K0.000 F30.000
G3 X-1.673 Y-9.529 Z-2.500 I-0.171 J0.355 K0.000 F30.000
G1 X-1.673 Y-9.529 Z-3.000 F30.000
G3 X-2.122 Y-9.453 Z-3.000 I-0.278 J-0.278 K0.000 F30.000
G3 X-2.306 Y-9.979 Z-3.000 I0.171 J-0.355 K0.000 F30.000
G3 X-1.780 Y-10.163 Z-3.000 I0.355 J0.171 K0.000 F30.000
G3 X-1.673 Y-9.529 Z-3.000 I-0.171 J0.355 K0.000 F30.000
G1 X-1.673 Y-9.529 Z-3.500 F30.000
G3 X-2.122 Y-9.453 Z-3.500 I-0.278 J-0.278 K0.000 F30.000
G3 X-2.306 Y-9.979 Z-3.500 I0.171 J-0.355 K0.000 F30.000
G3 X-1.780 Y-10.163 Z-3.500 I0.355 J0.171 K0.000 F30.000
G3 X-1.673 Y-9.529 Z-3.500 I-0.171 J0.355 K0.000 F30.000
G1 X-1.673 Y-9.529 Z-4.000 F30.000
G3 X-2.122 Y-9.453 Z-4.000 I-0.278 J-0.278 K0.000 F30.000
G3 X-2.306 Y-9.979 Z-4.000 I0.171 J-0.355 K0.000 F30.000
G3 X-1.780 Y-10.163 Z-4.000 I0.355 J0.171 K0.000 F30.000
G3 X-1.673 Y-9.529 Z-4.000 I-0.171 J0.355 K0.000 F30.000
G1 X-1.673 Y-9.529 Z-4.500 F30.000
G3 X-2.122 Y-9.453 Z-4.500 I-0.278 J-0.278 K0.000 F30.000
G3 X-2.306 Y-9.979 Z-4.500 I0.171 J-0.355 K0.000 F30.000
G3 X-1.780 Y-10.163 Z-4.500 I0.355 J0.171 K0.000 F30.000
G3 X-1.673 Y-9.529 Z-4.500 I-0.171 J0.355 K0.000 F30.000
G1 X-1.673 Y-9.529 Z-5.000 F30.000
G3 X-2.122 Y-9.453 Z-5.000 I-0.278 J-0.278 K0.000 F30.000
G3 X-2.306 Y-9.979 Z-5.000 I0.171 J-0.355 K0.000 F30.000
G3 X-1.780 Y-10.163 Z-5.000 I0.355 J0.171 K0.000 F30.000
G3 X-1.673 Y-9.529 Z-5.000 I-0.171 J0.355 K0.000 F30.000
G0 Z5.000
G0 Z5.000
(Finish operation: Profile033)
(Begin operation: Profile034)
(Path: Profile034)
(Profile034)
(Compensated Tool Path. Diameter: 2.0)
G0 Z5.000
G0 X5.834 Y-8.036
G0 Z3.000
G1 X5.834 Y-8.036 Z-0.500 F30.000
G3 X5.426 Y-7.943 Z-0.500 I-0.278 J-0.278 K0.000 F30.000
G3 X5.686 Y-8.686 Z-0.500 I0.130 J-0.372 K0.000 F30.000
G3 X5.834 Y-8.036 Z-0.500 I-0.130 J0.372 K0.000 F30.000
G1 X5.834 Y-8.036 Z-1.000 F30.000
G3 X5.426 Y-7.943 Z-1.000 I-0.278 J-0.278 K0.000 F30.000
G3 X5.686 Y-8.686 Z-1.000 I0.130 J-0.372 K0.000 F30.000
G3 X5.834 Y-8.036 Z-1.000 I-0.130 J0.372 K0.000 F30.000
G1 X5.834 Y-8.036 Z-1.500 F30.000
G3 X5.426 Y-7.943 Z-1.500 I-0.278 J-0.278 K0.000 F30.000
G3 X5.686 Y-8.686 Z-1.500 I0.130 J-0.372 K0.000 F30.000
G3 X5.834 Y-8.036 Z-1.500 I-0.130 J0.372 K0.000 F30.000
G1 X5.834 Y-8.036 Z-2.000 F30.000
G3 X5.426 Y-7.943 Z-2.000 I-0.278 J-0.278 K0.000 F30.000
G3 X5.686 Y-8.686 Z-2.000 I0.130 J-0.372 K0.000 F30.000
G3 X5.834 Y-8.036 Z-2.000 I-0.130 J0.372 K0.000 F30.000
G1 X5.834 Y-8.036 Z-2.500 F30.000
G3 X5.426 Y-7.943 Z-2.500 I-0.278 J-0.278 K0.000 F30.000
G3 X5.686 Y-8.686 Z-2.500 I0.130 J-0.372 K0.000 F30.000
G3 X5.834 Y-8.036 Z-2.500 I-0.130 J0.372 K0.000 F30.000
G1 X5.834 Y-8.036 Z-3.000 F30.000
G3 X5.426 Y-7.943 Z-3.000 I-0.278 J-0.278 K0.000 F30.000
G3 X5.686 Y-8.686 Z-3.000 I0.130 J-0.372 K0.000 F30.000
G3 X5.834 Y-8.036 Z-3.000 I-0.130 J0.372 K0.000 F30.000
G1 X5.834 Y-8.036 Z-3.500 F30.000
G3 X5.426 Y-7.943 Z-3.500 I-0.278 J-0.278 K0.000 F30.000
G3 X5.686 Y-8.686 Z-3.500 I0.130 J-0.372 K0.000 F30.000
G3 X5.834 Y-8.036 Z-3.500 I-0.130 J0.372 K0.000 F30.000
G1 X5.834 Y-8.036 Z-4.000 F30.000
G3 X5.426 Y-7.943 Z-4.000 I-0.278 J-0.278 K0.000 F30.000
G3 X5.686 Y-8.686 Z-4.000 I0.130 J-0.372 K0.000 F30.000
G3 X5.834 Y-8.036 Z-4.000 I-0.130 J0.372 K0.000 F30.000
G1 X5.834 Y-8.036 Z-4.500 F30.000
G3 X5.426 Y-7.943 Z-4.500 I-0.278 J-0.278 K0.000 F30.000
G3 X5.686 Y-8.686 Z-4.500 I0.130 J-0.372 K0.000 F30.000
G3 X5.834 Y-8.036 Z-4.500 I-0.130 J0.372 K0.000 F30.000
G1 X5.834 Y-8.036 Z-5.000 F30.000
G3 X5.426 Y-7.943 Z-5.000 I-0.278 J-0.278 K0.000 F30.000
G3 X5.686 Y-8.686 Z-5.000 I0.130 J-0.372 K0.000 F30.000
G3 X5.834 Y-8.036 Z-5.000 I-0.130 J0.372 K0.000 F30.000
G0 Z5.000
G0 Z5.000
(Finish operation: Profile034)
(Begin operation: Profile035)
(Path: Profile035)
(Profile035)
(Compensated Tool Path. Diameter: 2.0)
G0 Z5.000
G0 X10.086 Y-1.673
G0 Z3.000
G1 X10.086 Y-1.673 Z-0.500 F30.000
G3 X9.637 Y-1.596 Z-0.500 I-0.278 J-0.278 K0.000 F30.000
G3 X9.453 Y-2.122 Z-0.500 I0.171 J-0.355 K0.000 F30.000
G3 X9.979 Y-2.306 Z-0.500 I0.355 J0.171 K0.000 F30.000
G3 X10.086 Y-1.673 Z-0.500 I-0.171 J0.355 K0.000 F30.000
G1 X10.086 Y-1.673 Z-1.000 F30.000
G3 X9.637 Y-1.596 Z-1.000 I-0.278 J-0.278 K0.000 F30.000
G3 X9.453 Y-2.122 Z-1.000 I0.171 J-0.355 K0.000 F30.000
G3 X9.979 Y-2.306 Z-1.000 I0.355 J0.171 K0.000 F30.000
G3 X10.086 Y-1.673 Z-1.000 I-0.171 J0.355 K0.000 F30.000
G1 X10.086 Y-1.673 Z-1.500 F30.000
G3 X9.637 Y-1.596 Z-1.500 I-0.278 J-0.278 K0.000 F30.000
G3 X9.453 Y-2.122 Z-1.500 I0.171 J-0.355 K0.000 F30.000
G3 X9.979 Y-2.306 Z-1.500 I0.355 J0.171 K0.000 F30.000
G3 X10.086 Y-1.673 Z-1.500 I-0.171 J0.355 K0.000 F30.000
G1 X10.086 Y-1.673 Z-2.000 F30.000
G3 X9.637 Y-1.596 Z-2.000 I-0.278 J-0.278 K0.000 F30.000
G3 X9.453 Y-2.122 Z-2.000 I0.171 J-0.355 K0.000 F30.000
G3 X9.979 Y-2.306 Z-2.000 I0.355 J0.171 K0.000 F30.000
G3 X10.086 Y-1.673 Z-2.000 I-0.171 J0.355 K0.000 F30.000
G1 X10.086 Y-1.673 Z-2.500 F30.000
G3 X9.637 Y-1.596 Z-2.500 I-0.278 J-0.278 K0.000 F30.000
G3 X9.453 Y-2.122 Z-2.500 I0.171 J-0.355 K0.000 F30.000
G3 X9.979 Y-2.306 Z-2.500 I0.355 J0.171 K0.000 F30.000
G3 X10.086 Y-1.673 Z-2.500 I-0.171 J0.355 K0.000 F30.000
G1 X10.086 Y-1.673 Z-3.000 F30.000
G3 X9.637 Y-1.596 Z-3.000 I-0.278 J-0.278 K0.000 F30.000
G3 X9.453 Y-2.122 Z-3.000 I0.171 J-0.355 K0.000 F30.000
G3 X9.979 Y-2.306 Z-3.000 I0.355 J0.171 K0.000 F30.000
G3 X10.086 Y-1.673 Z-3.000 I-0.171 J0.355 K0.000 F30.000
G1 X10.086 Y-1.673 Z-3.500 F30.000
G3 X9.637 Y-1.596 Z-3.500 I-0.278 J-0.278 K0.000 F30.000
G3 X9.453 Y-2.122 Z-3.500 I0.171 J-0.355 K0.000 F30.000
G3 X9.979 Y-2.306 Z-3.500 I0.355 J0.171 K0.000 F30.000
G3 X10.086 Y-1.673 Z-3.500 I-0.171 J0.355 K0.000 F30.000
G1 X10.086 Y-1.673 Z-4.000 F30.000
G3 X9.637 Y-1.596 Z-4.000 I-0.278 J-0.278 K0.000 F30.000
G3 X9.453 Y-2.122 Z-4.000 I0.171 J-0.355 K0.000 F30.000
G3 X9.979 Y-2.306 Z-4.000 I0.355 J0.171 K0.000 F30.000
G3 X10.086 Y-1.673 Z-4.000 I-0.171 J0.355 K0.000 F30.000
G1 X10.086 Y-1.673 Z-4.500 F30.000
G3 X9.637 Y-1.596 Z-4.500 I-0.278 J-0.278 K0.000 F30.000
G3 X9.453 Y-2.122 Z-4.500 I0.171 J-0.355 K0.000 F30.000
G3 X9.979 Y-2.306 Z-4.500 I0.355 J0.171 K0.000 F30.000
G3 X10.086 Y-1.673 Z-4.500 I-0.171 J0.355 K0.000 F30.000
G1 X10.086 Y-1.673 Z-5.000 F30.000
G3 X9.637 Y-1.596 Z-5.000 I-0.278 J-0.278 K0.000 F30.000
G3 X9.453 Y-2.122 Z-5.000 I0.171 J-0.355 K0.000 F30.000
G3 X9.979 Y-2.306 Z-5.000 I0.355 J0.171 K0.000 F30.000
G3 X10.086 Y-1.673 Z-5.000 I-0.171 J0.355 K0.000 F30.000
G0 Z5.000
G0 Z5.000
(Finish operation: Profile035)
(Begin operation: Profile036)
(Path: Profile036)
(Profile036)
(Compensated Tool Path. Diameter: 2.0)
G0 Z5.000
G0 X8.593 Y5.834
G0 Z3.000
G1 X8.593 Y5.834 Z-0.500 F30.000
G3 X8.185 Y5.927 Z-0.500 I-0.278 J-0.278 K0.000 F30.000
G3 X7.943 Y5.426 Z-0.500 I0.130 J-0.372 K0.000 F30.000
G3 X8.445 Y5.184 Z-0.500 I0.372 J0.130 K0.000 F30.000
G3 X8.593 Y5.834 Z-0.500 I-0.130 J0.372 K0.000 F30.000
G1 X8.593 Y5.834 Z-1.000 F30.000
G3 X8.185 Y5.927 Z-1.000 I-0.278 J-0.278 K0.000 F30.000
G3 X7.943 Y5.426 Z-1.000 I0.130 J-0.372 K0.000 F30.000
G3 X8.445 Y5.184 Z-1.000 I0.372 J0.130 K0.000 F30.000
G3 X8.593 Y5.834 Z-1.000 I-0.130 J0.372 K0.000 F30.000
G1 X8.593 Y5.834 Z-1.500 F30.000
G3 X8.185 Y5.927 Z-1.500 I-0.278 J-0.278 K0.000 F30.000
G3 X7.943 Y5.426 Z-1.500 I0.130 J-0.372 K0.000 F30.000
G3 X8.445 Y5.184 Z-1.500 I0.372 J0.130 K0.000 F30.000
G3 X8.593 Y5.834 Z-1.500 I-0.130 J0.372 K0.000 F30.000
G1 X8.593 Y5.834 Z-2.000 F30.000
G3 X8.185 Y5.927 Z-2.000 I-0.278 J-0.278 K0.000 F30.000
G3 X7.943 Y5.426 Z-2.000 I0.130 J-0.372 K0.000 F30.000
G3 X8.445 Y5.184 Z-2.000 I0.372 J0.130 K0.000 F30.000
G3 X8.593 Y5.834 Z-2.000 I-0.130 J0.372 K0.000 F30.000
G1 X8.593 Y5.834 Z-2.500 F30.000
G3 X8.185 Y5.927 Z-2.500 I-0.278 J-0.278 K0.000 F30.000
G3 X7.943 Y5.426 Z-2.500 I0.130 J-0.372 K0.000 F30.000
G3 X8.445 Y5.184 Z-2.500 I0.372 J0.130 K0.000 F30.000
G3 X8.593 Y5.834 Z-2.500 I-0.130 J0.372 K0.000 F30.000
G1 X8.593 Y5.834 Z-3.000 F30.000
G3 X8.185 Y5.927 Z-3.000 I-0.278 J-0.278 K0.000 F30.000
G3 X7.943 Y5.426 Z-3.000 I0.130 J-0.372 K0.000 F30.000
G3 X8.445 Y5.184 Z-3.000 I0.372 J0.130 K0.000 F30.000
G3 X8.593 Y5.834 Z-3.000 I-0.130 J0.372 K0.000 F30.000
G1 X8.593 Y5.834 Z-3.500 F30.000
G3 X8.185 Y5.927 Z-3.500 I-0.278 J-0.278 K0.000 F30.000
G3 X7.943 Y5.426 Z-3.500 I0.130 J-0.372 K0.000 F30.000
G3 X8.445 Y5.184 Z-3.500 I0.372 J0.130 K0.000 F30.000
G3 X8.593 Y5.834 Z-3.500 I-0.130 J0.372 K0.000 F30.000
G1 X8.593 Y5.834 Z-4.000 F30.000
G3 X8.185 Y5.927 Z-4.000 I-0.278 J-0.278 K0.000 F30.000
G3 X7.943 Y5.426 Z-4.000 I0.130 J-0.372 K0.000 F30.000
G3 X8.445 Y5.184 Z-4.000 I0.372 J0.130 K0.000 F30.000
G3 X8.593 Y5.834 Z-4.000 I-0.130 J0.372 K0.000 F30.000
G1 X8.593 Y5.834 Z-4.500 F30.000
G3 X8.185 Y5.927 Z-4.500 I-0.278 J-0.278 K0.000 F30.000
G3 X7.943 Y5.426 Z-4.500 I0.130 J-0.372 K0.000 F30.000
G3 X8.445 Y5.184 Z-4.500 I0.372 J0.130 K0.000 F30.000
G3 X8.593 Y5.834 Z-4.500 I-0.130 J0.372 K0.000 F30.000
G1 X8.593 Y5.834 Z-5.000 F30.000
G3 X8.185 Y5.927 Z-5.000 I-0.278 J-0.278 K0.000 F30.000
G3 X7.943 Y5.426 Z-5.000 I0.130 J-0.372 K0.000 F30.000
G3 X8.445 Y5.184 Z-5.000 I0.372 J0.130 K0.000 F30.000
G3 X8.593 Y5.834 Z-5.000 I-0.130 J0.372 K0.000 F30.000
G0 Z5.000
G0 Z5.000
(Finish operation: Profile036)
(Begin operation: Profile037)
(Path: Profile037)
(Profile037)
(Compensated Tool Path. Diameter: 2.0)
G0 Z5.000
G0 X2.229 Y10.086
G0 Z3.000
G1 X2.229 Y10.086 Z-0.500 F30.000
G3 X1.780 Y10.163 Z-0.500 I-0.278 J-0.278 K0.000 F30.000
G3 X1.596 Y9.637 Z-0.500 I0.171 J-0.355 K0.000 F30.000
G3 X2.122 Y9.453 Z-0.500 I0.355 J0.171 K0.000 F30.000
G3 X2.229 Y10.086 Z-0.500 I-0.171 J0.355 K0.000 F30.000
G1 X2.229 Y10.086 Z-1.000 F30.000
G3 X1.780 Y10.163 Z-1.000 I-0.278 J-0.278 K0.000 F30.000
G3 X1.596 Y9.637 Z-1.000 I0.171 J-0.355 K0.000 F30.000
G3 X2.122 Y9.453 Z-1.000 I0.355 J0.171 K0.000 F30.000
G3 X2.229 Y10.086 Z-1.000 I-0.171 J0.355 K0.000 F30.000
G1 X2.229 Y10.086 Z-1.500 F30.000
G3 X1.780 Y10.163 Z-1.500 I-0.278 J-0.278 K0.000 F30.000
G3 X1.596 Y9.637 Z-1.500 I0.171 J-0.355 K0.000 F30.000
G3 X2.122 Y9.453 Z-1.500 I0.355 J0.171 K0.000 F30.000
G3 X2.229 Y10.086 Z-1.500 I-0.171 J0.355 K0.000 F30.000
G1 X2.229 Y10.086 Z-2.000 F30.000
G3 X1.780 Y10.163 Z-2.000 I-0.278 J-0.278 K0.000 F30.000
G3 X1.596 Y9.637 Z-2.000 I0.171 J-0.355 K0.000 F30.000
G3 X2.122 Y9.453 Z-2.000 I0.355 J0.171 K0.000 F30.000
G3 X2.229 Y10.086 Z-2.000 I-0.171 J0.355 K0.000 F30.000
G1 X2.229 Y10.086 Z-2.500 F30.000
G3 X1.780 Y10.163 Z-2.500 I-0.278 J-0.278 K0.000 F30.000
G3 X1.596 Y9.637 Z-2.500 I0.171 J-0.355 K0.000 F30.000
G3 X2.122 Y9.453 Z-2.500 I0.355 J0.171 K0.000 F30.000
G3 X2.229 Y10.086 Z-2.500 I-0.171 J0.355 K0.000 F30.000
G1 X2.229 Y10.086 Z-3.000 F30.000
G3 X1.780 Y10.163 Z-3.000 I-0.278 J-0.278 K0.000 F30.000
G3 X1.596 Y9.637 Z-3.000 I0.171 J-0.355 K0.000 F30.000
G3 X2.122 Y9.453 Z-3.000 I0.355 J0.171 K0.000 F30.000
G3 X2.229 Y10.086 Z-3.000 I-0.171 J0.355 K0.000 F30.000
G1 X2.229 Y10.086 Z-3.500 F30.000
G3 X1.780 Y10.163 Z-3.500 I-0.278 J-0.278 K0.000 F30.000
G3 X1.596 Y9.637 Z-3.500 I0.171 J-0.355 K0.000 F30.000
G3 X2.122 Y9.453 Z-3.500 I0.355 J0.171 K0.000 F30.000
G3 X2.229 Y10.086 Z-3.500 I-0.171 J0.355 K0.000 F30.000
G1 X2.229 Y10.086 Z-4.000 F30.000
G3 X1.780 Y10.163 Z-4.000 I-0.278 J-0.278 K0.000 F30.000
G3 X1.596 Y9.637 Z-4.000 I0.171 J-0.355 K0.000 F30.000
G3 X2.122 Y9.453 Z-4.000 I0.355 J0.171 K0.000 F30.000
G3 X2.229 Y10.086 Z-4.000 I-0.171 J0.355 K0.000 F30.000
G1 X2.229 Y10.086 Z-4.500 F30.000
G3 X1.780 Y10.163 Z-4.500 I-0.278 J-0.278 K0.000 F30.000
G3 X1.596 Y9.637 Z-4.500 I0.171 J-0.355 K0.000 F30.000
G3 X2.122 Y9.453 Z-4.500 I0.355 J0.171 K0.000 F30.000
G3 X2.229 Y10.086 Z-4.500 I-0.171 J0.355 K0.000 F30.000
G1 X2.229 Y10.086 Z-5.000 F30.000
G3 X1.780 Y10.163 Z-5.000 I-0.278 J-0.278 K0.000 F30.000
G3 X1.596 Y9.637 Z-5.000 I0.171 J-0.355 K0.000 F30.000
G3 X2.122 Y9.453 Z-5.000 I0.355 J0.171 K0.000 F30.000
G3 X2.229 Y10.086 Z-5.000 I-0.171 J0.355 K0.000 F30.000
G0 Z5.000
G0 Z5.000
(Finish operation: Profile037)
(Begin operation: Profile038)
(Path: Profile038)
(Profile038)
(Compensated Tool Path. Diameter: 2.0)
G0 Z5.000
G0 X-5.277 Y8.593
G0 Z3.000
G1 X-5.277 Y8.593 Z-0.500 F30.000
G3 X-5.765 Y8.648 Z-0.500 I-0.278 J-0.278 K0.000 F30.000
G3 X-5.346 Y7.981 Z-0.500 I0.209 J-0.333 K0.000 F30.000
G3 X-5.277 Y8.593 Z-0.500 I-0.209 J0.333 K0.000 F30.000
G1 X-5.277 Y8.593 Z-1.000 F30.000
G3 X-5.765 Y8.648 Z-1.000 I-0.278 J-0.278 K0.000 F30.000
G3 X-5.346 Y7.981 Z-1.000 I0.209 J-0.333 K0.000 F30.000
G3 X-5.277 Y8.593 Z-1.000 I-0.209 J0.333 K0.000 F30.000
G1 X-5.277 Y8.593 Z-1.500 F30.000
G3 X-5.765 Y8.648 Z-1.500 I-0.278 J-0.278 K0.000 F30.000
G3 X-5.346 Y7.981 Z-1.500 I0.209 J-0.333 K0.000 F30.000
G3 X-5.277 Y8.593 Z-1.500 I-0.209 J0.333 K0.000 F30.000
G1 X-5.277 Y8.593 Z-2.000 F30.000
G3 X-5.765 Y8.648 Z-2.000 I-0.278 J-0.278 K0.000 F30.000
G3 X-5.346 Y7.981 Z-2.000 I0.209 J-0.333 K0.000 F30.000
G3 X-5.277 Y8.593 Z-2.000 I-0.209 J0.333 K0.000 F30.000
G1 X-5.277 Y8.593 Z-2.500 F30.000
G3 X-5.765 Y8.648 Z-2.500 I-0.278 J-0.278 K0.000 F30.000
G3 X-5.346 Y7.981 Z-2.500 I0.209 J-0.333 K0.000 F30.000
G3 X-5.277 Y8.593 Z-2.500 I-0.209 J0.333 K0.000 F30.000
G1 X-5.277 Y8.593 Z-3.000 F30.000
G3 X-5.765 Y8.648 Z-3.000 I-0.278 J-0.278 K0.000 F30.000
G3 X-5.346 Y7.981 Z-3.000 I0.209 J-0.333 K0.000 F30.000
G3 X-5.277 Y8.593 Z-3.000 I-0.209 J0.333 K0.000 F30.000
G1 X-5.277 Y8.593 Z-3.500 F30.000
G3 X-5.765 Y8.648 Z-3.500 I-0.278 J-0.278 K0.000 F30.000
G3 X-5.346 Y7.981 Z-3.500 I0.209 J-0.333 K0.000 F30.000
G3 X-5.277 Y8.593 Z-3.500 I-0.209 J0.333 K0.000 F30.000
G1 X-5.277 Y8.593 Z-4.000 F30.000
G3 X-5.765 Y8.648 Z-4.000 I-0.278 J-0.278 K0.000 F30.000
G3 X-5.346 Y7.981 Z-4.000 I0.209 J-0.333 K0.000 F30.000
G3 X-5.277 Y8.593 Z-4.000 I-0.209 J0.333 K0.000 F30.000
G1 X-5.277 Y8.593 Z-4.500 F30.000
G3 X-5.765 Y8.648 Z-4.500 I-0.278 J-0.278 K0.000 F30.000
G3 X-5.346 Y7.981 Z-4.500 I0.209 J-0.333 K0.000 F30.000
G3 X-5.277 Y8.593 Z-4.500 I-0.209 J0.333 K0.000 F30.000
G1 X-5.277 Y8.593 Z-5.000 F30.000
G3 X-5.765 Y8.648 Z-5.000 I-0.278 J-0.278 K0.000 F30.000
G3 X-5.346 Y7.981 Z-5.000 I0.209 J-0.333 K0.000 F30.000
G3 X-5.277 Y8.593 Z-5.000 I-0.209 J0.333 K0.000 F30.000
G0 Z5.000
G0 Z5.000
(Finish operation: Profile038)
(Begin operation: Profile039)
(Path: Profile039)
(Profile039)
(Compensated Tool Path. Diameter: 2.0)
G0 Z5.000
G0 X-9.529 Y2.229
G0 Z3.000
G1 X-9.529 Y2.229 Z-0.500 F30.000
G3 X-9.979 Y2.306 Z-0.500 I-0.278 J-0.278 K0.000 F30.000
G3 X-9.637 Y1.596 Z-0.500 I0.171 J-0.355 K0.000 F30.000
G3 X-9.529 Y2.229 Z-0.500 I-0.171 J0.355 K0.000 F30.000
G1 X-9.529 Y2.229 Z-1.000 F30.000
G3 X-9.979 Y2.306 Z-1.000 I-0.278 J-0.278 K0.000 F30.000
G3 X-9.637 Y1.596 Z-1.000 I0.171 J-0.355 K0.000 F30.000
G3 X-9.529 Y2.229 Z-1.000 I-0.171 J0.355 K0.000 F30.000
G1 X-9.529 Y2.229 Z-1.500 F30.000
G3 X-9.979 Y2.306 Z-1.500 I-0.278 J-0.278 K0.000 F30.000
G3 X-9.637 Y1.596 Z-1.500 I0.171 J-0.355 K0.000 F30.000
G3 X-9.529 Y2.229 Z-1.500 I-0.171 J0.355 K0.000 F30.000
G1 X-9.529 Y2.229 Z-2.000 F30.000
G3 X-9.979 Y2.306 Z-2.000 I-0.278 J-0.278 K0.000 F30.000
G3 X-9.637 Y1.596 Z-2.000 I0.171 J-0.355 K0.000 F30.000
G3 X-9.529 Y2.229 Z-2.000 I-0.171 J0.355 K0.000 F30.000
G1 X-9.529 Y2.229 Z-2.500 F30.000
G3 X-9.979 Y2.306 Z-2.500 I-0.278 J-0.278 K0.000 F30.000
G3 X-9.637 Y1.596 Z-2.500 I0.171 J-0.355 K0.000 F30.000
G3 X-9.529 Y2.229 Z-2.500 I-0.171 J0.355 K0.000 F30.000
G1 X-9.529 Y2.229 Z-3.000 F30.000
G3 X-9.979 Y2.306 Z-3.000 I-0.278 J-0.278 K0.000 F30.000
G3 X-9.637 Y1.596 Z-3.000 I0.171 J-0.355 K0.000 F30.000
G3 X-9.529 Y2.229 Z-3.000 I-0.171 J0.355 K0.000 F30.000
G1 X-9.529 Y2.229 Z-3.500 F30.000
G3 X-9.979 Y2.306 Z-3.500 I-0.278 J-0.278 K0.000 F30.000
G3 X-9.637 Y1.596 Z-3.500 I0.171 J-0.355 K0.000 F30.000
G3 X-9.529 Y2.229 Z-3.500 I-0.171 J0.355 K0.000 F30.000
G1 X-9.529 Y2.229 Z-4.000 F30.000
G3 X-9.979 Y2.306 Z-4.000 I-0.278 J-0.278 K0.000 F30.000
G3 X-9.637 Y1.596 Z-4.000 I0.171 J-0.355 K0.000 F30.000
G3 X-9.529 Y2.229 Z-4.000 I-0.171 J0.355 K0.000 F30.000
G1 X-9.529 Y2.229 Z-4.500 F30.000
G3 X-9.979 Y2.306 Z-4.500 I-0.278 J-0.278 K0.000 F30.000
G3 X-9.637 Y1.596 Z-4.500 I0.171 J-0.355 K0.000 F30.000
G3 X-9.529 Y2.229 Z-4.500 I-0.171 J0.355 K0.000 F30.000
G1 X-9.529 Y2.229 Z-5.000 F30.000
G3 X-9.979 Y2.306 Z-5.000 I-0.278 J-0.278 K0.000 F30.000
G3 X-9.637 Y1.596 Z-5.000 I0.171 J-0.355 K0.000 F30.000
G3 X-9.529 Y2.229 Z-5.000 I-0.171 J0.355 K0.000 F30.000
G0 Z5.000
G0 Z5.000
(Finish operation: Profile039)
(Begin operation: Profile040)
(Path: Profile040)
(Profile040)
(Compensated Tool Path. Diameter: 2.0)
G0 Z5.000
G0 X-8.036 Y-5.277
G0 Z3.000
G1 X-8.036 Y-5.277 Z-0.500 F30.000
G3 X-8.524 Y-5.222 Z-0.500 I-0.278 J-0.278 K0.000 F30.000
G3 X-8.105 Y-5.889 Z-0.500 I0.209 J-0.333 K0.000 F30.000
G3 X-8.036 Y-5.277 Z-0.500 I-0.209 J0.333 K0.000 F30.000
G1 X-8.036 Y-5.277 Z-1.000 F30.000
G3 X-8.524 Y-5.222 Z-1.000 I-0.278 J-0.278 K0.000 F30.000
G3 X-8.105 Y-5.889 Z-1.000 I0.209 J-0.333 K0.000 F30.000
G3 X-8.036 Y-5.277 Z-1.000 I-0.209 J0.333 K0.000 F30.000
G1 X-8.036 Y-5.277 Z-1.500 F30.000
G3 X-8.524 Y-5.222 Z-1.500 I-0.278 J-0.278 K0.000 F30.000
G3 X-8.105 Y-5.889 Z-1.500 I0.209 J-0.333 K0.000 F30.000
G3 X-8.036 Y-5.277 Z-1.500 I-0.209 J0.333 K0.000 F30.000
G1 X-8.036 Y-5.277 Z-2.000 F30.000
G3 X-8.524 Y-5.222 Z-2.000 I-0.278 J-0.278 K0.000 F30.000
G3 X-8.105 Y-5.889 Z-2.000 I0.209 J-0.333 K0.000 F30.000
G3 X-8.036 Y-5.277 Z-2.000 I-0.209 J0.333 K0.000 F30.000
G1 X-8.036 Y-5.277 Z-2.500 F30.000
G3 X-8.524 Y-5.222 Z-2.500 I-0.278 J-0.278 K0.000 F30.000
G3 X-8.105 Y-5.889 Z-2.500 I0.209 J-0.333 K0.000 F30.000
G3 X-8.036 Y-5.277 Z-2.500 I-0.209 J0.333 K0.000 F30.000
G1 X-8.036 Y-5.277 Z-3.000 F30.000
G3 X-8.524 Y-5.222 Z-3.000 I-0.278 J-0.278 K0.000 F30.000
G3 X-8.105 Y-5.889 Z-3.000 I0.209 J-0.333 K0.000 F30.000
G3 X-8.036 Y-5.277 Z-3.000 I-0.209 J0.333 K0.000 F30.000
G1 X-8.036 Y-5.277 Z-3.500 F30.000
G3 X-8.524 Y-5.222 Z-3.500 I-0.278 J-0.278 K0.000 F30.000
G3 X-8.105 Y-5.889 Z-3.500 I0.209 J-0.333 K0.000 F30.000
G3 X-8.036 Y-5.277 Z-3.500 I-0.209 J0.333 K0.000 F30.000
G1 X-8.036 Y-5.277 Z-4.000 F30.000
G3 X-8.524 Y-5.222 Z-4.000 I-0.278 J-0.278 K0.000 F30.000
G3 X-8.105 Y-5.889 Z-4.000 I0.209 J-0.333 K0.000 F30.000
G3 X-8.036 Y-5.277 Z-4.000 I-0.209 J0.333 K0.000 F30.000
G1 X-8.036 Y-5.277 Z-4.500 F30.000
G3 X-8.524 Y-5.222 Z-4.500 I-0.278 J-0.278 K0.000 F30.000
G3 X-8.105 Y-5.889 Z-4.500 I0.209 J-0.333 K0.000 F30.000
G3 X-8.036 Y-5.277 Z-4.500 I-0.209 J0.333 K0.000 F30.000
G1 X-8.036 Y-5.277 Z-5.000 F30.000
G3 X-8.524 Y-5.222 Z-5.000 I-0.278 J-0.278 K0.000 F30.000
G3 X-8.105 Y-5.889 Z-5.000 I0.209 J-0.333 K0.000 F30.000
G3 X-8.036 Y-5.277 Z-5.000 I-0.209 J0.333 K0.000 F30.000
G0 Z5.000
G0 Z5.000
(Finish operation: Profile040)
(Begin postamble)
M5
G17 G90
M2
