(Exported by FreeCAD)
(Post Processor: grbl_post)
(Output Time:2025-09-20 00:49:21.466490)
(Begin preamble)
G17 G90
G21
(Begin operation: Fixture)
(Path: Fixture)
G54
(Finish operation: Fixture)
(Begin operation: 2mm-6-Endmill006)
(Path: 2mm-6-Endmill006)
(2mm-6-Endmill006)
(Begin toolchange)
( M6 T2 )
(Finish operation: 2mm-6-Endmill006)
(Begin operation: Pocket_Shape001)
(Path: Pocket_Shape001)
(Pocket_Shape001)
G0 Z5.000
G0
G0 X-1.525 Y5.491
G0 X-1.525 Y5.491 Z3.000
G1 X-1.525 Y5.491 Z-0.500 F30.000
G3 X1.525 Y-5.491 Z-0.500 I1.525 J-5.491 K0.000 F30.000
G3 X-1.525 Y5.491 Z-0.500 I-1.525 J5.491 K0.000 F30.000
G0 Z5.000
G0 X0.605 Y4.709 Z5.000
G0 X0.605 Y4.709 Z3.000
G1 X0.605 Y4.709 Z-0.500 F30.000
G3 X-4.709 Y0.605 Z-0.500 I-0.605 J-4.709 K0.000 F30.000
G3 X-0.605 Y-4.709 Z-0.500 I4.709 J-0.605 K0.000 F30.000
G3 X0.605 Y4.709 Z-0.500 I0.605 J4.709 K0.000 F30.000
G0 Z5.000
G0 X-1.525 Y5.491 Z5.000
G0 X-1.525 Y5.491 Z3.000
G1 X-1.525 Y5.491 Z-1.000 F30.000
G3 X1.525 Y-5.491 Z-1.000 I1.525 J-5.491 K0.000 F30.000
G3 X-1.525 Y5.491 Z-1.000 I-1.525 J5.491 K0.000 F30.000
G0 Z5.000
G0 X0.605 Y4.709 Z5.000
G0 X0.605 Y4.709 Z3.000
G1 X0.605 Y4.709 Z-1.000 F30.000
G3 X-4.709 Y0.605 Z-1.000 I-0.605 J-4.709 K0.000 F30.000
G3 X-0.605 Y-4.709 Z-1.000 I4.709 J-0.605 K0.000 F30.000
G3 X0.605 Y4.709 Z-1.000 I0.605 J4.709 K0.000 F30.000
G0 Z5.000
G0 X-1.525 Y5.491 Z5.000
G0 X-1.525 Y5.491 Z3.000
G1 X-1.525 Y5.491 Z-1.500 F30.000
G3 X1.525 Y-5.491 Z-1.500 I1.525 J-5.491 K0.000 F30.000
G3 X-1.525 Y5.491 Z-1.500 I-1.525 J5.491 K0.000 F30.000
G0 Z5.000
G0 X0.605 Y4.709 Z5.000
G0 X0.605 Y4.709 Z3.000
G1 X0.605 Y4.709 Z-1.500 F30.000
G3 X-0.605 Y-4.709 Z-1.500 I-0.605 J-4.709 K0.000 F30.000
G3 X0.605 Y4.709 Z-1.500 I0.605 J4.709 K0.000 F30.000
G0 Z5.000
G0 X-1.525 Y5.491 Z5.000
G0 X-1.525 Y5.491 Z3.000
G1 X-1.525 Y5.491 Z-2.000 F30.000
G3 X1.525 Y-5.491 Z-2.000 I1.525 J-5.491 K0.000 F30.000
G3 X-1.525 Y5.491 Z-2.000 I-1.525 J5.491 K0.000 F30.000
G0 Z5.000
G0 X0.605 Y4.709 Z5.000
G0 X0.605 Y4.709 Z3.000
G1 X0.605 Y4.709 Z-2.000 F30.000
G3 X-0.605 Y-4.709 Z-2.000 I-0.605 J-4.709 K0.000 F30.000
G3 X0.605 Y4.709 Z-2.000 I0.605 J4.709 K0.000 F30.000
G0 Z5.000
G0 X-1.525 Y5.491 Z5.000
G0 X-1.525 Y5.491 Z3.000
G1 X-1.525 Y5.491 Z-2.500 F30.000
G3 X1.525 Y-5.491 Z-2.500 I1.525 J-5.491 K0.000 F30.000
G3 X-1.525 Y5.491 Z-2.500 I-1.525 J5.491 K0.000 F30.000
G0 Z5.000
G0 X0.605 Y4.709 Z5.000
G0 X0.605 Y4.709 Z3.000
G1 X0.605 Y4.709 Z-2.500 F30.000
G3 X-0.605 Y-4.709 Z-2.500 I-0.605 J-4.709 K0.000 F30.000
G3 X4.709 Y-0.605 Z-2.500 I0.605 J4.709 K0.000 F30.000
G3 X0.605 Y4.709 Z-2.500 I-4.709 J0.605 K0.000 F30.000
G0 Z5.000
G0 X-1.525 Y5.491 Z5.000
G0 X-1.525 Y5.491 Z3.000
G1 X-1.525 Y5.491 Z-2.950 F30.000
G3 X1.525 Y-5.491 Z-2.950 I1.525 J-5.491 K0.000 F30.000
G3 X-1.525 Y5.491 Z-2.950 I-1.525 J5.491 K0.000 F30.000
G0 Z5.000
G0 X0.605 Y4.709 Z5.000
G0 X0.605 Y4.709 Z3.000
G1 X0.605 Y4.709 Z-2.950 F30.000
G3 X-0.605 Y-4.709 Z-2.950 I-0.605 J-4.709 K0.000 F30.000
G3 X4.709 Y-0.605 Z-2.950 I0.605 J4.709 K0.000 F30.000
G3 X0.605 Y4.709 Z-2.950 I-4.709 J0.605 K0.000 F30.000
G0 Z5.000
G0 Z5.000
(Finish operation: Pocket_Shape001)
(Begin postamble)
M5
G17 G90
M2
