(Exported by FreeCAD)
(Post Processor: grbl_post)
(Output Time:2025-09-20 18:47:33.026351)
(Begin preamble)
G17 G90
G21
(Begin operation: Fixture)
(Path: Fixture)
G54
(Finish operation: Fixture)
(Begin operation: 2mm-6-Endmill006)
(Path: 2mm-6-Endmill006)
(2mm-6-Endmill006)
(Begin toolchange)
( M6 T2 )
(Finish operation: 2mm-6-Endmill006)
(Begin operation: Pocket_Shape001)
(Path: Pocket_Shape001)
(Pocket_Shape001)
G0 Z5.000
G0
G0 X-1.471 Y5.298
G0 X-1.471 Y5.298 Z3.000
G1 X-1.471 Y5.298 Z-0.500 F30.000
G3 X-5.298 Y-1.471 Z-0.500 I1.471 J-5.298 K0.000 F30.000
G3 X1.471 Y-5.298 Z-0.500 I5.298 J1.471 K0.000 F30.000
G3 X5.298 Y1.471 Z-0.500 I-1.471 J5.298 K0.000 F30.000
G3 X-1.471 Y5.298 Z-0.500 I-5.298 J-1.471 K0.000 F30.000
G0 Z5.000
G0 X0.605 Y4.709 Z5.000
G0 X0.605 Y4.709 Z3.000
G1 X0.605 Y4.709 Z-0.500 F30.000
G3 X-4.709 Y0.605 Z-0.500 I-0.605 J-4.709 K0.000 F30.000
G3 X-0.605 Y-4.709 Z-0.500 I4.709 J-0.605 K0.000 F30.000
G3 X0.605 Y4.709 Z-0.500 I0.605 J4.709 K0.000 F30.000
G0 Z5.000
G0 X-1.471 Y5.298 Z5.000
G0 X-1.471 Y5.298 Z3.000
G1 X-1.471 Y5.298 Z-1.000 F30.000
G3 X-5.298 Y-1.471 Z-1.000 I1.471 J-5.298 K0.000 F30.000
G3 X1.471 Y-5.298 Z-1.000 I5.298 J1.471 K0.000 F30.000
G3 X5.298 Y1.471 Z-1.000 I-1.471 J5.298 K0.000 F30.000
G3 X-1.471 Y5.298 Z-1.000 I-5.298 J-1.471 K0.000 F30.000
G0 Z5.000
G0 X0.605 Y4.709 Z5.000
G0 X0.605 Y4.709 Z3.000
G1 X0.605 Y4.709 Z-1.000 F30.000
G3 X-4.709 Y0.605 Z-1.000 I-0.605 J-4.709 K0.000 F30.000
G3 X-0.605 Y-4.709 Z-1.000 I4.709 J-0.605 K0.000 F30.000
G3 X0.605 Y4.709 Z-1.000 I0.605 J4.709 K0.000 F30.000
G0 Z5.000
G0 X-1.471 Y5.298 Z5.000
G0 X-1.471 Y5.298 Z3.000
G1 X-1.471 Y5.298 Z-1.500 F30.000
G3 X-5.298 Y-1.471 Z-1.500 I1.471 J-5.298 K0.000 F30.000
G3 X1.471 Y-5.298 Z-1.500 I5.298 J1.471 K0.000 F30.000
G3 X5.298 Y1.471 Z-1.500 I-1.471 J5.298 K0.000 F30.000
G3 X-1.471 Y5.298 Z-1.500 I-5.298 J-1.471 K0.000 F30.000
G0 Z5.000
G0 X0.605 Y4.709 Z5.000
G0 X0.605 Y4.709 Z3.000
G1 X0.605 Y4.709 Z-1.500 F30.000
G3 X-0.605 Y-4.709 Z-1.500 I-0.605 J-4.709 K0.000 F30.000
G3 X0.605 Y4.709 Z-1.500 I0.605 J4.709 K0.000 F30.000
G0 Z5.000
G0 X-1.471 Y5.298 Z5.000
G0 X-1.471 Y5.298 Z3.000
G1 X-1.471 Y5.298 Z-2.000 F30.000
G3 X-5.298 Y-1.471 Z-2.000 I1.471 J-5.298 K0.000 F30.000
G3 X1.471 Y-5.298 Z-2.000 I5.298 J1.471 K0.000 F30.000
G3 X5.298 Y1.471 Z-2.000 I-1.471 J5.298 K0.000 F30.000
G3 X-1.471 Y5.298 Z-2.000 I-5.298 J-1.471 K0.000 F30.000
G0 Z5.000
G0 X0.605 Y4.709 Z5.000
G0 X0.605 Y4.709 Z3.000
G1 X0.605 Y4.709 Z-2.000 F30.000
G3 X-0.605 Y-4.709 Z-2.000 I-0.605 J-4.709 K0.000 F30.000
G3 X0.605 Y4.709 Z-2.000 I0.605 J4.709 K0.000 F30.000
G0 Z5.000
G0 X-1.471 Y5.298 Z5.000
G0 X-1.471 Y5.298 Z3.000
G1 X-1.471 Y5.298 Z-2.500 F30.000
G3 X-5.298 Y-1.471 Z-2.500 I1.471 J-5.298 K0.000 F30.000
G3 X1.471 Y-5.298 Z-2.500 I5.298 J1.471 K0.000 F30.000
G3 X5.298 Y1.471 Z-2.500 I-1.471 J5.298 K0.000 F30.000
G3 X-1.471 Y5.298 Z-2.500 I-5.298 J-1.471 K0.000 F30.000
G0 Z5.000
G0 X0.605 Y4.709 Z5.000
G0 X0.605 Y4.709 Z3.000
G1 X0.605 Y4.709 Z-2.500 F30.000
G3 X-0.605 Y-4.709 Z-2.500 I-0.605 J-4.709 K0.000 F30.000
G3 X4.709 Y-0.605 Z-2.500 I0.605 J4.709 K0.000 F30.000
G3 X0.605 Y4.709 Z-2.500 I-4.709 J0.605 K0.000 F30.000
G0 Z5.000
G0 X-1.471 Y5.298 Z5.000
G0 X-1.471 Y5.298 Z3.000
G1 X-1.471 Y5.298 Z-2.950 F30.000
G3 X-5.298 Y-1.471 Z-2.950 I1.471 J-5.298 K0.000 F30.000
G3 X1.471 Y-5.298 Z-2.950 I5.298 J1.471 K0.000 F30.000
G3 X5.298 Y1.471 Z-2.950 I-1.471 J5.298 K0.000 F30.000
G3 X-1.471 Y5.298 Z-2.950 I-5.298 J-1.471 K0.000 F30.000
G0 Z5.000
G0 X0.605 Y4.709 Z5.000
G0 X0.605 Y4.709 Z3.000
G1 X0.605 Y4.709 Z-2.950 F30.000
G3 X-0.605 Y-4.709 Z-2.950 I-0.605 J-4.709 K0.000 F30.000
G3 X4.709 Y-0.605 Z-2.950 I0.605 J4.709 K0.000 F30.000
G3 X0.605 Y4.709 Z-2.950 I-4.709 J0.605 K0.000 F30.000
G0 Z5.000
G0 Z5.000
(Finish operation: Pocket_Shape001)
(Begin postamble)
M5
G17 G90
M2
