(Exported by FreeCAD)
(Post Processor: grbl_post)
(Output Time:2025-09-19 18:00:32.770322)
(Begin preamble)
G17 G90
G21
(Begin operation: Fixture)
(Path: Fixture)
G54
(Finish operation: Fixture)
(Begin operation: 2mm-6-Endmill006)
(Path: 2mm-6-Endmill006)
(2mm-6-Endmill006)
(Begin toolchange)
( M6 T2 )
(Finish operation: 2mm-6-Endmill006)
(Begin operation: Profile)
(Path: Profile)
(Profile)
(Compensated Tool Path. Diameter: 2.0)
G0 Z5.000
G0 X1.943 Y1.943
G0 Z3.000
G1 X1.943 Y1.943 Z-0.500 F30.000
G3 X-0.774 Y2.636 Z-0.500 I-1.943 J-1.943 K0.000 F30.000
G3 X0.774 Y-2.636 Z-0.500 I0.774 J-2.636 K0.000 F30.000
G3 X1.943 Y1.943 Z-0.500 I-0.774 J2.636 K0.000 F30.000
G1 X1.943 Y1.943 Z-1.000 F30.000
G3 X-0.774 Y2.636 Z-1.000 I-1.943 J-1.943 K0.000 F30.000
G3 X0.774 Y-2.636 Z-1.000 I0.774 J-2.636 K0.000 F30.000
G3 X1.943 Y1.943 Z-1.000 I-0.774 J2.636 K0.000 F30.000
G1 X1.943 Y1.943 Z-1.500 F30.000
G3 X-0.774 Y2.636 Z-1.500 I-1.943 J-1.943 K0.000 F30.000
G3 X0.774 Y-2.636 Z-1.500 I0.774 J-2.636 K0.000 F30.000
G3 X1.943 Y1.943 Z-1.500 I-0.774 J2.636 K0.000 F30.000
G1 X1.943 Y1.943 Z-2.000 F30.000
G3 X-0.774 Y2.636 Z-2.000 I-1.943 J-1.943 K0.000 F30.000
G3 X0.774 Y-2.636 Z-2.000 I0.774 J-2.636 K0.000 F30.000
G3 X1.943 Y1.943 Z-2.000 I-0.774 J2.636 K0.000 F30.000
G1 X1.943 Y1.943 Z-2.500 F30.000
G3 X-0.774 Y2.636 Z-2.500 I-1.943 J-1.943 K0.000 F30.000
G3 X0.774 Y-2.636 Z-2.500 I0.774 J-2.636 K0.000 F30.000
G3 X1.943 Y1.943 Z-2.500 I-0.774 J2.636 K0.000 F30.000
G1 X1.943 Y1.943 Z-3.000 F30.000
G3 X-0.774 Y2.636 Z-3.000 I-1.943 J-1.943 K0.000 F30.000
G3 X0.774 Y-2.636 Z-3.000 I0.774 J-2.636 K0.000 F30.000
G3 X1.943 Y1.943 Z-3.000 I-0.774 J2.636 K0.000 F30.000
G1 X1.943 Y1.943 Z-3.500 F30.000
G3 X-0.774 Y2.636 Z-3.500 I-1.943 J-1.943 K0.000 F30.000
G3 X0.774 Y-2.636 Z-3.500 I0.774 J-2.636 K0.000 F30.000
G3 X1.943 Y1.943 Z-3.500 I-0.774 J2.636 K0.000 F30.000
G1 X1.943 Y1.943 Z-4.000 F30.000
G3 X-0.774 Y2.636 Z-4.000 I-1.943 J-1.943 K0.000 F30.000
G3 X0.774 Y-2.636 Z-4.000 I0.774 J-2.636 K0.000 F30.000
G3 X1.943 Y1.943 Z-4.000 I-0.774 J2.636 K0.000 F30.000
G1 X1.943 Y1.943 Z-4.500 F30.000
G3 X-0.774 Y2.636 Z-4.500 I-1.943 J-1.943 K0.000 F30.000
G3 X0.774 Y-2.636 Z-4.500 I0.774 J-2.636 K0.000 F30.000
G3 X1.943 Y1.943 Z-4.500 I-0.774 J2.636 K0.000 F30.000
G1 X1.943 Y1.943 Z-5.000 F30.000
G3 X-0.774 Y2.636 Z-5.000 I-1.943 J-1.943 K0.000 F30.000
G3 X0.774 Y-2.636 Z-5.000 I0.774 J-2.636 K0.000 F30.000
G3 X1.943 Y1.943 Z-5.000 I-0.774 J2.636 K0.000 F30.000
G0 Z5.000
G0 Z5.000
(Finish operation: Profile)
(Begin operation: Pocket_Shape001)
(Path: Pocket_Shape001)
(Pocket_Shape001)
G0 Z5.000
G0
G0 X-1.466 Y5.279
G0 X-1.466 Y5.279 Z3.000
G1 X-1.466 Y5.279 Z-0.500 F30.000
G3 X-5.279 Y-1.466 Z-0.500 I1.466 J-5.279 K0.000 F30.000
G3 X1.466 Y-5.279 Z-0.500 I5.279 J1.466 K0.000 F30.000
G3 X5.279 Y1.466 Z-0.500 I-1.466 J5.279 K0.000 F30.000
G3 X-1.466 Y5.279 Z-0.500 I-5.279 J-1.466 K0.000 F30.000
G0 Z5.000
G0 X0.605 Y4.709 Z5.000
G0 X0.605 Y4.709 Z3.000
G1 X0.605 Y4.709 Z-0.500 F30.000
G3 X-4.709 Y0.605 Z-0.500 I-0.605 J-4.709 K0.000 F30.000
G3 X-0.605 Y-4.709 Z-0.500 I4.709 J-0.605 K0.000 F30.000
G3 X0.605 Y4.709 Z-0.500 I0.605 J4.709 K0.000 F30.000
G0 Z5.000
G0 X-1.466 Y5.279 Z5.000
G0 X-1.466 Y5.279 Z3.000
G1 X-1.466 Y5.279 Z-1.000 F30.000
G3 X-5.279 Y-1.466 Z-1.000 I1.466 J-5.279 K0.000 F30.000
G3 X1.466 Y-5.279 Z-1.000 I5.279 J1.466 K0.000 F30.000
G3 X5.279 Y1.466 Z-1.000 I-1.466 J5.279 K0.000 F30.000
G3 X-1.466 Y5.279 Z-1.000 I-5.279 J-1.466 K0.000 F30.000
G0 Z5.000
G0 X0.605 Y4.709 Z5.000
G0 X0.605 Y4.709 Z3.000
G1 X0.605 Y4.709 Z-1.000 F30.000
G3 X-4.709 Y0.605 Z-1.000 I-0.605 J-4.709 K0.000 F30.000
G3 X-0.605 Y-4.709 Z-1.000 I4.709 J-0.605 K0.000 F30.000
G3 X0.605 Y4.709 Z-1.000 I0.605 J4.709 K0.000 F30.000
G0 Z5.000
G0 X-1.466 Y5.279 Z5.000
G0 X-1.466 Y5.279 Z3.000
G1 X-1.466 Y5.279 Z-1.500 F30.000
G3 X-5.279 Y-1.466 Z-1.500 I1.466 J-5.279 K0.000 F30.000
G3 X1.466 Y-5.279 Z-1.500 I5.279 J1.466 K0.000 F30.000
G3 X5.279 Y1.466 Z-1.500 I-1.466 J5.279 K0.000 F30.000
G3 X-1.466 Y5.279 Z-1.500 I-5.279 J-1.466 K0.000 F30.000
G0 Z5.000
G0 X0.605 Y4.709 Z5.000
G0 X0.605 Y4.709 Z3.000
G1 X0.605 Y4.709 Z-1.500 F30.000
G3 X-0.605 Y-4.709 Z-1.500 I-0.605 J-4.709 K0.000 F30.000
G3 X0.605 Y4.709 Z-1.500 I0.605 J4.709 K0.000 F30.000
G0 Z5.000
G0 X-1.466 Y5.279 Z5.000
G0 X-1.466 Y5.279 Z3.000
G1 X-1.466 Y5.279 Z-2.000 F30.000
G3 X-5.279 Y-1.466 Z-2.000 I1.466 J-5.279 K0.000 F30.000
G3 X1.466 Y-5.279 Z-2.000 I5.279 J1.466 K0.000 F30.000
G3 X5.279 Y1.466 Z-2.000 I-1.466 J5.279 K0.000 F30.000
G3 X-1.466 Y5.279 Z-2.000 I-5.279 J-1.466 K0.000 F30.000
G0 Z5.000
G0 X0.605 Y4.709 Z5.000
G0 X0.605 Y4.709 Z3.000
G1 X0.605 Y4.709 Z-2.000 F30.000
G3 X-0.605 Y-4.709 Z-2.000 I-0.605 J-4.709 K0.000 F30.000
G3 X0.605 Y4.709 Z-2.000 I0.605 J4.709 K0.000 F30.000
G0 Z5.000
G0 X-1.466 Y5.279 Z5.000
G0 X-1.466 Y5.279 Z3.000
G1 X-1.466 Y5.279 Z-2.500 F30.000
G3 X-5.279 Y-1.466 Z-2.500 I1.466 J-5.279 K0.000 F30.000
G3 X1.466 Y-5.279 Z-2.500 I5.279 J1.466 K0.000 F30.000
G3 X5.279 Y1.466 Z-2.500 I-1.466 J5.279 K0.000 F30.000
G3 X-1.466 Y5.279 Z-2.500 I-5.279 J-1.466 K0.000 F30.000
G0 Z5.000
G0 X0.605 Y4.709 Z5.000
G0 X0.605 Y4.709 Z3.000
G1 X0.605 Y4.709 Z-2.500 F30.000
G3 X-0.605 Y-4.709 Z-2.500 I-0.605 J-4.709 K0.000 F30.000
G3 X4.709 Y-0.605 Z-2.500 I0.605 J4.709 K0.000 F30.000
G3 X0.605 Y4.709 Z-2.500 I-4.709 J0.605 K0.000 F30.000
G0 Z5.000
G0 X-1.466 Y5.279 Z5.000
G0 X-1.466 Y5.279 Z3.000
G1 X-1.466 Y5.279 Z-2.950 F30.000
G3 X-5.279 Y-1.466 Z-2.950 I1.466 J-5.279 K0.000 F30.000
G3 X1.466 Y-5.279 Z-2.950 I5.279 J1.466 K0.000 F30.000
G3 X5.279 Y1.466 Z-2.950 I-1.466 J5.279 K0.000 F30.000
G3 X-1.466 Y5.279 Z-2.950 I-5.279 J-1.466 K0.000 F30.000
G0 Z5.000
G0 X0.605 Y4.709 Z5.000
G0 X0.605 Y4.709 Z3.000
G1 X0.605 Y4.709 Z-2.950 F30.000
G3 X-0.605 Y-4.709 Z-2.950 I-0.605 J-4.709 K0.000 F30.000
G3 X4.709 Y-0.605 Z-2.950 I0.605 J4.709 K0.000 F30.000
G3 X0.605 Y4.709 Z-2.950 I-4.709 J0.605 K0.000 F30.000
G0 Z5.000
G0 Z5.000
(Finish operation: Pocket_Shape001)
(Begin operation: Profile033)
(Path: Profile033)
(Profile033)
(Compensated Tool Path. Diameter: 2.0)
G0 Z5.000
G0 X-9.487 Y2.272
G0 Z3.000
G1 X-9.487 Y2.272 Z-0.500 F30.000
G3 X-10.005 Y2.360 Z-0.500 I-0.321 J-0.321 K0.000 F30.000
G3 X-9.611 Y1.542 Z-0.500 I0.197 J-0.409 K0.000 F30.000
G3 X-9.487 Y2.272 Z-0.500 I-0.197 J0.409 K0.000 F30.000
G1 X-9.487 Y2.272 Z-1.000 F30.000
G3 X-10.005 Y2.360 Z-1.000 I-0.321 J-0.321 K0.000 F30.000
G3 X-9.611 Y1.542 Z-1.000 I0.197 J-0.409 K0.000 F30.000
G3 X-9.487 Y2.272 Z-1.000 I-0.197 J0.409 K0.000 F30.000
G1 X-9.487 Y2.272 Z-1.500 F30.000
G3 X-10.005 Y2.360 Z-1.500 I-0.321 J-0.321 K0.000 F30.000
G3 X-9.611 Y1.542 Z-1.500 I0.197 J-0.409 K0.000 F30.000
G3 X-9.487 Y2.272 Z-1.500 I-0.197 J0.409 K0.000 F30.000
G1 X-9.487 Y2.272 Z-2.000 F30.000
G3 X-10.005 Y2.360 Z-2.000 I-0.321 J-0.321 K0.000 F30.000
G3 X-9.611 Y1.542 Z-2.000 I0.197 J-0.409 K0.000 F30.000
G3 X-9.487 Y2.272 Z-2.000 I-0.197 J0.409 K0.000 F30.000
G1 X-9.487 Y2.272 Z-2.500 F30.000
G3 X-10.005 Y2.360 Z-2.500 I-0.321 J-0.321 K0.000 F30.000
G3 X-9.611 Y1.542 Z-2.500 I0.197 J-0.409 K0.000 F30.000
G3 X-9.487 Y2.272 Z-2.500 I-0.197 J0.409 K0.000 F30.000
G1 X-9.487 Y2.272 Z-3.000 F30.000
G3 X-10.005 Y2.360 Z-3.000 I-0.321 J-0.321 K0.000 F30.000
G3 X-9.611 Y1.542 Z-3.000 I0.197 J-0.409 K0.000 F30.000
G3 X-9.487 Y2.272 Z-3.000 I-0.197 J0.409 K0.000 F30.000
G1 X-9.487 Y2.272 Z-3.500 F30.000
G3 X-10.005 Y2.360 Z-3.500 I-0.321 J-0.321 K0.000 F30.000
G3 X-9.611 Y1.542 Z-3.500 I0.197 J-0.409 K0.000 F30.000
G3 X-9.487 Y2.272 Z-3.500 I-0.197 J0.409 K0.000 F30.000
G1 X-9.487 Y2.272 Z-4.000 F30.000
G3 X-10.005 Y2.360 Z-4.000 I-0.321 J-0.321 K0.000 F30.000
G3 X-9.611 Y1.542 Z-4.000 I0.197 J-0.409 K0.000 F30.000
G3 X-9.487 Y2.272 Z-4.000 I-0.197 J0.409 K0.000 F30.000
G1 X-9.487 Y2.272 Z-4.500 F30.000
G3 X-10.005 Y2.360 Z-4.500 I-0.321 J-0.321 K0.000 F30.000
G3 X-9.611 Y1.542 Z-4.500 I0.197 J-0.409 K0.000 F30.000
G3 X-9.487 Y2.272 Z-4.500 I-0.197 J0.409 K0.000 F30.000
G1 X-9.487 Y2.272 Z-5.000 F30.000
G3 X-10.005 Y2.360 Z-5.000 I-0.321 J-0.321 K0.000 F30.000
G3 X-9.611 Y1.542 Z-5.000 I0.197 J-0.409 K0.000 F30.000
G3 X-9.487 Y2.272 Z-5.000 I-0.197 J0.409 K0.000 F30.000
G0 Z5.000
G0 Z5.000
(Finish operation: Profile033)
(Begin operation: Profile034)
(Path: Profile034)
(Profile034)
(Compensated Tool Path. Diameter: 2.0)
G0 Z5.000
G0 X-7.994 Y-5.235
G0 Z3.000
G1 X-7.994 Y-5.235 Z-0.500 F30.000
G3 X-8.556 Y-5.171 Z-0.500 I-0.321 J-0.321 K0.000 F30.000
G3 X-8.699 Y-5.797 Z-0.500 I0.241 J-0.384 K0.000 F30.000
G3 X-8.073 Y-5.940 Z-0.500 I0.384 J0.241 K0.000 F30.000
G3 X-7.994 Y-5.235 Z-0.500 I-0.241 J0.384 K0.000 F30.000
G1 X-7.994 Y-5.235 Z-1.000 F30.000
G3 X-8.556 Y-5.171 Z-1.000 I-0.321 J-0.321 K0.000 F30.000
G3 X-8.699 Y-5.797 Z-1.000 I0.241 J-0.384 K0.000 F30.000
G3 X-8.073 Y-5.940 Z-1.000 I0.384 J0.241 K0.000 F30.000
G3 X-7.994 Y-5.235 Z-1.000 I-0.241 J0.384 K0.000 F30.000
G1 X-7.994 Y-5.235 Z-1.500 F30.000
G3 X-8.556 Y-5.171 Z-1.500 I-0.321 J-0.321 K0.000 F30.000
G3 X-8.699 Y-5.797 Z-1.500 I0.241 J-0.384 K0.000 F30.000
G3 X-8.073 Y-5.940 Z-1.500 I0.384 J0.241 K0.000 F30.000
G3 X-7.994 Y-5.235 Z-1.500 I-0.241 J0.384 K0.000 F30.000
G1 X-7.994 Y-5.235 Z-2.000 F30.000
G3 X-8.556 Y-5.171 Z-2.000 I-0.321 J-0.321 K0.000 F30.000
G3 X-8.699 Y-5.797 Z-2.000 I0.241 J-0.384 K0.000 F30.000
G3 X-8.073 Y-5.940 Z-2.000 I0.384 J0.241 K0.000 F30.000
G3 X-7.994 Y-5.235 Z-2.000 I-0.241 J0.384 K0.000 F30.000
G1 X-7.994 Y-5.235 Z-2.500 F30.000
G3 X-8.556 Y-5.171 Z-2.500 I-0.321 J-0.321 K0.000 F30.000
G3 X-8.699 Y-5.797 Z-2.500 I0.241 J-0.384 K0.000 F30.000
G3 X-8.073 Y-5.940 Z-2.500 I0.384 J0.241 K0.000 F30.000
G3 X-7.994 Y-5.235 Z-2.500 I-0.241 J0.384 K0.000 F30.000
G1 X-7.994 Y-5.235 Z-3.000 F30.000
G3 X-8.556 Y-5.171 Z-3.000 I-0.321 J-0.321 K0.000 F30.000
G3 X-8.699 Y-5.797 Z-3.000 I0.241 J-0.384 K0.000 F30.000
G3 X-8.073 Y-5.940 Z-3.000 I0.384 J0.241 K0.000 F30.000
G3 X-7.994 Y-5.235 Z-3.000 I-0.241 J0.384 K0.000 F30.000
G1 X-7.994 Y-5.235 Z-3.500 F30.000
G3 X-8.556 Y-5.171 Z-3.500 I-0.321 J-0.321 K0.000 F30.000
G3 X-8.699 Y-5.797 Z-3.500 I0.241 J-0.384 K0.000 F30.000
G3 X-8.073 Y-5.940 Z-3.500 I0.384 J0.241 K0.000 F30.000
G3 X-7.994 Y-5.235 Z-3.500 I-0.241 J0.384 K0.000 F30.000
G1 X-7.994 Y-5.235 Z-4.000 F30.000
G3 X-8.556 Y-5.171 Z-4.000 I-0.321 J-0.321 K0.000 F30.000
G3 X-8.699 Y-5.797 Z-4.000 I0.241 J-0.384 K0.000 F30.000
G3 X-8.073 Y-5.940 Z-4.000 I0.384 J0.241 K0.000 F30.000
G3 X-7.994 Y-5.235 Z-4.000 I-0.241 J0.384 K0.000 F30.000
G1 X-7.994 Y-5.235 Z-4.500 F30.000
G3 X-8.556 Y-5.171 Z-4.500 I-0.321 J-0.321 K0.000 F30.000
G3 X-8.699 Y-5.797 Z-4.500 I0.241 J-0.384 K0.000 F30.000
G3 X-8.073 Y-5.940 Z-4.500 I0.384 J0.241 K0.000 F30.000
G3 X-7.994 Y-5.235 Z-4.500 I-0.241 J0.384 K0.000 F30.000
G1 X-7.994 Y-5.235 Z-5.000 F30.000
G3 X-8.556 Y-5.171 Z-5.000 I-0.321 J-0.321 K0.000 F30.000
G3 X-8.699 Y-5.797 Z-5.000 I0.241 J-0.384 K0.000 F30.000
G3 X-8.073 Y-5.940 Z-5.000 I0.384 J0.241 K0.000 F30.000
G3 X-7.994 Y-5.235 Z-5.000 I-0.241 J0.384 K0.000 F30.000
G0 Z5.000
G0 Z5.000
(Finish operation: Profile034)
(Begin operation: Profile035)
(Path: Profile035)
(Profile035)
(Compensated Tool Path. Diameter: 2.0)
G0 Z5.000
G0 X-1.630 Y-9.487
G0 Z3.000
G1 X-1.630 Y-9.487 Z-0.500 F30.000
G3 X-2.148 Y-9.399 Z-0.500 I-0.321 J-0.321 K0.000 F30.000
G3 X-2.360 Y-10.005 Z-0.500 I0.197 J-0.409 K0.000 F30.000
G3 X-1.754 Y-10.217 Z-0.500 I0.409 J0.197 K0.000 F30.000
G3 X-1.630 Y-9.487 Z-0.500 I-0.197 J0.409 K0.000 F30.000
G1 X-1.630 Y-9.487 Z-1.000 F30.000
G3 X-2.148 Y-9.399 Z-1.000 I-0.321 J-0.321 K0.000 F30.000
G3 X-2.360 Y-10.005 Z-1.000 I0.197 J-0.409 K0.000 F30.000
G3 X-1.754 Y-10.217 Z-1.000 I0.409 J0.197 K0.000 F30.000
G3 X-1.630 Y-9.487 Z-1.000 I-0.197 J0.409 K0.000 F30.000
G1 X-1.630 Y-9.487 Z-1.500 F30.000
G3 X-2.148 Y-9.399 Z-1.500 I-0.321 J-0.321 K0.000 F30.000
G3 X-2.360 Y-10.005 Z-1.500 I0.197 J-0.409 K0.000 F30.000
G3 X-1.754 Y-10.217 Z-1.500 I0.409 J0.197 K0.000 F30.000
G3 X-1.630 Y-9.487 Z-1.500 I-0.197 J0.409 K0.000 F30.000
G1 X-1.630 Y-9.487 Z-2.000 F30.000
G3 X-2.148 Y-9.399 Z-2.000 I-0.321 J-0.321 K0.000 F30.000
G3 X-2.360 Y-10.005 Z-2.000 I0.197 J-0.409 K0.000 F30.000
G3 X-1.754 Y-10.217 Z-2.000 I0.409 J0.197 K0.000 F30.000
G3 X-1.630 Y-9.487 Z-2.000 I-0.197 J0.409 K0.000 F30.000
G1 X-1.630 Y-9.487 Z-2.500 F30.000
G3 X-2.148 Y-9.399 Z-2.500 I-0.321 J-0.321 K0.000 F30.000
G3 X-2.360 Y-10.005 Z-2.500 I0.197 J-0.409 K0.000 F30.000
G3 X-1.754 Y-10.217 Z-2.500 I0.409 J0.197 K0.000 F30.000
G3 X-1.630 Y-9.487 Z-2.500 I-0.197 J0.409 K0.000 F30.000
G1 X-1.630 Y-9.487 Z-3.000 F30.000
G3 X-2.148 Y-9.399 Z-3.000 I-0.321 J-0.321 K0.000 F30.000
G3 X-2.360 Y-10.005 Z-3.000 I0.197 J-0.409 K0.000 F30.000
G3 X-1.754 Y-10.217 Z-3.000 I0.409 J0.197 K0.000 F30.000
G3 X-1.630 Y-9.487 Z-3.000 I-0.197 J0.409 K0.000 F30.000
G1 X-1.630 Y-9.487 Z-3.500 F30.000
G3 X-2.148 Y-9.399 Z-3.500 I-0.321 J-0.321 K0.000 F30.000
G3 X-2.360 Y-10.005 Z-3.500 I0.197 J-0.409 K0.000 F30.000
G3 X-1.754 Y-10.217 Z-3.500 I0.409 J0.197 K0.000 F30.000
G3 X-1.630 Y-9.487 Z-3.500 I-0.197 J0.409 K0.000 F30.000
G1 X-1.630 Y-9.487 Z-4.000 F30.000
G3 X-2.148 Y-9.399 Z-4.000 I-0.321 J-0.321 K0.000 F30.000
G3 X-2.360 Y-10.005 Z-4.000 I0.197 J-0.409 K0.000 F30.000
G3 X-1.754 Y-10.217 Z-4.000 I0.409 J0.197 K0.000 F30.000
G3 X-1.630 Y-9.487 Z-4.000 I-0.197 J0.409 K0.000 F30.000
G1 X-1.630 Y-9.487 Z-4.500 F30.000
G3 X-2.148 Y-9.399 Z-4.500 I-0.321 J-0.321 K0.000 F30.000
G3 X-2.360 Y-10.005 Z-4.500 I0.197 J-0.409 K0.000 F30.000
G3 X-1.754 Y-10.217 Z-4.500 I0.409 J0.197 K0.000 F30.000
G3 X-1.630 Y-9.487 Z-4.500 I-0.197 J0.409 K0.000 F30.000
G1 X-1.630 Y-9.487 Z-5.000 F30.000
G3 X-2.148 Y-9.399 Z-5.000 I-0.321 J-0.321 K0.000 F30.000
G3 X-2.360 Y-10.005 Z-5.000 I0.197 J-0.409 K0.000 F30.000
G3 X-1.754 Y-10.217 Z-5.000 I0.409 J0.197 K0.000 F30.000
G3 X-1.630 Y-9.487 Z-5.000 I-0.197 J0.409 K0.000 F30.000
G0 Z5.000
G0 Z5.000
(Finish operation: Profile035)
(Begin operation: Profile036)
(Path: Profile036)
(Profile036)
(Compensated Tool Path. Diameter: 2.0)
G0 Z5.000
G0 X5.876 Y-7.994
G0 Z3.000
G1 X5.876 Y-7.994 Z-0.500 F30.000
G3 X5.314 Y-7.931 Z-0.500 I-0.321 J-0.321 K0.000 F30.000
G3 X5.171 Y-8.556 Z-0.500 I0.241 J-0.384 K0.000 F30.000
G3 X5.797 Y-8.699 Z-0.500 I0.384 J0.241 K0.000 F30.000
G3 X5.876 Y-7.994 Z-0.500 I-0.241 J0.384 K0.000 F30.000
G1 X5.876 Y-7.994 Z-1.000 F30.000
G3 X5.314 Y-7.931 Z-1.000 I-0.321 J-0.321 K0.000 F30.000
G3 X5.171 Y-8.556 Z-1.000 I0.241 J-0.384 K0.000 F30.000
G3 X5.797 Y-8.699 Z-1.000 I0.384 J0.241 K0.000 F30.000
G3 X5.876 Y-7.994 Z-1.000 I-0.241 J0.384 K0.000 F30.000
G1 X5.876 Y-7.994 Z-1.500 F30.000
G3 X5.314 Y-7.931 Z-1.500 I-0.321 J-0.321 K0.000 F30.000
G3 X5.171 Y-8.556 Z-1.500 I0.241 J-0.384 K0.000 F30.000
G3 X5.797 Y-8.699 Z-1.500 I0.384 J0.241 K0.000 F30.000
G3 X5.876 Y-7.994 Z-1.500 I-0.241 J0.384 K0.000 F30.000
G1 X5.876 Y-7.994 Z-2.000 F30.000
G3 X5.314 Y-7.931 Z-2.000 I-0.321 J-0.321 K0.000 F30.000
G3 X5.171 Y-8.556 Z-2.000 I0.241 J-0.384 K0.000 F30.000
G3 X5.797 Y-8.699 Z-2.000 I0.384 J0.241 K0.000 F30.000
G3 X5.876 Y-7.994 Z-2.000 I-0.241 J0.384 K0.000 F30.000
G1 X5.876 Y-7.994 Z-2.500 F30.000
G3 X5.314 Y-7.931 Z-2.500 I-0.321 J-0.321 K0.000 F30.000
G3 X5.171 Y-8.556 Z-2.500 I0.241 J-0.384 K0.000 F30.000
G3 X5.797 Y-8.699 Z-2.500 I0.384 J0.241 K0.000 F30.000
G3 X5.876 Y-7.994 Z-2.500 I-0.241 J0.384 K0.000 F30.000
G1 X5.876 Y-7.994 Z-3.000 F30.000
G3 X5.314 Y-7.931 Z-3.000 I-0.321 J-0.321 K0.000 F30.000
G3 X5.171 Y-8.556 Z-3.000 I0.241 J-0.384 K0.000 F30.000
G3 X5.797 Y-8.699 Z-3.000 I0.384 J0.241 K0.000 F30.000
G3 X5.876 Y-7.994 Z-3.000 I-0.241 J0.384 K0.000 F30.000
G1 X5.876 Y-7.994 Z-3.500 F30.000
G3 X5.314 Y-7.931 Z-3.500 I-0.321 J-0.321 K0.000 F30.000
G3 X5.171 Y-8.556 Z-3.500 I0.241 J-0.384 K0.000 F30.000
G3 X5.797 Y-8.699 Z-3.500 I0.384 J0.241 K0.000 F30.000
G3 X5.876 Y-7.994 Z-3.500 I-0.241 J0.384 K0.000 F30.000
G1 X5.876 Y-7.994 Z-4.000 F30.000
G3 X5.314 Y-7.931 Z-4.000 I-0.321 J-0.321 K0.000 F30.000
G3 X5.171 Y-8.556 Z-4.000 I0.241 J-0.384 K0.000 F30.000
G3 X5.797 Y-8.699 Z-4.000 I0.384 J0.241 K0.000 F30.000
G3 X5.876 Y-7.994 Z-4.000 I-0.241 J0.384 K0.000 F30.000
G1 X5.876 Y-7.994 Z-4.500 F30.000
G3 X5.314 Y-7.931 Z-4.500 I-0.321 J-0.321 K0.000 F30.000
G3 X5.171 Y-8.556 Z-4.500 I0.241 J-0.384 K0.000 F30.000
G3 X5.797 Y-8.699 Z-4.500 I0.384 J0.241 K0.000 F30.000
G3 X5.876 Y-7.994 Z-4.500 I-0.241 J0.384 K0.000 F30.000
G1 X5.876 Y-7.994 Z-5.000 F30.000
G3 X5.314 Y-7.931 Z-5.000 I-0.321 J-0.321 K0.000 F30.000
G3 X5.171 Y-8.556 Z-5.000 I0.241 J-0.384 K0.000 F30.000
G3 X5.797 Y-8.699 Z-5.000 I0.384 J0.241 K0.000 F30.000
G3 X5.876 Y-7.994 Z-5.000 I-0.241 J0.384 K0.000 F30.000
G0 Z5.000
G0 Z5.000
(Finish operation: Profile036)
(Begin operation: Profile037)
(Path: Profile037)
(Profile037)
(Compensated Tool Path. Diameter: 2.0)
G0 Z5.000
G0 X10.129 Y-1.630
G0 Z3.000
G1 X10.129 Y-1.630 Z-0.500 F30.000
G3 X9.611 Y-1.542 Z-0.500 I-0.321 J-0.321 K0.000 F30.000
G3 X10.005 Y-2.360 Z-0.500 I0.197 J-0.409 K0.000 F30.000
G3 X10.129 Y-1.630 Z-0.500 I-0.197 J0.409 K0.000 F30.000
G1 X10.129 Y-1.630 Z-1.000 F30.000
G3 X9.611 Y-1.542 Z-1.000 I-0.321 J-0.321 K0.000 F30.000
G3 X10.005 Y-2.360 Z-1.000 I0.197 J-0.409 K0.000 F30.000
G3 X10.129 Y-1.630 Z-1.000 I-0.197 J0.409 K0.000 F30.000
G1 X10.129 Y-1.630 Z-1.500 F30.000
G3 X9.611 Y-1.542 Z-1.500 I-0.321 J-0.321 K0.000 F30.000
G3 X10.005 Y-2.360 Z-1.500 I0.197 J-0.409 K0.000 F30.000
G3 X10.129 Y-1.630 Z-1.500 I-0.197 J0.409 K0.000 F30.000
G1 X10.129 Y-1.630 Z-2.000 F30.000
G3 X9.611 Y-1.542 Z-2.000 I-0.321 J-0.321 K0.000 F30.000
G3 X10.005 Y-2.360 Z-2.000 I0.197 J-0.409 K0.000 F30.000
G3 X10.129 Y-1.630 Z-2.000 I-0.197 J0.409 K0.000 F30.000
G1 X10.129 Y-1.630 Z-2.500 F30.000
G3 X9.611 Y-1.542 Z-2.500 I-0.321 J-0.321 K0.000 F30.000
G3 X10.005 Y-2.360 Z-2.500 I0.197 J-0.409 K0.000 F30.000
G3 X10.129 Y-1.630 Z-2.500 I-0.197 J0.409 K0.000 F30.000
G1 X10.129 Y-1.630 Z-3.000 F30.000
G3 X9.611 Y-1.542 Z-3.000 I-0.321 J-0.321 K0.000 F30.000
G3 X10.005 Y-2.360 Z-3.000 I0.197 J-0.409 K0.000 F30.000
G3 X10.129 Y-1.630 Z-3.000 I-0.197 J0.409 K0.000 F30.000
G1 X10.129 Y-1.630 Z-3.500 F30.000
G3 X9.611 Y-1.542 Z-3.500 I-0.321 J-0.321 K0.000 F30.000
G3 X10.005 Y-2.360 Z-3.500 I0.197 J-0.409 K0.000 F30.000
G3 X10.129 Y-1.630 Z-3.500 I-0.197 J0.409 K0.000 F30.000
G1 X10.129 Y-1.630 Z-4.000 F30.000
G3 X9.611 Y-1.542 Z-4.000 I-0.321 J-0.321 K0.000 F30.000
G3 X10.005 Y-2.360 Z-4.000 I0.197 J-0.409 K0.000 F30.000
G3 X10.129 Y-1.630 Z-4.000 I-0.197 J0.409 K0.000 F30.000
G1 X10.129 Y-1.630 Z-4.500 F30.000
G3 X9.611 Y-1.542 Z-4.500 I-0.321 J-0.321 K0.000 F30.000
G3 X10.005 Y-2.360 Z-4.500 I0.197 J-0.409 K0.000 F30.000
G3 X10.129 Y-1.630 Z-4.500 I-0.197 J0.409 K0.000 F30.000
G1 X10.129 Y-1.630 Z-5.000 F30.000
G3 X9.611 Y-1.542 Z-5.000 I-0.321 J-0.321 K0.000 F30.000
G3 X10.005 Y-2.360 Z-5.000 I0.197 J-0.409 K0.000 F30.000
G3 X10.129 Y-1.630 Z-5.000 I-0.197 J0.409 K0.000 F30.000
G0 Z5.000
G0 Z5.000
(Finish operation: Profile037)
(Begin operation: Profile038)
(Path: Profile038)
(Profile038)
(Compensated Tool Path. Diameter: 2.0)
G0 Z5.000
G0 X8.636 Y5.876
G0 Z3.000
G1 X8.636 Y5.876 Z-0.500 F30.000
G3 X8.073 Y5.940 Z-0.500 I-0.321 J-0.321 K0.000 F30.000
G3 X7.931 Y5.314 Z-0.500 I0.241 J-0.384 K0.000 F30.000
G3 X8.556 Y5.171 Z-0.500 I0.384 J0.241 K0.000 F30.000
G3 X8.636 Y5.876 Z-0.500 I-0.241 J0.384 K0.000 F30.000
G1 X8.636 Y5.876 Z-1.000 F30.000
G3 X8.073 Y5.940 Z-1.000 I-0.321 J-0.321 K0.000 F30.000
G3 X7.931 Y5.314 Z-1.000 I0.241 J-0.384 K0.000 F30.000
G3 X8.556 Y5.171 Z-1.000 I0.384 J0.241 K0.000 F30.000
G3 X8.636 Y5.876 Z-1.000 I-0.241 J0.384 K0.000 F30.000
G1 X8.636 Y5.876 Z-1.500 F30.000
G3 X8.073 Y5.940 Z-1.500 I-0.321 J-0.321 K0.000 F30.000
G3 X7.931 Y5.314 Z-1.500 I0.241 J-0.384 K0.000 F30.000
G3 X8.556 Y5.171 Z-1.500 I0.384 J0.241 K0.000 F30.000
G3 X8.636 Y5.876 Z-1.500 I-0.241 J0.384 K0.000 F30.000
G1 X8.636 Y5.876 Z-2.000 F30.000
G3 X8.073 Y5.940 Z-2.000 I-0.321 J-0.321 K0.000 F30.000
G3 X7.931 Y5.314 Z-2.000 I0.241 J-0.384 K0.000 F30.000
G3 X8.556 Y5.171 Z-2.000 I0.384 J0.241 K0.000 F30.000
G3 X8.636 Y5.876 Z-2.000 I-0.241 J0.384 K0.000 F30.000
G1 X8.636 Y5.876 Z-2.500 F30.000
G3 X8.073 Y5.940 Z-2.500 I-0.321 J-0.321 K0.000 F30.000
G3 X7.931 Y5.314 Z-2.500 I0.241 J-0.384 K0.000 F30.000
G3 X8.556 Y5.171 Z-2.500 I0.384 J0.241 K0.000 F30.000
G3 X8.636 Y5.876 Z-2.500 I-0.241 J0.384 K0.000 F30.000
G1 X8.636 Y5.876 Z-3.000 F30.000
G3 X8.073 Y5.940 Z-3.000 I-0.321 J-0.321 K0.000 F30.000
G3 X7.931 Y5.314 Z-3.000 I0.241 J-0.384 K0.000 F30.000
G3 X8.556 Y5.171 Z-3.000 I0.384 J0.241 K0.000 F30.000
G3 X8.636 Y5.876 Z-3.000 I-0.241 J0.384 K0.000 F30.000
G1 X8.636 Y5.876 Z-3.500 F30.000
G3 X8.073 Y5.940 Z-3.500 I-0.321 J-0.321 K0.000 F30.000
G3 X7.931 Y5.314 Z-3.500 I0.241 J-0.384 K0.000 F30.000
G3 X8.556 Y5.171 Z-3.500 I0.384 J0.241 K0.000 F30.000
G3 X8.636 Y5.876 Z-3.500 I-0.241 J0.384 K0.000 F30.000
G1 X8.636 Y5.876 Z-4.000 F30.000
G3 X8.073 Y5.940 Z-4.000 I-0.321 J-0.321 K0.000 F30.000
G3 X7.931 Y5.314 Z-4.000 I0.241 J-0.384 K0.000 F30.000
G3 X8.556 Y5.171 Z-4.000 I0.384 J0.241 K0.000 F30.000
G3 X8.636 Y5.876 Z-4.000 I-0.241 J0.384 K0.000 F30.000
G1 X8.636 Y5.876 Z-4.500 F30.000
G3 X8.073 Y5.940 Z-4.500 I-0.321 J-0.321 K0.000 F30.000
G3 X7.931 Y5.314 Z-4.500 I0.241 J-0.384 K0.000 F30.000
G3 X8.556 Y5.171 Z-4.500 I0.384 J0.241 K0.000 F30.000
G3 X8.636 Y5.876 Z-4.500 I-0.241 J0.384 K0.000 F30.000
G1 X8.636 Y5.876 Z-5.000 F30.000
G3 X8.073 Y5.940 Z-5.000 I-0.321 J-0.321 K0.000 F30.000
G3 X7.931 Y5.314 Z-5.000 I0.241 J-0.384 K0.000 F30.000
G3 X8.556 Y5.171 Z-5.000 I0.384 J0.241 K0.000 F30.000
G3 X8.636 Y5.876 Z-5.000 I-0.241 J0.384 K0.000 F30.000
G0 Z5.000
G0 Z5.000
(Finish operation: Profile038)
(Begin operation: Profile039)
(Path: Profile039)
(Profile039)
(Compensated Tool Path. Diameter: 2.0)
G0 Z5.000
G0 X2.272 Y10.129
G0 Z3.000
G1 X2.272 Y10.129 Z-0.500 F30.000
G3 X1.754 Y10.217 Z-0.500 I-0.321 J-0.321 K0.000 F30.000
G3 X1.542 Y9.611 Z-0.500 I0.197 J-0.409 K0.000 F30.000
G3 X2.148 Y9.399 Z-0.500 I0.409 J0.197 K0.000 F30.000
G3 X2.272 Y10.129 Z-0.500 I-0.197 J0.409 K0.000 F30.000
G1 X2.272 Y10.129 Z-1.000 F30.000
G3 X1.754 Y10.217 Z-1.000 I-0.321 J-0.321 K0.000 F30.000
G3 X1.542 Y9.611 Z-1.000 I0.197 J-0.409 K0.000 F30.000
G3 X2.148 Y9.399 Z-1.000 I0.409 J0.197 K0.000 F30.000
G3 X2.272 Y10.129 Z-1.000 I-0.197 J0.409 K0.000 F30.000
G1 X2.272 Y10.129 Z-1.500 F30.000
G3 X1.754 Y10.217 Z-1.500 I-0.321 J-0.321 K0.000 F30.000
G3 X1.542 Y9.611 Z-1.500 I0.197 J-0.409 K0.000 F30.000
G3 X2.148 Y9.399 Z-1.500 I0.409 J0.197 K0.000 F30.000
G3 X2.272 Y10.129 Z-1.500 I-0.197 J0.409 K0.000 F30.000
G1 X2.272 Y10.129 Z-2.000 F30.000
G3 X1.754 Y10.217 Z-2.000 I-0.321 J-0.321 K0.000 F30.000
G3 X1.542 Y9.611 Z-2.000 I0.197 J-0.409 K0.000 F30.000
G3 X2.148 Y9.399 Z-2.000 I0.409 J0.197 K0.000 F30.000
G3 X2.272 Y10.129 Z-2.000 I-0.197 J0.409 K0.000 F30.000
G1 X2.272 Y10.129 Z-2.500 F30.000
G3 X1.754 Y10.217 Z-2.500 I-0.321 J-0.321 K0.000 F30.000
G3 X1.542 Y9.611 Z-2.500 I0.197 J-0.409 K0.000 F30.000
G3 X2.148 Y9.399 Z-2.500 I0.409 J0.197 K0.000 F30.000
G3 X2.272 Y10.129 Z-2.500 I-0.197 J0.409 K0.000 F30.000
G1 X2.272 Y10.129 Z-3.000 F30.000
G3 X1.754 Y10.217 Z-3.000 I-0.321 J-0.321 K0.000 F30.000
G3 X1.542 Y9.611 Z-3.000 I0.197 J-0.409 K0.000 F30.000
G3 X2.148 Y9.399 Z-3.000 I0.409 J0.197 K0.000 F30.000
G3 X2.272 Y10.129 Z-3.000 I-0.197 J0.409 K0.000 F30.000
G1 X2.272 Y10.129 Z-3.500 F30.000
G3 X1.754 Y10.217 Z-3.500 I-0.321 J-0.321 K0.000 F30.000
G3 X1.542 Y9.611 Z-3.500 I0.197 J-0.409 K0.000 F30.000
G3 X2.148 Y9.399 Z-3.500 I0.409 J0.197 K0.000 F30.000
G3 X2.272 Y10.129 Z-3.500 I-0.197 J0.409 K0.000 F30.000
G1 X2.272 Y10.129 Z-4.000 F30.000
G3 X1.754 Y10.217 Z-4.000 I-0.321 J-0.321 K0.000 F30.000
G3 X1.542 Y9.611 Z-4.000 I0.197 J-0.409 K0.000 F30.000
G3 X2.148 Y9.399 Z-4.000 I0.409 J0.197 K0.000 F30.000
G3 X2.272 Y10.129 Z-4.000 I-0.197 J0.409 K0.000 F30.000
G1 X2.272 Y10.129 Z-4.500 F30.000
G3 X1.754 Y10.217 Z-4.500 I-0.321 J-0.321 K0.000 F30.000
G3 X1.542 Y9.611 Z-4.500 I0.197 J-0.409 K0.000 F30.000
G3 X2.148 Y9.399 Z-4.500 I0.409 J0.197 K0.000 F30.000
G3 X2.272 Y10.129 Z-4.500 I-0.197 J0.409 K0.000 F30.000
G1 X2.272 Y10.129 Z-5.000 F30.000
G3 X1.754 Y10.217 Z-5.000 I-0.321 J-0.321 K0.000 F30.000
G3 X1.542 Y9.611 Z-5.000 I0.197 J-0.409 K0.000 F30.000
G3 X2.148 Y9.399 Z-5.000 I0.409 J0.197 K0.000 F30.000
G3 X2.272 Y10.129 Z-5.000 I-0.197 J0.409 K0.000 F30.000
G0 Z5.000
G0 Z5.000
(Finish operation: Profile039)
(Begin operation: Profile040)
(Path: Profile040)
(Profile040)
(Compensated Tool Path. Diameter: 2.0)
G0 Z5.000
G0 X-5.235 Y8.636
G0 Z3.000
G1 X-5.235 Y8.636 Z-0.500 F30.000
G3 X-5.797 Y8.699 Z-0.500 I-0.321 J-0.321 K0.000 F30.000
G3 X-5.940 Y8.073 Z-0.500 I0.241 J-0.384 K0.000 F30.000
G3 X-5.314 Y7.931 Z-0.500 I0.384 J0.241 K0.000 F30.000
G3 X-5.235 Y8.636 Z-0.500 I-0.241 J0.384 K0.000 F30.000
G1 X-5.235 Y8.636 Z-1.000 F30.000
G3 X-5.797 Y8.699 Z-1.000 I-0.321 J-0.321 K0.000 F30.000
G3 X-5.940 Y8.073 Z-1.000 I0.241 J-0.384 K0.000 F30.000
G3 X-5.314 Y7.931 Z-1.000 I0.384 J0.241 K0.000 F30.000
G3 X-5.235 Y8.636 Z-1.000 I-0.241 J0.384 K0.000 F30.000
G1 X-5.235 Y8.636 Z-1.500 F30.000
G3 X-5.797 Y8.699 Z-1.500 I-0.321 J-0.321 K0.000 F30.000
G3 X-5.940 Y8.073 Z-1.500 I0.241 J-0.384 K0.000 F30.000
G3 X-5.314 Y7.931 Z-1.500 I0.384 J0.241 K0.000 F30.000
G3 X-5.235 Y8.636 Z-1.500 I-0.241 J0.384 K0.000 F30.000
G1 X-5.235 Y8.636 Z-2.000 F30.000
G3 X-5.797 Y8.699 Z-2.000 I-0.321 J-0.321 K0.000 F30.000
G3 X-5.940 Y8.073 Z-2.000 I0.241 J-0.384 K0.000 F30.000
G3 X-5.314 Y7.931 Z-2.000 I0.384 J0.241 K0.000 F30.000
G3 X-5.235 Y8.636 Z-2.000 I-0.241 J0.384 K0.000 F30.000
G1 X-5.235 Y8.636 Z-2.500 F30.000
G3 X-5.797 Y8.699 Z-2.500 I-0.321 J-0.321 K0.000 F30.000
G3 X-5.940 Y8.073 Z-2.500 I0.241 J-0.384 K0.000 F30.000
G3 X-5.314 Y7.931 Z-2.500 I0.384 J0.241 K0.000 F30.000
G3 X-5.235 Y8.636 Z-2.500 I-0.241 J0.384 K0.000 F30.000
G1 X-5.235 Y8.636 Z-3.000 F30.000
G3 X-5.797 Y8.699 Z-3.000 I-0.321 J-0.321 K0.000 F30.000
G3 X-5.940 Y8.073 Z-3.000 I0.241 J-0.384 K0.000 F30.000
G3 X-5.314 Y7.931 Z-3.000 I0.384 J0.241 K0.000 F30.000
G3 X-5.235 Y8.636 Z-3.000 I-0.241 J0.384 K0.000 F30.000
G1 X-5.235 Y8.636 Z-3.500 F30.000
G3 X-5.797 Y8.699 Z-3.500 I-0.321 J-0.321 K0.000 F30.000
G3 X-5.940 Y8.073 Z-3.500 I0.241 J-0.384 K0.000 F30.000
G3 X-5.314 Y7.931 Z-3.500 I0.384 J0.241 K0.000 F30.000
G3 X-5.235 Y8.636 Z-3.500 I-0.241 J0.384 K0.000 F30.000
G1 X-5.235 Y8.636 Z-4.000 F30.000
G3 X-5.797 Y8.699 Z-4.000 I-0.321 J-0.321 K0.000 F30.000
G3 X-5.940 Y8.073 Z-4.000 I0.241 J-0.384 K0.000 F30.000
G3 X-5.314 Y7.931 Z-4.000 I0.384 J0.241 K0.000 F30.000
G3 X-5.235 Y8.636 Z-4.000 I-0.241 J0.384 K0.000 F30.000
G1 X-5.235 Y8.636 Z-4.500 F30.000
G3 X-5.797 Y8.699 Z-4.500 I-0.321 J-0.321 K0.000 F30.000
G3 X-5.940 Y8.073 Z-4.500 I0.241 J-0.384 K0.000 F30.000
G3 X-5.314 Y7.931 Z-4.500 I0.384 J0.241 K0.000 F30.000
G3 X-5.235 Y8.636 Z-4.500 I-0.241 J0.384 K0.000 F30.000
G1 X-5.235 Y8.636 Z-5.000 F30.000
G3 X-5.797 Y8.699 Z-5.000 I-0.321 J-0.321 K0.000 F30.000
G3 X-5.940 Y8.073 Z-5.000 I0.241 J-0.384 K0.000 F30.000
G3 X-5.314 Y7.931 Z-5.000 I0.384 J0.241 K0.000 F30.000
G3 X-5.235 Y8.636 Z-5.000 I-0.241 J0.384 K0.000 F30.000
G0 Z5.000
G0 Z5.000
(Finish operation: Profile040)
(Begin postamble)
M5
G17 G90
M2
