(Exported by FreeCAD)
(Post Processor: grbl_post)
(Output Time:2025-09-20 00:53:23.612224)
(Begin preamble)
G17 G90
G21
(Begin operation: Fixture)
(Path: Fixture)
G54
(Finish operation: Fixture)
(Begin operation: 2mm-6-Endmill005)
(Path: 2mm-6-Endmill005)
(2mm-6-Endmill005)
(Begin toolchange)
( M6 T2 )
(Finish operation: 2mm-6-Endmill005)
(Begin operation: Profile032)
(Path: Profile032)
(Profile032)
(Compensated Tool Path. Diameter: 2.0)
G0 Z5.000
G0 X15.466 Y18.298
G0 Z3.000
G1 X15.466 Y18.298 Z-0.500 F30.000
G2 X15.340 Y17.037 Z-0.500 I-0.833 J-0.553 K0.000 F30.000
G1 X9.758 Y11.455 Z-0.500 F30.000
G1 X11.455 Y9.758 Z-0.500 F30.000
G1 X17.037 Y15.340 Z-0.500 F30.000
G2 X18.336 Y15.439 Z-0.500 I0.707 J-0.707 K0.000 F30.000
G2 X21.181 Y11.285 Z-0.500 I-15.041 J-13.351 K0.000 F30.000
G2 X20.693 Y9.870 Z-0.500 I-0.871 J-0.491 K0.000 F30.000
G1 X13.399 Y6.849 Z-0.500 F30.000
G1 X14.317 Y4.632 Z-0.500 F30.000
G1 X21.611 Y7.653 Z-0.500 F30.000
G2 X22.849 Y7.247 Z-0.500 I0.383 J-0.924 K0.000 F30.000
G2 X23.887 Y2.321 Z-0.500 I-19.005 J-6.578 K0.000 F30.000
G2 X22.895 Y1.200 Z-0.500 I-0.993 J-0.121 K0.000 F30.000
G1 X15.000 Y1.200 Z-0.500 F30.000
G1 X15.000 Y-1.200 Z-0.500 F30.000
G1 X22.895 Y-1.200 Z-0.500 F30.000
G2 X23.883 Y-2.048 Z-0.500 I-0.000 J-1.000 K0.000 F30.000
G2 X22.957 Y-6.997 Z-0.500 I-20.076 J1.195 K0.000 F30.000
G2 X21.611 Y-7.653 Z-0.500 I-0.963 J0.268 K0.000 F30.000
G1 X14.317 Y-4.632 Z-0.500 F30.000
G1 X13.399 Y-6.849 Z-0.500 F30.000
G1 X20.693 Y-9.870 Z-0.500 F30.000
G2 X21.281 Y-11.032 Z-0.500 I-0.383 J-0.924 K0.000 F30.000
G2 X18.532 Y-15.250 Z-0.500 I-18.090 J8.787 K0.000 F30.000
G2 X17.037 Y-15.340 Z-0.500 I-0.787 J0.617 K0.000 F30.000
G1 X11.455 Y-9.758 Z-0.500 F30.000
G1 X9.758 Y-11.455 Z-0.500 F30.000
G1 X15.340 Y-17.037 Z-0.500 F30.000
G2 X15.439 Y-18.336 Z-0.500 I-0.707 J-0.707 K0.000 F30.000
G2 X11.285 Y-21.181 Z-0.500 I-13.351 J15.041 K0.000 F30.000
G2 X9.870 Y-20.693 Z-0.500 I-0.491 J0.871 K0.000 F30.000
G1 X6.849 Y-13.399 Z-0.500 F30.000
G1 X4.632 Y-14.317 Z-0.500 F30.000
G1 X7.653 Y-21.611 Z-0.500 F30.000
G2 X7.247 Y-22.849 Z-0.500 I-0.924 J-0.383 K0.000 F30.000
G2 X2.321 Y-23.887 Z-0.500 I-6.578 J19.005 K0.000 F30.000
G2 X1.200 Y-22.895 Z-0.500 I-0.121 J0.993 K0.000 F30.000
G1 X1.200 Y-15.000 Z-0.500 F30.000
G1 X-1.200 Y-15.000 Z-0.500 F30.000
G1 X-1.200 Y-22.895 Z-0.500 F30.000
G2 X-2.048 Y-23.883 Z-0.500 I-1.000 J0.000 K0.000 F30.000
G2 X-6.997 Y-22.957 Z-0.500 I1.195 J20.076 K0.000 F30.000
G2 X-7.653 Y-21.611 Z-0.500 I0.268 J0.963 K0.000 F30.000
G1 X-4.632 Y-14.317 Z-0.500 F30.000
G1 X-6.849 Y-13.399 Z-0.500 F30.000
G1 X-9.870 Y-20.693 Z-0.500 F30.000
G2 X-11.032 Y-21.281 Z-0.500 I-0.924 J0.383 K0.000 F30.000
G2 X-15.250 Y-18.532 Z-0.500 I8.787 J18.090 K0.000 F30.000
G2 X-15.340 Y-17.037 Z-0.500 I0.617 J0.787 K0.000 F30.000
G1 X-9.758 Y-11.455 Z-0.500 F30.000
G1 X-11.455 Y-9.758 Z-0.500 F30.000
G1 X-17.037 Y-15.340 Z-0.500 F30.000
G2 X-18.336 Y-15.439 Z-0.500 I-0.707 J0.707 K0.000 F30.000
G2 X-21.181 Y-11.285 Z-0.500 I15.041 J13.351 K0.000 F30.000
G2 X-20.693 Y-9.870 Z-0.500 I0.871 J0.491 K0.000 F30.000
G1 X-13.399 Y-6.849 Z-0.500 F30.000
G1 X-14.317 Y-4.632 Z-0.500 F30.000
G1 X-21.611 Y-7.653 Z-0.500 F30.000
G2 X-22.849 Y-7.247 Z-0.500 I-0.383 J0.924 K0.000 F30.000
G2 X-23.887 Y-2.321 Z-0.500 I19.005 J6.578 K0.000 F30.000
G2 X-22.895 Y-1.200 Z-0.500 I0.993 J0.121 K0.000 F30.000
G1 X-15.000 Y-1.200 Z-0.500 F30.000
G1 X-15.000 Y1.200 Z-0.500 F30.000
G1 X-22.895 Y1.200 Z-0.500 F30.000
G2 X-23.883 Y2.048 Z-0.500 I0.000 J1.000 K0.000 F30.000
G2 X-22.957 Y6.997 Z-0.500 I20.076 J-1.195 K0.000 F30.000
G2 X-21.611 Y7.653 Z-0.500 I0.963 J-0.268 K0.000 F30.000
G1 X-14.317 Y4.632 Z-0.500 F30.000
G1 X-13.399 Y6.849 Z-0.500 F30.000
G1 X-20.693 Y9.870 Z-0.500 F30.000
G2 X-21.281 Y11.032 Z-0.500 I0.383 J0.924 K0.000 F30.000
G2 X-18.532 Y15.250 Z-0.500 I18.090 J-8.787 K0.000 F30.000
G2 X-17.037 Y15.340 Z-0.500 I0.787 J-0.617 K0.000 F30.000
G1 X-11.455 Y9.758 Z-0.500 F30.000
G1 X-9.758 Y11.455 Z-0.500 F30.000
G1 X-15.340 Y17.037 Z-0.500 F30.000
G2 X-15.439 Y18.336 Z-0.500 I0.707 J0.707 K0.000 F30.000
G2 X-11.285 Y21.181 Z-0.500 I13.351 J-15.041 K0.000 F30.000
G2 X-9.870 Y20.693 Z-0.500 I0.491 J-0.871 K0.000 F30.000
G1 X-6.849 Y13.399 Z-0.500 F30.000
G1 X-4.632 Y14.317 Z-0.500 F30.000
G1 X-7.653 Y21.611 Z-0.500 F30.000
G2 X-7.247 Y22.849 Z-0.500 I0.924 J0.383 K0.000 F30.000
G2 X-2.321 Y23.887 Z-0.500 I6.578 J-19.005 K0.000 F30.000
G2 X-1.200 Y22.895 Z-0.500 I0.121 J-0.993 K0.000 F30.000
G1 X-1.200 Y15.000 Z-0.500 F30.000
G1 X1.200 Y15.000 Z-0.500 F30.000
G1 X1.200 Y22.895 Z-0.500 F30.000
G2 X2.048 Y23.883 Z-0.500 I1.000 J-0.000 K0.000 F30.000
G2 X6.997 Y22.957 Z-0.500 I-1.195 J-20.076 K0.000 F30.000
G2 X7.653 Y21.611 Z-0.500 I-0.268 J-0.963 K0.000 F30.000
G1 X4.632 Y14.317 Z-0.500 F30.000
G1 X6.849 Y13.399 Z-0.500 F30.000
G1 X9.870 Y20.693 Z-0.500 F30.000
G2 X11.032 Y21.281 Z-0.500 I0.924 J-0.383 K0.000 F30.000
G2 X15.250 Y18.532 Z-0.500 I-8.787 J-18.090 K0.000 F30.000
G2 X15.466 Y18.298 Z-0.500 I-0.617 J-0.787 K0.000 F30.000
G1 X15.466 Y18.298 Z-1.000 F30.000
G2 X15.340 Y17.037 Z-1.000 I-0.833 J-0.553 K0.000 F30.000
G1 X9.758 Y11.455 Z-1.000 F30.000
G1 X11.455 Y9.758 Z-1.000 F30.000
G1 X17.037 Y15.340 Z-1.000 F30.000
G2 X18.336 Y15.439 Z-1.000 I0.707 J-0.707 K0.000 F30.000
G2 X21.181 Y11.285 Z-1.000 I-15.041 J-13.351 K0.000 F30.000
G2 X20.693 Y9.870 Z-1.000 I-0.871 J-0.491 K0.000 F30.000
G1 X13.399 Y6.849 Z-1.000 F30.000
G1 X14.317 Y4.632 Z-1.000 F30.000
G1 X21.611 Y7.653 Z-1.000 F30.000
G2 X22.849 Y7.247 Z-1.000 I0.383 J-0.924 K0.000 F30.000
G2 X23.887 Y2.321 Z-1.000 I-19.005 J-6.578 K0.000 F30.000
G2 X22.895 Y1.200 Z-1.000 I-0.993 J-0.121 K0.000 F30.000
G1 X15.000 Y1.200 Z-1.000 F30.000
G1 X15.000 Y-1.200 Z-1.000 F30.000
G1 X22.895 Y-1.200 Z-1.000 F30.000
G2 X23.883 Y-2.048 Z-1.000 I-0.000 J-1.000 K0.000 F30.000
G2 X22.957 Y-6.997 Z-1.000 I-20.076 J1.195 K0.000 F30.000
G2 X21.611 Y-7.653 Z-1.000 I-0.963 J0.268 K0.000 F30.000
G1 X14.317 Y-4.632 Z-1.000 F30.000
G1 X13.399 Y-6.849 Z-1.000 F30.000
G1 X20.693 Y-9.870 Z-1.000 F30.000
G2 X21.281 Y-11.032 Z-1.000 I-0.383 J-0.924 K0.000 F30.000
G2 X18.532 Y-15.250 Z-1.000 I-18.090 J8.787 K0.000 F30.000
G2 X17.037 Y-15.340 Z-1.000 I-0.787 J0.617 K0.000 F30.000
G1 X11.455 Y-9.758 Z-1.000 F30.000
G1 X9.758 Y-11.455 Z-1.000 F30.000
G1 X15.340 Y-17.037 Z-1.000 F30.000
G2 X15.439 Y-18.336 Z-1.000 I-0.707 J-0.707 K0.000 F30.000
G2 X11.285 Y-21.181 Z-1.000 I-13.351 J15.041 K0.000 F30.000
G2 X9.870 Y-20.693 Z-1.000 I-0.491 J0.871 K0.000 F30.000
G1 X6.849 Y-13.399 Z-1.000 F30.000
G1 X4.632 Y-14.317 Z-1.000 F30.000
G1 X7.653 Y-21.611 Z-1.000 F30.000
G2 X7.247 Y-22.849 Z-1.000 I-0.924 J-0.383 K0.000 F30.000
G2 X2.321 Y-23.887 Z-1.000 I-6.578 J19.005 K0.000 F30.000
G2 X1.200 Y-22.895 Z-1.000 I-0.121 J0.993 K0.000 F30.000
G1 X1.200 Y-15.000 Z-1.000 F30.000
G1 X-1.200 Y-15.000 Z-1.000 F30.000
G1 X-1.200 Y-22.895 Z-1.000 F30.000
G2 X-2.048 Y-23.883 Z-1.000 I-1.000 J0.000 K0.000 F30.000
G2 X-6.997 Y-22.957 Z-1.000 I1.195 J20.076 K0.000 F30.000
G2 X-7.653 Y-21.611 Z-1.000 I0.268 J0.963 K0.000 F30.000
G1 X-4.632 Y-14.317 Z-1.000 F30.000
G1 X-6.849 Y-13.399 Z-1.000 F30.000
G1 X-9.870 Y-20.693 Z-1.000 F30.000
G2 X-11.032 Y-21.281 Z-1.000 I-0.924 J0.383 K0.000 F30.000
G2 X-15.250 Y-18.532 Z-1.000 I8.787 J18.090 K0.000 F30.000
G2 X-15.340 Y-17.037 Z-1.000 I0.617 J0.787 K0.000 F30.000
G1 X-9.758 Y-11.455 Z-1.000 F30.000
G1 X-11.455 Y-9.758 Z-1.000 F30.000
G1 X-17.037 Y-15.340 Z-1.000 F30.000
G2 X-18.336 Y-15.439 Z-1.000 I-0.707 J0.707 K0.000 F30.000
G2 X-21.181 Y-11.285 Z-1.000 I15.041 J13.351 K0.000 F30.000
G2 X-20.693 Y-9.870 Z-1.000 I0.871 J0.491 K0.000 F30.000
G1 X-13.399 Y-6.849 Z-1.000 F30.000
G1 X-14.317 Y-4.632 Z-1.000 F30.000
G1 X-21.611 Y-7.653 Z-1.000 F30.000
G2 X-22.849 Y-7.247 Z-1.000 I-0.383 J0.924 K0.000 F30.000
G2 X-23.887 Y-2.321 Z-1.000 I19.005 J6.578 K0.000 F30.000
G2 X-22.895 Y-1.200 Z-1.000 I0.993 J0.121 K0.000 F30.000
G1 X-15.000 Y-1.200 Z-1.000 F30.000
G1 X-15.000 Y1.200 Z-1.000 F30.000
G1 X-22.895 Y1.200 Z-1.000 F30.000
G2 X-23.883 Y2.048 Z-1.000 I0.000 J1.000 K0.000 F30.000
G2 X-22.957 Y6.997 Z-1.000 I20.076 J-1.195 K0.000 F30.000
G2 X-21.611 Y7.653 Z-1.000 I0.963 J-0.268 K0.000 F30.000
G1 X-14.317 Y4.632 Z-1.000 F30.000
G1 X-13.399 Y6.849 Z-1.000 F30.000
G1 X-20.693 Y9.870 Z-1.000 F30.000
G2 X-21.281 Y11.032 Z-1.000 I0.383 J0.924 K0.000 F30.000
G2 X-18.532 Y15.250 Z-1.000 I18.090 J-8.787 K0.000 F30.000
G2 X-17.037 Y15.340 Z-1.000 I0.787 J-0.617 K0.000 F30.000
G1 X-11.455 Y9.758 Z-1.000 F30.000
G1 X-9.758 Y11.455 Z-1.000 F30.000
G1 X-15.340 Y17.037 Z-1.000 F30.000
G2 X-15.439 Y18.336 Z-1.000 I0.707 J0.707 K0.000 F30.000
G2 X-11.285 Y21.181 Z-1.000 I13.351 J-15.041 K0.000 F30.000
G2 X-9.870 Y20.693 Z-1.000 I0.491 J-0.871 K0.000 F30.000
G1 X-6.849 Y13.399 Z-1.000 F30.000
G1 X-4.632 Y14.317 Z-1.000 F30.000
G1 X-7.653 Y21.611 Z-1.000 F30.000
G2 X-7.247 Y22.849 Z-1.000 I0.924 J0.383 K0.000 F30.000
G2 X-2.321 Y23.887 Z-1.000 I6.578 J-19.005 K0.000 F30.000
G2 X-1.200 Y22.895 Z-1.000 I0.121 J-0.993 K0.000 F30.000
G1 X-1.200 Y15.000 Z-1.000 F30.000
G1 X1.200 Y15.000 Z-1.000 F30.000
G1 X1.200 Y22.895 Z-1.000 F30.000
G2 X2.048 Y23.883 Z-1.000 I1.000 J-0.000 K0.000 F30.000
G2 X6.997 Y22.957 Z-1.000 I-1.195 J-20.076 K0.000 F30.000
G2 X7.653 Y21.611 Z-1.000 I-0.268 J-0.963 K0.000 F30.000
G1 X4.632 Y14.317 Z-1.000 F30.000
G1 X6.849 Y13.399 Z-1.000 F30.000
G1 X9.870 Y20.693 Z-1.000 F30.000
G2 X11.032 Y21.281 Z-1.000 I0.924 J-0.383 K0.000 F30.000
G2 X15.250 Y18.532 Z-1.000 I-8.787 J-18.090 K0.000 F30.000
G2 X15.466 Y18.298 Z-1.000 I-0.617 J-0.787 K0.000 F30.000
G1 X15.466 Y18.298 Z-1.500 F30.000
G2 X15.340 Y17.037 Z-1.500 I-0.833 J-0.553 K0.000 F30.000
G1 X9.758 Y11.455 Z-1.500 F30.000
G1 X11.455 Y9.758 Z-1.500 F30.000
G1 X17.037 Y15.340 Z-1.500 F30.000
G2 X18.336 Y15.439 Z-1.500 I0.707 J-0.707 K0.000 F30.000
G2 X21.181 Y11.285 Z-1.500 I-15.041 J-13.351 K0.000 F30.000
G2 X20.693 Y9.870 Z-1.500 I-0.871 J-0.491 K0.000 F30.000
G1 X13.399 Y6.849 Z-1.500 F30.000
G1 X14.317 Y4.632 Z-1.500 F30.000
G1 X21.611 Y7.653 Z-1.500 F30.000
G2 X22.849 Y7.247 Z-1.500 I0.383 J-0.924 K0.000 F30.000
G2 X23.887 Y2.321 Z-1.500 I-19.005 J-6.578 K0.000 F30.000
G2 X22.895 Y1.200 Z-1.500 I-0.993 J-0.121 K0.000 F30.000
G1 X15.000 Y1.200 Z-1.500 F30.000
G1 X15.000 Y-1.200 Z-1.500 F30.000
G1 X22.895 Y-1.200 Z-1.500 F30.000
G2 X23.883 Y-2.048 Z-1.500 I-0.000 J-1.000 K0.000 F30.000
G2 X22.957 Y-6.997 Z-1.500 I-20.076 J1.195 K0.000 F30.000
G2 X21.611 Y-7.653 Z-1.500 I-0.963 J0.268 K0.000 F30.000
G1 X14.317 Y-4.632 Z-1.500 F30.000
G1 X13.399 Y-6.849 Z-1.500 F30.000
G1 X20.693 Y-9.870 Z-1.500 F30.000
G2 X21.281 Y-11.032 Z-1.500 I-0.383 J-0.924 K0.000 F30.000
G2 X18.532 Y-15.250 Z-1.500 I-18.090 J8.787 K0.000 F30.000
G2 X17.037 Y-15.340 Z-1.500 I-0.787 J0.617 K0.000 F30.000
G1 X11.455 Y-9.758 Z-1.500 F30.000
G1 X9.758 Y-11.455 Z-1.500 F30.000
G1 X15.340 Y-17.037 Z-1.500 F30.000
G2 X15.439 Y-18.336 Z-1.500 I-0.707 J-0.707 K0.000 F30.000
G2 X11.285 Y-21.181 Z-1.500 I-13.351 J15.041 K0.000 F30.000
G2 X9.870 Y-20.693 Z-1.500 I-0.491 J0.871 K0.000 F30.000
G1 X6.849 Y-13.399 Z-1.500 F30.000
G1 X4.632 Y-14.317 Z-1.500 F30.000
G1 X7.653 Y-21.611 Z-1.500 F30.000
G2 X7.247 Y-22.849 Z-1.500 I-0.924 J-0.383 K0.000 F30.000
G2 X2.321 Y-23.887 Z-1.500 I-6.578 J19.005 K0.000 F30.000
G2 X1.200 Y-22.895 Z-1.500 I-0.121 J0.993 K0.000 F30.000
G1 X1.200 Y-15.000 Z-1.500 F30.000
G1 X-1.200 Y-15.000 Z-1.500 F30.000
G1 X-1.200 Y-22.895 Z-1.500 F30.000
G2 X-2.048 Y-23.883 Z-1.500 I-1.000 J0.000 K0.000 F30.000
G2 X-6.997 Y-22.957 Z-1.500 I1.195 J20.076 K0.000 F30.000
G2 X-7.653 Y-21.611 Z-1.500 I0.268 J0.963 K0.000 F30.000
G1 X-4.632 Y-14.317 Z-1.500 F30.000
G1 X-6.849 Y-13.399 Z-1.500 F30.000
G1 X-9.870 Y-20.693 Z-1.500 F30.000
G2 X-11.032 Y-21.281 Z-1.500 I-0.924 J0.383 K0.000 F30.000
G2 X-15.250 Y-18.532 Z-1.500 I8.787 J18.090 K0.000 F30.000
G2 X-15.340 Y-17.037 Z-1.500 I0.617 J0.787 K0.000 F30.000
G1 X-9.758 Y-11.455 Z-1.500 F30.000
G1 X-11.455 Y-9.758 Z-1.500 F30.000
G1 X-17.037 Y-15.340 Z-1.500 F30.000
G2 X-18.336 Y-15.439 Z-1.500 I-0.707 J0.707 K0.000 F30.000
G2 X-21.181 Y-11.285 Z-1.500 I15.041 J13.351 K0.000 F30.000
G2 X-20.693 Y-9.870 Z-1.500 I0.871 J0.491 K0.000 F30.000
G1 X-13.399 Y-6.849 Z-1.500 F30.000
G1 X-14.317 Y-4.632 Z-1.500 F30.000
G1 X-21.611 Y-7.653 Z-1.500 F30.000
G2 X-22.849 Y-7.247 Z-1.500 I-0.383 J0.924 K0.000 F30.000
G2 X-23.887 Y-2.321 Z-1.500 I19.005 J6.578 K0.000 F30.000
G2 X-22.895 Y-1.200 Z-1.500 I0.993 J0.121 K0.000 F30.000
G1 X-15.000 Y-1.200 Z-1.500 F30.000
G1 X-15.000 Y1.200 Z-1.500 F30.000
G1 X-22.895 Y1.200 Z-1.500 F30.000
G2 X-23.883 Y2.048 Z-1.500 I0.000 J1.000 K0.000 F30.000
G2 X-22.957 Y6.997 Z-1.500 I20.076 J-1.195 K0.000 F30.000
G2 X-21.611 Y7.653 Z-1.500 I0.963 J-0.268 K0.000 F30.000
G1 X-14.317 Y4.632 Z-1.500 F30.000
G1 X-13.399 Y6.849 Z-1.500 F30.000
G1 X-20.693 Y9.870 Z-1.500 F30.000
G2 X-21.281 Y11.032 Z-1.500 I0.383 J0.924 K0.000 F30.000
G2 X-18.532 Y15.250 Z-1.500 I18.090 J-8.787 K0.000 F30.000
G2 X-17.037 Y15.340 Z-1.500 I0.787 J-0.617 K0.000 F30.000
G1 X-11.455 Y9.758 Z-1.500 F30.000
G1 X-9.758 Y11.455 Z-1.500 F30.000
G1 X-15.340 Y17.037 Z-1.500 F30.000
G2 X-15.439 Y18.336 Z-1.500 I0.707 J0.707 K0.000 F30.000
G2 X-11.285 Y21.181 Z-1.500 I13.351 J-15.041 K0.000 F30.000
G2 X-9.870 Y20.693 Z-1.500 I0.491 J-0.871 K0.000 F30.000
G1 X-6.849 Y13.399 Z-1.500 F30.000
G1 X-4.632 Y14.317 Z-1.500 F30.000
G1 X-7.653 Y21.611 Z-1.500 F30.000
G2 X-7.247 Y22.849 Z-1.500 I0.924 J0.383 K0.000 F30.000
G2 X-2.321 Y23.887 Z-1.500 I6.578 J-19.005 K0.000 F30.000
G2 X-1.200 Y22.895 Z-1.500 I0.121 J-0.993 K0.000 F30.000
G1 X-1.200 Y15.000 Z-1.500 F30.000
G1 X1.200 Y15.000 Z-1.500 F30.000
G1 X1.200 Y22.895 Z-1.500 F30.000
G2 X2.048 Y23.883 Z-1.500 I1.000 J-0.000 K0.000 F30.000
G2 X6.997 Y22.957 Z-1.500 I-1.195 J-20.076 K0.000 F30.000
G2 X7.653 Y21.611 Z-1.500 I-0.268 J-0.963 K0.000 F30.000
G1 X4.632 Y14.317 Z-1.500 F30.000
G1 X6.849 Y13.399 Z-1.500 F30.000
G1 X9.870 Y20.693 Z-1.500 F30.000
G2 X11.032 Y21.281 Z-1.500 I0.924 J-0.383 K0.000 F30.000
G2 X15.250 Y18.532 Z-1.500 I-8.787 J-18.090 K0.000 F30.000
G2 X15.466 Y18.298 Z-1.500 I-0.617 J-0.787 K0.000 F30.000
G1 X15.466 Y18.298 Z-2.000 F30.000
G2 X15.340 Y17.037 Z-2.000 I-0.833 J-0.553 K0.000 F30.000
G1 X9.758 Y11.455 Z-2.000 F30.000
G1 X11.455 Y9.758 Z-2.000 F30.000
G1 X17.037 Y15.340 Z-2.000 F30.000
G2 X18.336 Y15.439 Z-2.000 I0.707 J-0.707 K0.000 F30.000
G2 X21.181 Y11.285 Z-2.000 I-15.041 J-13.351 K0.000 F30.000
G2 X20.693 Y9.870 Z-2.000 I-0.871 J-0.491 K0.000 F30.000
G1 X13.399 Y6.849 Z-2.000 F30.000
G1 X14.317 Y4.632 Z-2.000 F30.000
G1 X21.611 Y7.653 Z-2.000 F30.000
G2 X22.849 Y7.247 Z-2.000 I0.383 J-0.924 K0.000 F30.000
G2 X23.887 Y2.321 Z-2.000 I-19.005 J-6.578 K0.000 F30.000
G2 X22.895 Y1.200 Z-2.000 I-0.993 J-0.121 K0.000 F30.000
G1 X15.000 Y1.200 Z-2.000 F30.000
G1 X15.000 Y-1.200 Z-2.000 F30.000
G1 X22.895 Y-1.200 Z-2.000 F30.000
G2 X23.883 Y-2.048 Z-2.000 I-0.000 J-1.000 K0.000 F30.000
G2 X22.957 Y-6.997 Z-2.000 I-20.076 J1.195 K0.000 F30.000
G2 X21.611 Y-7.653 Z-2.000 I-0.963 J0.268 K0.000 F30.000
G1 X14.317 Y-4.632 Z-2.000 F30.000
G1 X13.399 Y-6.849 Z-2.000 F30.000
G1 X20.693 Y-9.870 Z-2.000 F30.000
G2 X21.281 Y-11.032 Z-2.000 I-0.383 J-0.924 K0.000 F30.000
G2 X18.532 Y-15.250 Z-2.000 I-18.090 J8.787 K0.000 F30.000
G2 X17.037 Y-15.340 Z-2.000 I-0.787 J0.617 K0.000 F30.000
G1 X11.455 Y-9.758 Z-2.000 F30.000
G1 X9.758 Y-11.455 Z-2.000 F30.000
G1 X15.340 Y-17.037 Z-2.000 F30.000
G2 X15.439 Y-18.336 Z-2.000 I-0.707 J-0.707 K0.000 F30.000
G2 X11.285 Y-21.181 Z-2.000 I-13.351 J15.041 K0.000 F30.000
G2 X9.870 Y-20.693 Z-2.000 I-0.491 J0.871 K0.000 F30.000
G1 X6.849 Y-13.399 Z-2.000 F30.000
G1 X4.632 Y-14.317 Z-2.000 F30.000
G1 X7.653 Y-21.611 Z-2.000 F30.000
G2 X7.247 Y-22.849 Z-2.000 I-0.924 J-0.383 K0.000 F30.000
G2 X2.321 Y-23.887 Z-2.000 I-6.578 J19.005 K0.000 F30.000
G2 X1.200 Y-22.895 Z-2.000 I-0.121 J0.993 K0.000 F30.000
G1 X1.200 Y-15.000 Z-2.000 F30.000
G1 X-1.200 Y-15.000 Z-2.000 F30.000
G1 X-1.200 Y-22.895 Z-2.000 F30.000
G2 X-2.048 Y-23.883 Z-2.000 I-1.000 J0.000 K0.000 F30.000
G2 X-6.997 Y-22.957 Z-2.000 I1.195 J20.076 K0.000 F30.000
G2 X-7.653 Y-21.611 Z-2.000 I0.268 J0.963 K0.000 F30.000
G1 X-4.632 Y-14.317 Z-2.000 F30.000
G1 X-6.849 Y-13.399 Z-2.000 F30.000
G1 X-9.870 Y-20.693 Z-2.000 F30.000
G2 X-11.032 Y-21.281 Z-2.000 I-0.924 J0.383 K0.000 F30.000
G2 X-15.250 Y-18.532 Z-2.000 I8.787 J18.090 K0.000 F30.000
G2 X-15.340 Y-17.037 Z-2.000 I0.617 J0.787 K0.000 F30.000
G1 X-9.758 Y-11.455 Z-2.000 F30.000
G1 X-11.455 Y-9.758 Z-2.000 F30.000
G1 X-17.037 Y-15.340 Z-2.000 F30.000
G2 X-18.336 Y-15.439 Z-2.000 I-0.707 J0.707 K0.000 F30.000
G2 X-21.181 Y-11.285 Z-2.000 I15.041 J13.351 K0.000 F30.000
G2 X-20.693 Y-9.870 Z-2.000 I0.871 J0.491 K0.000 F30.000
G1 X-13.399 Y-6.849 Z-2.000 F30.000
G1 X-14.317 Y-4.632 Z-2.000 F30.000
G1 X-21.611 Y-7.653 Z-2.000 F30.000
G2 X-22.849 Y-7.247 Z-2.000 I-0.383 J0.924 K0.000 F30.000
G2 X-23.887 Y-2.321 Z-2.000 I19.005 J6.578 K0.000 F30.000
G2 X-22.895 Y-1.200 Z-2.000 I0.993 J0.121 K0.000 F30.000
G1 X-15.000 Y-1.200 Z-2.000 F30.000
G1 X-15.000 Y1.200 Z-2.000 F30.000
G1 X-22.895 Y1.200 Z-2.000 F30.000
G2 X-23.883 Y2.048 Z-2.000 I0.000 J1.000 K0.000 F30.000
G2 X-22.957 Y6.997 Z-2.000 I20.076 J-1.195 K0.000 F30.000
G2 X-21.611 Y7.653 Z-2.000 I0.963 J-0.268 K0.000 F30.000
G1 X-14.317 Y4.632 Z-2.000 F30.000
G1 X-13.399 Y6.849 Z-2.000 F30.000
G1 X-20.693 Y9.870 Z-2.000 F30.000
G2 X-21.281 Y11.032 Z-2.000 I0.383 J0.924 K0.000 F30.000
G2 X-18.532 Y15.250 Z-2.000 I18.090 J-8.787 K0.000 F30.000
G2 X-17.037 Y15.340 Z-2.000 I0.787 J-0.617 K0.000 F30.000
G1 X-11.455 Y9.758 Z-2.000 F30.000
G1 X-9.758 Y11.455 Z-2.000 F30.000
G1 X-15.340 Y17.037 Z-2.000 F30.000
G2 X-15.439 Y18.336 Z-2.000 I0.707 J0.707 K0.000 F30.000
G2 X-11.285 Y21.181 Z-2.000 I13.351 J-15.041 K0.000 F30.000
G2 X-9.870 Y20.693 Z-2.000 I0.491 J-0.871 K0.000 F30.000
G1 X-6.849 Y13.399 Z-2.000 F30.000
G1 X-4.632 Y14.317 Z-2.000 F30.000
G1 X-7.653 Y21.611 Z-2.000 F30.000
G2 X-7.247 Y22.849 Z-2.000 I0.924 J0.383 K0.000 F30.000
G2 X-2.321 Y23.887 Z-2.000 I6.578 J-19.005 K0.000 F30.000
G2 X-1.200 Y22.895 Z-2.000 I0.121 J-0.993 K0.000 F30.000
G1 X-1.200 Y15.000 Z-2.000 F30.000
G1 X1.200 Y15.000 Z-2.000 F30.000
G1 X1.200 Y22.895 Z-2.000 F30.000
G2 X2.048 Y23.883 Z-2.000 I1.000 J-0.000 K0.000 F30.000
G2 X6.997 Y22.957 Z-2.000 I-1.195 J-20.076 K0.000 F30.000
G2 X7.653 Y21.611 Z-2.000 I-0.268 J-0.963 K0.000 F30.000
G1 X4.632 Y14.317 Z-2.000 F30.000
G1 X6.849 Y13.399 Z-2.000 F30.000
G1 X9.870 Y20.693 Z-2.000 F30.000
G2 X11.032 Y21.281 Z-2.000 I0.924 J-0.383 K0.000 F30.000
G2 X15.250 Y18.532 Z-2.000 I-8.787 J-18.090 K0.000 F30.000
G2 X15.466 Y18.298 Z-2.000 I-0.617 J-0.787 K0.000 F30.000
G1 X15.466 Y18.298 Z-2.500 F30.000
G2 X15.340 Y17.037 Z-2.500 I-0.833 J-0.553 K0.000 F30.000
G1 X9.758 Y11.455 Z-2.500 F30.000
G1 X11.455 Y9.758 Z-2.500 F30.000
G1 X17.037 Y15.340 Z-2.500 F30.000
G2 X18.336 Y15.439 Z-2.500 I0.707 J-0.707 K0.000 F30.000
G2 X21.181 Y11.285 Z-2.500 I-15.041 J-13.351 K0.000 F30.000
G2 X20.693 Y9.870 Z-2.500 I-0.871 J-0.491 K0.000 F30.000
G1 X13.399 Y6.849 Z-2.500 F30.000
G1 X14.317 Y4.632 Z-2.500 F30.000
G1 X21.611 Y7.653 Z-2.500 F30.000
G2 X22.849 Y7.247 Z-2.500 I0.383 J-0.924 K0.000 F30.000
G2 X23.887 Y2.321 Z-2.500 I-19.005 J-6.578 K0.000 F30.000
G2 X22.895 Y1.200 Z-2.500 I-0.993 J-0.121 K0.000 F30.000
G1 X15.000 Y1.200 Z-2.500 F30.000
G1 X15.000 Y-1.200 Z-2.500 F30.000
G1 X22.895 Y-1.200 Z-2.500 F30.000
G2 X23.883 Y-2.048 Z-2.500 I-0.000 J-1.000 K0.000 F30.000
G2 X22.957 Y-6.997 Z-2.500 I-20.076 J1.195 K0.000 F30.000
G2 X21.611 Y-7.653 Z-2.500 I-0.963 J0.268 K0.000 F30.000
G1 X14.317 Y-4.632 Z-2.500 F30.000
G1 X13.399 Y-6.849 Z-2.500 F30.000
G1 X20.693 Y-9.870 Z-2.500 F30.000
G2 X21.281 Y-11.032 Z-2.500 I-0.383 J-0.924 K0.000 F30.000
G2 X18.532 Y-15.250 Z-2.500 I-18.090 J8.787 K0.000 F30.000
G2 X17.037 Y-15.340 Z-2.500 I-0.787 J0.617 K0.000 F30.000
G1 X11.455 Y-9.758 Z-2.500 F30.000
G1 X9.758 Y-11.455 Z-2.500 F30.000
G1 X15.340 Y-17.037 Z-2.500 F30.000
G2 X15.439 Y-18.336 Z-2.500 I-0.707 J-0.707 K0.000 F30.000
G2 X11.285 Y-21.181 Z-2.500 I-13.351 J15.041 K0.000 F30.000
G2 X9.870 Y-20.693 Z-2.500 I-0.491 J0.871 K0.000 F30.000
G1 X6.849 Y-13.399 Z-2.500 F30.000
G1 X4.632 Y-14.317 Z-2.500 F30.000
G1 X7.653 Y-21.611 Z-2.500 F30.000
G2 X7.247 Y-22.849 Z-2.500 I-0.924 J-0.383 K0.000 F30.000
G2 X2.321 Y-23.887 Z-2.500 I-6.578 J19.005 K0.000 F30.000
G2 X1.200 Y-22.895 Z-2.500 I-0.121 J0.993 K0.000 F30.000
G1 X1.200 Y-15.000 Z-2.500 F30.000
G1 X-1.200 Y-15.000 Z-2.500 F30.000
G1 X-1.200 Y-22.895 Z-2.500 F30.000
G2 X-2.048 Y-23.883 Z-2.500 I-1.000 J0.000 K0.000 F30.000
G2 X-6.997 Y-22.957 Z-2.500 I1.195 J20.076 K0.000 F30.000
G2 X-7.653 Y-21.611 Z-2.500 I0.268 J0.963 K0.000 F30.000
G1 X-4.632 Y-14.317 Z-2.500 F30.000
G1 X-6.849 Y-13.399 Z-2.500 F30.000
G1 X-9.870 Y-20.693 Z-2.500 F30.000
G2 X-11.032 Y-21.281 Z-2.500 I-0.924 J0.383 K0.000 F30.000
G2 X-15.250 Y-18.532 Z-2.500 I8.787 J18.090 K0.000 F30.000
G2 X-15.340 Y-17.037 Z-2.500 I0.617 J0.787 K0.000 F30.000
G1 X-9.758 Y-11.455 Z-2.500 F30.000
G1 X-11.455 Y-9.758 Z-2.500 F30.000
G1 X-17.037 Y-15.340 Z-2.500 F30.000
G2 X-18.336 Y-15.439 Z-2.500 I-0.707 J0.707 K0.000 F30.000
G2 X-21.181 Y-11.285 Z-2.500 I15.041 J13.351 K0.000 F30.000
G2 X-20.693 Y-9.870 Z-2.500 I0.871 J0.491 K0.000 F30.000
G1 X-13.399 Y-6.849 Z-2.500 F30.000
G1 X-14.317 Y-4.632 Z-2.500 F30.000
G1 X-21.611 Y-7.653 Z-2.500 F30.000
G2 X-22.849 Y-7.247 Z-2.500 I-0.383 J0.924 K0.000 F30.000
G2 X-23.887 Y-2.321 Z-2.500 I19.005 J6.578 K0.000 F30.000
G2 X-22.895 Y-1.200 Z-2.500 I0.993 J0.121 K0.000 F30.000
G1 X-15.000 Y-1.200 Z-2.500 F30.000
G1 X-15.000 Y1.200 Z-2.500 F30.000
G1 X-22.895 Y1.200 Z-2.500 F30.000
G2 X-23.883 Y2.048 Z-2.500 I0.000 J1.000 K0.000 F30.000
G2 X-22.957 Y6.997 Z-2.500 I20.076 J-1.195 K0.000 F30.000
G2 X-21.611 Y7.653 Z-2.500 I0.963 J-0.268 K0.000 F30.000
G1 X-14.317 Y4.632 Z-2.500 F30.000
G1 X-13.399 Y6.849 Z-2.500 F30.000
G1 X-20.693 Y9.870 Z-2.500 F30.000
G2 X-21.281 Y11.032 Z-2.500 I0.383 J0.924 K0.000 F30.000
G2 X-18.532 Y15.250 Z-2.500 I18.090 J-8.787 K0.000 F30.000
G2 X-17.037 Y15.340 Z-2.500 I0.787 J-0.617 K0.000 F30.000
G1 X-11.455 Y9.758 Z-2.500 F30.000
G1 X-9.758 Y11.455 Z-2.500 F30.000
G1 X-15.340 Y17.037 Z-2.500 F30.000
G2 X-15.439 Y18.336 Z-2.500 I0.707 J0.707 K0.000 F30.000
G2 X-11.285 Y21.181 Z-2.500 I13.351 J-15.041 K0.000 F30.000
G2 X-9.870 Y20.693 Z-2.500 I0.491 J-0.871 K0.000 F30.000
G1 X-6.849 Y13.399 Z-2.500 F30.000
G1 X-4.632 Y14.317 Z-2.500 F30.000
G1 X-7.653 Y21.611 Z-2.500 F30.000
G2 X-7.247 Y22.849 Z-2.500 I0.924 J0.383 K0.000 F30.000
G2 X-2.321 Y23.887 Z-2.500 I6.578 J-19.005 K0.000 F30.000
G2 X-1.200 Y22.895 Z-2.500 I0.121 J-0.993 K0.000 F30.000
G1 X-1.200 Y15.000 Z-2.500 F30.000
G1 X1.200 Y15.000 Z-2.500 F30.000
G1 X1.200 Y22.895 Z-2.500 F30.000
G2 X2.048 Y23.883 Z-2.500 I1.000 J-0.000 K0.000 F30.000
G2 X6.997 Y22.957 Z-2.500 I-1.195 J-20.076 K0.000 F30.000
G2 X7.653 Y21.611 Z-2.500 I-0.268 J-0.963 K0.000 F30.000
G1 X4.632 Y14.317 Z-2.500 F30.000
G1 X6.849 Y13.399 Z-2.500 F30.000
G1 X9.870 Y20.693 Z-2.500 F30.000
G2 X11.032 Y21.281 Z-2.500 I0.924 J-0.383 K0.000 F30.000
G2 X15.250 Y18.532 Z-2.500 I-8.787 J-18.090 K0.000 F30.000
G2 X15.466 Y18.298 Z-2.500 I-0.617 J-0.787 K0.000 F30.000
G1 X15.466 Y18.298 Z-3.000 F30.000
G2 X15.340 Y17.037 Z-3.000 I-0.833 J-0.553 K0.000 F30.000
G1 X9.758 Y11.455 Z-3.000 F30.000
G1 X11.455 Y9.758 Z-3.000 F30.000
G1 X17.037 Y15.340 Z-3.000 F30.000
G2 X18.336 Y15.439 Z-3.000 I0.707 J-0.707 K0.000 F30.000
G2 X21.181 Y11.285 Z-3.000 I-15.041 J-13.351 K0.000 F30.000
G2 X20.693 Y9.870 Z-3.000 I-0.871 J-0.491 K0.000 F30.000
G1 X13.399 Y6.849 Z-3.000 F30.000
G1 X14.317 Y4.632 Z-3.000 F30.000
G1 X21.611 Y7.653 Z-3.000 F30.000
G2 X22.849 Y7.247 Z-3.000 I0.383 J-0.924 K0.000 F30.000
G2 X23.887 Y2.321 Z-3.000 I-19.005 J-6.578 K0.000 F30.000
G2 X22.895 Y1.200 Z-3.000 I-0.993 J-0.121 K0.000 F30.000
G1 X15.000 Y1.200 Z-3.000 F30.000
G1 X15.000 Y-1.200 Z-3.000 F30.000
G1 X22.895 Y-1.200 Z-3.000 F30.000
G2 X23.883 Y-2.048 Z-3.000 I-0.000 J-1.000 K0.000 F30.000
G2 X22.957 Y-6.997 Z-3.000 I-20.076 J1.195 K0.000 F30.000
G2 X21.611 Y-7.653 Z-3.000 I-0.963 J0.268 K0.000 F30.000
G1 X14.317 Y-4.632 Z-3.000 F30.000
G1 X13.399 Y-6.849 Z-3.000 F30.000
G1 X20.693 Y-9.870 Z-3.000 F30.000
G2 X21.281 Y-11.032 Z-3.000 I-0.383 J-0.924 K0.000 F30.000
G2 X18.532 Y-15.250 Z-3.000 I-18.090 J8.787 K0.000 F30.000
G2 X17.037 Y-15.340 Z-3.000 I-0.787 J0.617 K0.000 F30.000
G1 X11.455 Y-9.758 Z-3.000 F30.000
G1 X9.758 Y-11.455 Z-3.000 F30.000
G1 X15.340 Y-17.037 Z-3.000 F30.000
G2 X15.439 Y-18.336 Z-3.000 I-0.707 J-0.707 K0.000 F30.000
G2 X11.285 Y-21.181 Z-3.000 I-13.351 J15.041 K0.000 F30.000
G2 X9.870 Y-20.693 Z-3.000 I-0.491 J0.871 K0.000 F30.000
G1 X6.849 Y-13.399 Z-3.000 F30.000
G1 X4.632 Y-14.317 Z-3.000 F30.000
G1 X7.653 Y-21.611 Z-3.000 F30.000
G2 X7.247 Y-22.849 Z-3.000 I-0.924 J-0.383 K0.000 F30.000
G2 X2.321 Y-23.887 Z-3.000 I-6.578 J19.005 K0.000 F30.000
G2 X1.200 Y-22.895 Z-3.000 I-0.121 J0.993 K0.000 F30.000
G1 X1.200 Y-15.000 Z-3.000 F30.000
G1 X-1.200 Y-15.000 Z-3.000 F30.000
G1 X-1.200 Y-22.895 Z-3.000 F30.000
G2 X-2.048 Y-23.883 Z-3.000 I-1.000 J0.000 K0.000 F30.000
G2 X-6.997 Y-22.957 Z-3.000 I1.195 J20.076 K0.000 F30.000
G2 X-7.653 Y-21.611 Z-3.000 I0.268 J0.963 K0.000 F30.000
G1 X-4.632 Y-14.317 Z-3.000 F30.000
G1 X-6.849 Y-13.399 Z-3.000 F30.000
G1 X-9.870 Y-20.693 Z-3.000 F30.000
G2 X-11.032 Y-21.281 Z-3.000 I-0.924 J0.383 K0.000 F30.000
G2 X-15.250 Y-18.532 Z-3.000 I8.787 J18.090 K0.000 F30.000
G2 X-15.340 Y-17.037 Z-3.000 I0.617 J0.787 K0.000 F30.000
G1 X-9.758 Y-11.455 Z-3.000 F30.000
G1 X-11.455 Y-9.758 Z-3.000 F30.000
G1 X-17.037 Y-15.340 Z-3.000 F30.000
G2 X-18.336 Y-15.439 Z-3.000 I-0.707 J0.707 K0.000 F30.000
G2 X-21.181 Y-11.285 Z-3.000 I15.041 J13.351 K0.000 F30.000
G2 X-20.693 Y-9.870 Z-3.000 I0.871 J0.491 K0.000 F30.000
G1 X-13.399 Y-6.849 Z-3.000 F30.000
G1 X-14.317 Y-4.632 Z-3.000 F30.000
G1 X-21.611 Y-7.653 Z-3.000 F30.000
G2 X-22.849 Y-7.247 Z-3.000 I-0.383 J0.924 K0.000 F30.000
G2 X-23.887 Y-2.321 Z-3.000 I19.005 J6.578 K0.000 F30.000
G2 X-22.895 Y-1.200 Z-3.000 I0.993 J0.121 K0.000 F30.000
G1 X-15.000 Y-1.200 Z-3.000 F30.000
G1 X-15.000 Y1.200 Z-3.000 F30.000
G1 X-22.895 Y1.200 Z-3.000 F30.000
G2 X-23.883 Y2.048 Z-3.000 I0.000 J1.000 K0.000 F30.000
G2 X-22.957 Y6.997 Z-3.000 I20.076 J-1.195 K0.000 F30.000
G2 X-21.611 Y7.653 Z-3.000 I0.963 J-0.268 K0.000 F30.000
G1 X-14.317 Y4.632 Z-3.000 F30.000
G1 X-13.399 Y6.849 Z-3.000 F30.000
G1 X-20.693 Y9.870 Z-3.000 F30.000
G2 X-21.281 Y11.032 Z-3.000 I0.383 J0.924 K0.000 F30.000
G2 X-18.532 Y15.250 Z-3.000 I18.090 J-8.787 K0.000 F30.000
G2 X-17.037 Y15.340 Z-3.000 I0.787 J-0.617 K0.000 F30.000
G1 X-11.455 Y9.758 Z-3.000 F30.000
G1 X-9.758 Y11.455 Z-3.000 F30.000
G1 X-15.340 Y17.037 Z-3.000 F30.000
G2 X-15.439 Y18.336 Z-3.000 I0.707 J0.707 K0.000 F30.000
G2 X-11.285 Y21.181 Z-3.000 I13.351 J-15.041 K0.000 F30.000
G2 X-9.870 Y20.693 Z-3.000 I0.491 J-0.871 K0.000 F30.000
G1 X-6.849 Y13.399 Z-3.000 F30.000
G1 X-4.632 Y14.317 Z-3.000 F30.000
G1 X-7.653 Y21.611 Z-3.000 F30.000
G2 X-7.247 Y22.849 Z-3.000 I0.924 J0.383 K0.000 F30.000
G2 X-2.321 Y23.887 Z-3.000 I6.578 J-19.005 K0.000 F30.000
G2 X-1.200 Y22.895 Z-3.000 I0.121 J-0.993 K0.000 F30.000
G1 X-1.200 Y15.000 Z-3.000 F30.000
G1 X1.200 Y15.000 Z-3.000 F30.000
G1 X1.200 Y22.895 Z-3.000 F30.000
G2 X2.048 Y23.883 Z-3.000 I1.000 J-0.000 K0.000 F30.000
G2 X6.997 Y22.957 Z-3.000 I-1.195 J-20.076 K0.000 F30.000
G2 X7.653 Y21.611 Z-3.000 I-0.268 J-0.963 K0.000 F30.000
G1 X4.632 Y14.317 Z-3.000 F30.000
G1 X6.849 Y13.399 Z-3.000 F30.000
G1 X9.870 Y20.693 Z-3.000 F30.000
G2 X11.032 Y21.281 Z-3.000 I0.924 J-0.383 K0.000 F30.000
G2 X15.250 Y18.532 Z-3.000 I-8.787 J-18.090 K0.000 F30.000
G2 X15.466 Y18.298 Z-3.000 I-0.617 J-0.787 K0.000 F30.000
G1 X15.466 Y18.298 Z-3.500 F30.000
G2 X15.340 Y17.037 Z-3.500 I-0.833 J-0.553 K0.000 F30.000
G1 X9.758 Y11.455 Z-3.500 F30.000
G1 X11.455 Y9.758 Z-3.500 F30.000
G1 X17.037 Y15.340 Z-3.500 F30.000
G2 X18.336 Y15.439 Z-3.500 I0.707 J-0.707 K0.000 F30.000
G2 X21.181 Y11.285 Z-3.500 I-15.041 J-13.351 K0.000 F30.000
G2 X20.693 Y9.870 Z-3.500 I-0.871 J-0.491 K0.000 F30.000
G1 X13.399 Y6.849 Z-3.500 F30.000
G1 X14.317 Y4.632 Z-3.500 F30.000
G1 X21.611 Y7.653 Z-3.500 F30.000
G2 X22.849 Y7.247 Z-3.500 I0.383 J-0.924 K0.000 F30.000
G2 X23.887 Y2.321 Z-3.500 I-19.005 J-6.578 K0.000 F30.000
G2 X22.895 Y1.200 Z-3.500 I-0.993 J-0.121 K0.000 F30.000
G1 X15.000 Y1.200 Z-3.500 F30.000
G1 X15.000 Y-1.200 Z-3.500 F30.000
G1 X22.895 Y-1.200 Z-3.500 F30.000
G2 X23.883 Y-2.048 Z-3.500 I-0.000 J-1.000 K0.000 F30.000
G2 X22.957 Y-6.997 Z-3.500 I-20.076 J1.195 K0.000 F30.000
G2 X21.611 Y-7.653 Z-3.500 I-0.963 J0.268 K0.000 F30.000
G1 X14.317 Y-4.632 Z-3.500 F30.000
G1 X13.399 Y-6.849 Z-3.500 F30.000
G1 X20.693 Y-9.870 Z-3.500 F30.000
G2 X21.281 Y-11.032 Z-3.500 I-0.383 J-0.924 K0.000 F30.000
G2 X18.532 Y-15.250 Z-3.500 I-18.090 J8.787 K0.000 F30.000
G2 X17.037 Y-15.340 Z-3.500 I-0.787 J0.617 K0.000 F30.000
G1 X11.455 Y-9.758 Z-3.500 F30.000
G1 X9.758 Y-11.455 Z-3.500 F30.000
G1 X15.340 Y-17.037 Z-3.500 F30.000
G2 X15.439 Y-18.336 Z-3.500 I-0.707 J-0.707 K0.000 F30.000
G2 X11.285 Y-21.181 Z-3.500 I-13.351 J15.041 K0.000 F30.000
G2 X9.870 Y-20.693 Z-3.500 I-0.491 J0.871 K0.000 F30.000
G1 X6.849 Y-13.399 Z-3.500 F30.000
G1 X4.632 Y-14.317 Z-3.500 F30.000
G1 X7.653 Y-21.611 Z-3.500 F30.000
G2 X7.247 Y-22.849 Z-3.500 I-0.924 J-0.383 K0.000 F30.000
G2 X2.321 Y-23.887 Z-3.500 I-6.578 J19.005 K0.000 F30.000
G2 X1.200 Y-22.895 Z-3.500 I-0.121 J0.993 K0.000 F30.000
G1 X1.200 Y-15.000 Z-3.500 F30.000
G1 X-1.200 Y-15.000 Z-3.500 F30.000
G1 X-1.200 Y-22.895 Z-3.500 F30.000
G2 X-2.048 Y-23.883 Z-3.500 I-1.000 J0.000 K0.000 F30.000
G2 X-6.997 Y-22.957 Z-3.500 I1.195 J20.076 K0.000 F30.000
G2 X-7.653 Y-21.611 Z-3.500 I0.268 J0.963 K0.000 F30.000
G1 X-4.632 Y-14.317 Z-3.500 F30.000
G1 X-6.849 Y-13.399 Z-3.500 F30.000
G1 X-9.870 Y-20.693 Z-3.500 F30.000
G2 X-11.032 Y-21.281 Z-3.500 I-0.924 J0.383 K0.000 F30.000
G2 X-15.250 Y-18.532 Z-3.500 I8.787 J18.090 K0.000 F30.000
G2 X-15.340 Y-17.037 Z-3.500 I0.617 J0.787 K0.000 F30.000
G1 X-9.758 Y-11.455 Z-3.500 F30.000
G1 X-11.455 Y-9.758 Z-3.500 F30.000
G1 X-17.037 Y-15.340 Z-3.500 F30.000
G2 X-18.336 Y-15.439 Z-3.500 I-0.707 J0.707 K0.000 F30.000
G2 X-21.181 Y-11.285 Z-3.500 I15.041 J13.351 K0.000 F30.000
G2 X-20.693 Y-9.870 Z-3.500 I0.871 J0.491 K0.000 F30.000
G1 X-13.399 Y-6.849 Z-3.500 F30.000
G1 X-14.317 Y-4.632 Z-3.500 F30.000
G1 X-21.611 Y-7.653 Z-3.500 F30.000
G2 X-22.849 Y-7.247 Z-3.500 I-0.383 J0.924 K0.000 F30.000
G2 X-23.887 Y-2.321 Z-3.500 I19.005 J6.578 K0.000 F30.000
G2 X-22.895 Y-1.200 Z-3.500 I0.993 J0.121 K0.000 F30.000
G1 X-15.000 Y-1.200 Z-3.500 F30.000
G1 X-15.000 Y1.200 Z-3.500 F30.000
G1 X-22.895 Y1.200 Z-3.500 F30.000
G2 X-23.883 Y2.048 Z-3.500 I0.000 J1.000 K0.000 F30.000
G2 X-22.957 Y6.997 Z-3.500 I20.076 J-1.195 K0.000 F30.000
G2 X-21.611 Y7.653 Z-3.500 I0.963 J-0.268 K0.000 F30.000
G1 X-14.317 Y4.632 Z-3.500 F30.000
G1 X-13.399 Y6.849 Z-3.500 F30.000
G1 X-20.693 Y9.870 Z-3.500 F30.000
G2 X-21.281 Y11.032 Z-3.500 I0.383 J0.924 K0.000 F30.000
G2 X-18.532 Y15.250 Z-3.500 I18.090 J-8.787 K0.000 F30.000
G2 X-17.037 Y15.340 Z-3.500 I0.787 J-0.617 K0.000 F30.000
G1 X-11.455 Y9.758 Z-3.500 F30.000
G1 X-9.758 Y11.455 Z-3.500 F30.000
G1 X-15.340 Y17.037 Z-3.500 F30.000
G2 X-15.439 Y18.336 Z-3.500 I0.707 J0.707 K0.000 F30.000
G2 X-11.285 Y21.181 Z-3.500 I13.351 J-15.041 K0.000 F30.000
G2 X-9.870 Y20.693 Z-3.500 I0.491 J-0.871 K0.000 F30.000
G1 X-6.849 Y13.399 Z-3.500 F30.000
G1 X-4.632 Y14.317 Z-3.500 F30.000
G1 X-7.653 Y21.611 Z-3.500 F30.000
G2 X-7.247 Y22.849 Z-3.500 I0.924 J0.383 K0.000 F30.000
G2 X-2.321 Y23.887 Z-3.500 I6.578 J-19.005 K0.000 F30.000
G2 X-1.200 Y22.895 Z-3.500 I0.121 J-0.993 K0.000 F30.000
G1 X-1.200 Y15.000 Z-3.500 F30.000
G1 X1.200 Y15.000 Z-3.500 F30.000
G1 X1.200 Y22.895 Z-3.500 F30.000
G2 X2.048 Y23.883 Z-3.500 I1.000 J-0.000 K0.000 F30.000
G2 X6.997 Y22.957 Z-3.500 I-1.195 J-20.076 K0.000 F30.000
G2 X7.653 Y21.611 Z-3.500 I-0.268 J-0.963 K0.000 F30.000
G1 X4.632 Y14.317 Z-3.500 F30.000
G1 X6.849 Y13.399 Z-3.500 F30.000
G1 X9.870 Y20.693 Z-3.500 F30.000
G2 X11.032 Y21.281 Z-3.500 I0.924 J-0.383 K0.000 F30.000
G2 X15.250 Y18.532 Z-3.500 I-8.787 J-18.090 K0.000 F30.000
G2 X15.466 Y18.298 Z-3.500 I-0.617 J-0.787 K0.000 F30.000
G1 X15.466 Y18.298 Z-4.000 F30.000
G2 X15.340 Y17.037 Z-4.000 I-0.833 J-0.553 K0.000 F30.000
G1 X9.758 Y11.455 Z-4.000 F30.000
G1 X11.455 Y9.758 Z-4.000 F30.000
G1 X17.037 Y15.340 Z-4.000 F30.000
G2 X18.336 Y15.439 Z-4.000 I0.707 J-0.707 K0.000 F30.000
G2 X21.181 Y11.285 Z-4.000 I-15.041 J-13.351 K0.000 F30.000
G2 X20.693 Y9.870 Z-4.000 I-0.871 J-0.491 K0.000 F30.000
G1 X13.399 Y6.849 Z-4.000 F30.000
G1 X14.317 Y4.632 Z-4.000 F30.000
G1 X21.611 Y7.653 Z-4.000 F30.000
G2 X22.849 Y7.247 Z-4.000 I0.383 J-0.924 K0.000 F30.000
G2 X23.887 Y2.321 Z-4.000 I-19.005 J-6.578 K0.000 F30.000
G2 X22.895 Y1.200 Z-4.000 I-0.993 J-0.121 K0.000 F30.000
G1 X15.000 Y1.200 Z-4.000 F30.000
G1 X15.000 Y-1.200 Z-4.000 F30.000
G1 X22.895 Y-1.200 Z-4.000 F30.000
G2 X23.883 Y-2.048 Z-4.000 I-0.000 J-1.000 K0.000 F30.000
G2 X22.957 Y-6.997 Z-4.000 I-20.076 J1.195 K0.000 F30.000
G2 X21.611 Y-7.653 Z-4.000 I-0.963 J0.268 K0.000 F30.000
G1 X14.317 Y-4.632 Z-4.000 F30.000
G1 X13.399 Y-6.849 Z-4.000 F30.000
G1 X20.693 Y-9.870 Z-4.000 F30.000
G2 X21.281 Y-11.032 Z-4.000 I-0.383 J-0.924 K0.000 F30.000
G2 X18.532 Y-15.250 Z-4.000 I-18.090 J8.787 K0.000 F30.000
G2 X17.037 Y-15.340 Z-4.000 I-0.787 J0.617 K0.000 F30.000
G1 X11.455 Y-9.758 Z-4.000 F30.000
G1 X9.758 Y-11.455 Z-4.000 F30.000
G1 X15.340 Y-17.037 Z-4.000 F30.000
G2 X15.439 Y-18.336 Z-4.000 I-0.707 J-0.707 K0.000 F30.000
G2 X11.285 Y-21.181 Z-4.000 I-13.351 J15.041 K0.000 F30.000
G2 X9.870 Y-20.693 Z-4.000 I-0.491 J0.871 K0.000 F30.000
G1 X6.849 Y-13.399 Z-4.000 F30.000
G1 X4.632 Y-14.317 Z-4.000 F30.000
G1 X7.653 Y-21.611 Z-4.000 F30.000
G2 X7.247 Y-22.849 Z-4.000 I-0.924 J-0.383 K0.000 F30.000
G2 X2.321 Y-23.887 Z-4.000 I-6.578 J19.005 K0.000 F30.000
G2 X1.200 Y-22.895 Z-4.000 I-0.121 J0.993 K0.000 F30.000
G1 X1.200 Y-15.000 Z-4.000 F30.000
G1 X-1.200 Y-15.000 Z-4.000 F30.000
G1 X-1.200 Y-22.895 Z-4.000 F30.000
G2 X-2.048 Y-23.883 Z-4.000 I-1.000 J0.000 K0.000 F30.000
G2 X-6.997 Y-22.957 Z-4.000 I1.195 J20.076 K0.000 F30.000
G2 X-7.653 Y-21.611 Z-4.000 I0.268 J0.963 K0.000 F30.000
G1 X-4.632 Y-14.317 Z-4.000 F30.000
G1 X-6.849 Y-13.399 Z-4.000 F30.000
G1 X-9.870 Y-20.693 Z-4.000 F30.000
G2 X-11.032 Y-21.281 Z-4.000 I-0.924 J0.383 K0.000 F30.000
G2 X-15.250 Y-18.532 Z-4.000 I8.787 J18.090 K0.000 F30.000
G2 X-15.340 Y-17.037 Z-4.000 I0.617 J0.787 K0.000 F30.000
G1 X-9.758 Y-11.455 Z-4.000 F30.000
G1 X-11.455 Y-9.758 Z-4.000 F30.000
G1 X-17.037 Y-15.340 Z-4.000 F30.000
G2 X-18.336 Y-15.439 Z-4.000 I-0.707 J0.707 K0.000 F30.000
G2 X-21.181 Y-11.285 Z-4.000 I15.041 J13.351 K0.000 F30.000
G2 X-20.693 Y-9.870 Z-4.000 I0.871 J0.491 K0.000 F30.000
G1 X-13.399 Y-6.849 Z-4.000 F30.000
G1 X-14.317 Y-4.632 Z-4.000 F30.000
G1 X-21.611 Y-7.653 Z-4.000 F30.000
G2 X-22.849 Y-7.247 Z-4.000 I-0.383 J0.924 K0.000 F30.000
G2 X-23.887 Y-2.321 Z-4.000 I19.005 J6.578 K0.000 F30.000
G2 X-22.895 Y-1.200 Z-4.000 I0.993 J0.121 K0.000 F30.000
G1 X-15.000 Y-1.200 Z-4.000 F30.000
G1 X-15.000 Y1.200 Z-4.000 F30.000
G1 X-22.895 Y1.200 Z-4.000 F30.000
G2 X-23.883 Y2.048 Z-4.000 I0.000 J1.000 K0.000 F30.000
G2 X-22.957 Y6.997 Z-4.000 I20.076 J-1.195 K0.000 F30.000
G2 X-21.611 Y7.653 Z-4.000 I0.963 J-0.268 K0.000 F30.000
G1 X-14.317 Y4.632 Z-4.000 F30.000
G1 X-13.399 Y6.849 Z-4.000 F30.000
G1 X-20.693 Y9.870 Z-4.000 F30.000
G2 X-21.281 Y11.032 Z-4.000 I0.383 J0.924 K0.000 F30.000
G2 X-18.532 Y15.250 Z-4.000 I18.090 J-8.787 K0.000 F30.000
G2 X-17.037 Y15.340 Z-4.000 I0.787 J-0.617 K0.000 F30.000
G1 X-11.455 Y9.758 Z-4.000 F30.000
G1 X-9.758 Y11.455 Z-4.000 F30.000
G1 X-15.340 Y17.037 Z-4.000 F30.000
G2 X-15.439 Y18.336 Z-4.000 I0.707 J0.707 K0.000 F30.000
G2 X-11.285 Y21.181 Z-4.000 I13.351 J-15.041 K0.000 F30.000
G2 X-9.870 Y20.693 Z-4.000 I0.491 J-0.871 K0.000 F30.000
G1 X-6.849 Y13.399 Z-4.000 F30.000
G1 X-4.632 Y14.317 Z-4.000 F30.000
G1 X-7.653 Y21.611 Z-4.000 F30.000
G2 X-7.247 Y22.849 Z-4.000 I0.924 J0.383 K0.000 F30.000
G2 X-2.321 Y23.887 Z-4.000 I6.578 J-19.005 K0.000 F30.000
G2 X-1.200 Y22.895 Z-4.000 I0.121 J-0.993 K0.000 F30.000
G1 X-1.200 Y15.000 Z-4.000 F30.000
G1 X1.200 Y15.000 Z-4.000 F30.000
G1 X1.200 Y22.895 Z-4.000 F30.000
G2 X2.048 Y23.883 Z-4.000 I1.000 J-0.000 K0.000 F30.000
G2 X6.997 Y22.957 Z-4.000 I-1.195 J-20.076 K0.000 F30.000
G2 X7.653 Y21.611 Z-4.000 I-0.268 J-0.963 K0.000 F30.000
G1 X4.632 Y14.317 Z-4.000 F30.000
G1 X6.849 Y13.399 Z-4.000 F30.000
G1 X9.870 Y20.693 Z-4.000 F30.000
G2 X11.032 Y21.281 Z-4.000 I0.924 J-0.383 K0.000 F30.000
G2 X15.250 Y18.532 Z-4.000 I-8.787 J-18.090 K0.000 F30.000
G2 X15.466 Y18.298 Z-4.000 I-0.617 J-0.787 K0.000 F30.000
G1 X15.466 Y18.298 Z-4.500 F30.000
G2 X15.340 Y17.037 Z-4.500 I-0.833 J-0.553 K0.000 F30.000
G1 X9.758 Y11.455 Z-4.500 F30.000
G1 X11.455 Y9.758 Z-4.500 F30.000
G1 X17.037 Y15.340 Z-4.500 F30.000
G2 X18.336 Y15.439 Z-4.500 I0.707 J-0.707 K0.000 F30.000
G2 X21.181 Y11.285 Z-4.500 I-15.041 J-13.351 K0.000 F30.000
G2 X20.693 Y9.870 Z-4.500 I-0.871 J-0.491 K0.000 F30.000
G1 X13.399 Y6.849 Z-4.500 F30.000
G1 X14.317 Y4.632 Z-4.500 F30.000
G1 X21.611 Y7.653 Z-4.500 F30.000
G2 X22.849 Y7.247 Z-4.500 I0.383 J-0.924 K0.000 F30.000
G2 X23.887 Y2.321 Z-4.500 I-19.005 J-6.578 K0.000 F30.000
G2 X22.895 Y1.200 Z-4.500 I-0.993 J-0.121 K0.000 F30.000
G1 X15.000 Y1.200 Z-4.500 F30.000
G1 X15.000 Y-1.200 Z-4.500 F30.000
G1 X22.895 Y-1.200 Z-4.500 F30.000
G2 X23.883 Y-2.048 Z-4.500 I-0.000 J-1.000 K0.000 F30.000
G2 X22.957 Y-6.997 Z-4.500 I-20.076 J1.195 K0.000 F30.000
G2 X21.611 Y-7.653 Z-4.500 I-0.963 J0.268 K0.000 F30.000
G1 X14.317 Y-4.632 Z-4.500 F30.000
G1 X13.399 Y-6.849 Z-4.500 F30.000
G1 X20.693 Y-9.870 Z-4.500 F30.000
G2 X21.281 Y-11.032 Z-4.500 I-0.383 J-0.924 K0.000 F30.000
G2 X18.532 Y-15.250 Z-4.500 I-18.090 J8.787 K0.000 F30.000
G2 X17.037 Y-15.340 Z-4.500 I-0.787 J0.617 K0.000 F30.000
G1 X11.455 Y-9.758 Z-4.500 F30.000
G1 X9.758 Y-11.455 Z-4.500 F30.000
G1 X15.340 Y-17.037 Z-4.500 F30.000
G2 X15.439 Y-18.336 Z-4.500 I-0.707 J-0.707 K0.000 F30.000
G2 X11.285 Y-21.181 Z-4.500 I-13.351 J15.041 K0.000 F30.000
G2 X9.870 Y-20.693 Z-4.500 I-0.491 J0.871 K0.000 F30.000
G1 X6.849 Y-13.399 Z-4.500 F30.000
G1 X4.632 Y-14.317 Z-4.500 F30.000
G1 X7.653 Y-21.611 Z-4.500 F30.000
G2 X7.247 Y-22.849 Z-4.500 I-0.924 J-0.383 K0.000 F30.000
G2 X2.321 Y-23.887 Z-4.500 I-6.578 J19.005 K0.000 F30.000
G2 X1.200 Y-22.895 Z-4.500 I-0.121 J0.993 K0.000 F30.000
G1 X1.200 Y-15.000 Z-4.500 F30.000
G1 X-1.200 Y-15.000 Z-4.500 F30.000
G1 X-1.200 Y-22.895 Z-4.500 F30.000
G2 X-2.048 Y-23.883 Z-4.500 I-1.000 J0.000 K0.000 F30.000
G2 X-6.997 Y-22.957 Z-4.500 I1.195 J20.076 K0.000 F30.000
G2 X-7.653 Y-21.611 Z-4.500 I0.268 J0.963 K0.000 F30.000
G1 X-4.632 Y-14.317 Z-4.500 F30.000
G1 X-6.849 Y-13.399 Z-4.500 F30.000
G1 X-9.870 Y-20.693 Z-4.500 F30.000
G2 X-11.032 Y-21.281 Z-4.500 I-0.924 J0.383 K0.000 F30.000
G2 X-15.250 Y-18.532 Z-4.500 I8.787 J18.090 K0.000 F30.000
G2 X-15.340 Y-17.037 Z-4.500 I0.617 J0.787 K0.000 F30.000
G1 X-9.758 Y-11.455 Z-4.500 F30.000
G1 X-11.455 Y-9.758 Z-4.500 F30.000
G1 X-17.037 Y-15.340 Z-4.500 F30.000
G2 X-18.336 Y-15.439 Z-4.500 I-0.707 J0.707 K0.000 F30.000
G2 X-21.181 Y-11.285 Z-4.500 I15.041 J13.351 K0.000 F30.000
G2 X-20.693 Y-9.870 Z-4.500 I0.871 J0.491 K0.000 F30.000
G1 X-13.399 Y-6.849 Z-4.500 F30.000
G1 X-14.317 Y-4.632 Z-4.500 F30.000
G1 X-21.611 Y-7.653 Z-4.500 F30.000
G2 X-22.849 Y-7.247 Z-4.500 I-0.383 J0.924 K0.000 F30.000
G2 X-23.887 Y-2.321 Z-4.500 I19.005 J6.578 K0.000 F30.000
G2 X-22.895 Y-1.200 Z-4.500 I0.993 J0.121 K0.000 F30.000
G1 X-15.000 Y-1.200 Z-4.500 F30.000
G1 X-15.000 Y1.200 Z-4.500 F30.000
G1 X-22.895 Y1.200 Z-4.500 F30.000
G2 X-23.883 Y2.048 Z-4.500 I0.000 J1.000 K0.000 F30.000
G2 X-22.957 Y6.997 Z-4.500 I20.076 J-1.195 K0.000 F30.000
G2 X-21.611 Y7.653 Z-4.500 I0.963 J-0.268 K0.000 F30.000
G1 X-14.317 Y4.632 Z-4.500 F30.000
G1 X-13.399 Y6.849 Z-4.500 F30.000
G1 X-20.693 Y9.870 Z-4.500 F30.000
G2 X-21.281 Y11.032 Z-4.500 I0.383 J0.924 K0.000 F30.000
G2 X-18.532 Y15.250 Z-4.500 I18.090 J-8.787 K0.000 F30.000
G2 X-17.037 Y15.340 Z-4.500 I0.787 J-0.617 K0.000 F30.000
G1 X-11.455 Y9.758 Z-4.500 F30.000
G1 X-9.758 Y11.455 Z-4.500 F30.000
G1 X-15.340 Y17.037 Z-4.500 F30.000
G2 X-15.439 Y18.336 Z-4.500 I0.707 J0.707 K0.000 F30.000
G2 X-11.285 Y21.181 Z-4.500 I13.351 J-15.041 K0.000 F30.000
G2 X-9.870 Y20.693 Z-4.500 I0.491 J-0.871 K0.000 F30.000
G1 X-6.849 Y13.399 Z-4.500 F30.000
G1 X-4.632 Y14.317 Z-4.500 F30.000
G1 X-7.653 Y21.611 Z-4.500 F30.000
G2 X-7.247 Y22.849 Z-4.500 I0.924 J0.383 K0.000 F30.000
G2 X-2.321 Y23.887 Z-4.500 I6.578 J-19.005 K0.000 F30.000
G2 X-1.200 Y22.895 Z-4.500 I0.121 J-0.993 K0.000 F30.000
G1 X-1.200 Y15.000 Z-4.500 F30.000
G1 X1.200 Y15.000 Z-4.500 F30.000
G1 X1.200 Y22.895 Z-4.500 F30.000
G2 X2.048 Y23.883 Z-4.500 I1.000 J-0.000 K0.000 F30.000
G2 X6.997 Y22.957 Z-4.500 I-1.195 J-20.076 K0.000 F30.000
G2 X7.653 Y21.611 Z-4.500 I-0.268 J-0.963 K0.000 F30.000
G1 X4.632 Y14.317 Z-4.500 F30.000
G1 X6.849 Y13.399 Z-4.500 F30.000
G1 X9.870 Y20.693 Z-4.500 F30.000
G2 X11.032 Y21.281 Z-4.500 I0.924 J-0.383 K0.000 F30.000
G2 X15.250 Y18.532 Z-4.500 I-8.787 J-18.090 K0.000 F30.000
G2 X15.466 Y18.298 Z-4.500 I-0.617 J-0.787 K0.000 F30.000
G1 X15.466 Y18.298 Z-5.000 F30.000
G2 X15.340 Y17.037 Z-5.000 I-0.833 J-0.553 K0.000 F30.000
G1 X9.758 Y11.455 Z-5.000 F30.000
G1 X11.455 Y9.758 Z-5.000 F30.000
G1 X17.037 Y15.340 Z-5.000 F30.000
G2 X18.336 Y15.439 Z-5.000 I0.707 J-0.707 K0.000 F30.000
G2 X21.181 Y11.285 Z-5.000 I-15.041 J-13.351 K0.000 F30.000
G2 X20.693 Y9.870 Z-5.000 I-0.871 J-0.491 K0.000 F30.000
G1 X13.399 Y6.849 Z-5.000 F30.000
G1 X14.317 Y4.632 Z-5.000 F30.000
G1 X21.611 Y7.653 Z-5.000 F30.000
G2 X22.849 Y7.247 Z-5.000 I0.383 J-0.924 K0.000 F30.000
G2 X23.887 Y2.321 Z-5.000 I-19.005 J-6.578 K0.000 F30.000
G2 X22.895 Y1.200 Z-5.000 I-0.993 J-0.121 K0.000 F30.000
G1 X15.000 Y1.200 Z-5.000 F30.000
G1 X15.000 Y-1.200 Z-5.000 F30.000
G1 X22.895 Y-1.200 Z-5.000 F30.000
G2 X23.883 Y-2.048 Z-5.000 I-0.000 J-1.000 K0.000 F30.000
G2 X22.957 Y-6.997 Z-5.000 I-20.076 J1.195 K0.000 F30.000
G2 X21.611 Y-7.653 Z-5.000 I-0.963 J0.268 K0.000 F30.000
G1 X14.317 Y-4.632 Z-5.000 F30.000
G1 X13.399 Y-6.849 Z-5.000 F30.000
G1 X20.693 Y-9.870 Z-5.000 F30.000
G2 X21.281 Y-11.032 Z-5.000 I-0.383 J-0.924 K0.000 F30.000
G2 X18.532 Y-15.250 Z-5.000 I-18.090 J8.787 K0.000 F30.000
G2 X17.037 Y-15.340 Z-5.000 I-0.787 J0.617 K0.000 F30.000
G1 X11.455 Y-9.758 Z-5.000 F30.000
G1 X9.758 Y-11.455 Z-5.000 F30.000
G1 X15.340 Y-17.037 Z-5.000 F30.000
G2 X15.439 Y-18.336 Z-5.000 I-0.707 J-0.707 K0.000 F30.000
G2 X11.285 Y-21.181 Z-5.000 I-13.351 J15.041 K0.000 F30.000
G2 X9.870 Y-20.693 Z-5.000 I-0.491 J0.871 K0.000 F30.000
G1 X6.849 Y-13.399 Z-5.000 F30.000
G1 X4.632 Y-14.317 Z-5.000 F30.000
G1 X7.653 Y-21.611 Z-5.000 F30.000
G2 X7.247 Y-22.849 Z-5.000 I-0.924 J-0.383 K0.000 F30.000
G2 X2.321 Y-23.887 Z-5.000 I-6.578 J19.005 K0.000 F30.000
G2 X1.200 Y-22.895 Z-5.000 I-0.121 J0.993 K0.000 F30.000
G1 X1.200 Y-15.000 Z-5.000 F30.000
G1 X-1.200 Y-15.000 Z-5.000 F30.000
G1 X-1.200 Y-22.895 Z-5.000 F30.000
G2 X-2.048 Y-23.883 Z-5.000 I-1.000 J0.000 K0.000 F30.000
G2 X-6.997 Y-22.957 Z-5.000 I1.195 J20.076 K0.000 F30.000
G2 X-7.653 Y-21.611 Z-5.000 I0.268 J0.963 K0.000 F30.000
G1 X-4.632 Y-14.317 Z-5.000 F30.000
G1 X-6.849 Y-13.399 Z-5.000 F30.000
G1 X-9.870 Y-20.693 Z-5.000 F30.000
G2 X-11.032 Y-21.281 Z-5.000 I-0.924 J0.383 K0.000 F30.000
G2 X-15.250 Y-18.532 Z-5.000 I8.787 J18.090 K0.000 F30.000
G2 X-15.340 Y-17.037 Z-5.000 I0.617 J0.787 K0.000 F30.000
G1 X-9.758 Y-11.455 Z-5.000 F30.000
G1 X-11.455 Y-9.758 Z-5.000 F30.000
G1 X-17.037 Y-15.340 Z-5.000 F30.000
G2 X-18.336 Y-15.439 Z-5.000 I-0.707 J0.707 K0.000 F30.000
G2 X-21.181 Y-11.285 Z-5.000 I15.041 J13.351 K0.000 F30.000
G2 X-20.693 Y-9.870 Z-5.000 I0.871 J0.491 K0.000 F30.000
G1 X-13.399 Y-6.849 Z-5.000 F30.000
G1 X-14.317 Y-4.632 Z-5.000 F30.000
G1 X-21.611 Y-7.653 Z-5.000 F30.000
G2 X-22.849 Y-7.247 Z-5.000 I-0.383 J0.924 K0.000 F30.000
G2 X-23.887 Y-2.321 Z-5.000 I19.005 J6.578 K0.000 F30.000
G2 X-22.895 Y-1.200 Z-5.000 I0.993 J0.121 K0.000 F30.000
G1 X-15.000 Y-1.200 Z-5.000 F30.000
G1 X-15.000 Y1.200 Z-5.000 F30.000
G1 X-22.895 Y1.200 Z-5.000 F30.000
G2 X-23.883 Y2.048 Z-5.000 I0.000 J1.000 K0.000 F30.000
G2 X-22.957 Y6.997 Z-5.000 I20.076 J-1.195 K0.000 F30.000
G2 X-21.611 Y7.653 Z-5.000 I0.963 J-0.268 K0.000 F30.000
G1 X-14.317 Y4.632 Z-5.000 F30.000
G1 X-13.399 Y6.849 Z-5.000 F30.000
G1 X-20.693 Y9.870 Z-5.000 F30.000
G2 X-21.281 Y11.032 Z-5.000 I0.383 J0.924 K0.000 F30.000
G2 X-18.532 Y15.250 Z-5.000 I18.090 J-8.787 K0.000 F30.000
G2 X-17.037 Y15.340 Z-5.000 I0.787 J-0.617 K0.000 F30.000
G1 X-11.455 Y9.758 Z-5.000 F30.000
G1 X-9.758 Y11.455 Z-5.000 F30.000
G1 X-15.340 Y17.037 Z-5.000 F30.000
G2 X-15.439 Y18.336 Z-5.000 I0.707 J0.707 K0.000 F30.000
G2 X-11.285 Y21.181 Z-5.000 I13.351 J-15.041 K0.000 F30.000
G2 X-9.870 Y20.693 Z-5.000 I0.491 J-0.871 K0.000 F30.000
G1 X-6.849 Y13.399 Z-5.000 F30.000
G1 X-4.632 Y14.317 Z-5.000 F30.000
G1 X-7.653 Y21.611 Z-5.000 F30.000
G2 X-7.247 Y22.849 Z-5.000 I0.924 J0.383 K0.000 F30.000
G2 X-2.321 Y23.887 Z-5.000 I6.578 J-19.005 K0.000 F30.000
G2 X-1.200 Y22.895 Z-5.000 I0.121 J-0.993 K0.000 F30.000
G1 X-1.200 Y15.000 Z-5.000 F30.000
G1 X1.200 Y15.000 Z-5.000 F30.000
G1 X1.200 Y22.895 Z-5.000 F30.000
G2 X2.048 Y23.883 Z-5.000 I1.000 J-0.000 K0.000 F30.000
G2 X6.997 Y22.957 Z-5.000 I-1.195 J-20.076 K0.000 F30.000
G2 X7.653 Y21.611 Z-5.000 I-0.268 J-0.963 K0.000 F30.000
G1 X4.632 Y14.317 Z-5.000 F30.000
G1 X6.849 Y13.399 Z-5.000 F30.000
G1 X9.870 Y20.693 Z-5.000 F30.000
G2 X11.032 Y21.281 Z-5.000 I0.924 J-0.383 K0.000 F30.000
G2 X15.250 Y18.532 Z-5.000 I-8.787 J-18.090 K0.000 F30.000
G2 X15.466 Y18.298 Z-5.000 I-0.617 J-0.787 K0.000 F30.000
G0 Z5.000
G0 Z5.000
(Finish operation: Profile032)
(Begin postamble)
M5
G17 G90
M2
