(Exported by FreeCAD)
(Post Processor: grbl_post)
(Output Time:2025-09-20 18:45:56.105522)
(Begin preamble)
G17 G90
G21
(Begin operation: Fixture)
(Path: Fixture)
G54
(Finish operation: Fixture)
(Begin operation: 2mm-6-Endmill005)
(Path: 2mm-6-Endmill005)
(2mm-6-Endmill005)
(Begin toolchange)
( M6 T2 )
(Finish operation: 2mm-6-Endmill005)
(Begin operation: Profile032)
(Path: Profile032)
(Profile032)
(Compensated Tool Path. Diameter: 2.0)
G0 Z5.000
G0 X15.531 Y18.247
G0 Z3.000
G1 X15.531 Y18.247 Z-0.500 F30.000
G2 X15.410 Y16.980 Z-0.500 I-0.829 J-0.560 K0.000 F30.000
G1 X9.822 Y11.391 Z-0.500 F30.000
G1 X11.391 Y9.822 Z-0.500 F30.000
G1 X16.980 Y15.410 Z-0.500 F30.000
G2 X18.276 Y15.511 Z-0.500 I0.707 J-0.707 K0.000 F30.000
G2 X21.225 Y11.203 Z-0.500 I-15.184 J-13.555 K0.000 F30.000
G2 X20.735 Y9.790 Z-0.500 I-0.872 J-0.489 K0.000 F30.000
G1 X13.433 Y6.766 Z-0.500 F30.000
G1 X14.283 Y4.715 Z-0.500 F30.000
G1 X21.584 Y7.739 Z-0.500 F30.000
G2 X22.821 Y7.336 Z-0.500 I0.383 J-0.924 K0.000 F30.000
G2 X23.896 Y2.228 Z-0.500 I-19.215 J-6.712 K0.000 F30.000
G2 X22.903 Y1.110 Z-0.500 I-0.993 J-0.118 K0.000 F30.000
G1 X15.000 Y1.110 Z-0.500 F30.000
G1 X15.000 Y-1.110 Z-0.500 F30.000
G1 X22.903 Y-1.110 Z-0.500 F30.000
G2 X23.891 Y-1.955 Z-0.500 I-0.000 J-1.000 K0.000 F30.000
G2 X22.930 Y-7.086 Z-0.500 I-20.321 J1.152 K0.000 F30.000
G2 X21.584 Y-7.739 Z-0.500 I-0.963 J0.271 K0.000 F30.000
G1 X14.283 Y-4.715 Z-0.500 F30.000
G1 X13.433 Y-6.766 Z-0.500 F30.000
G1 X20.735 Y-9.790 Z-0.500 F30.000
G2 X21.324 Y-10.949 Z-0.500 I-0.383 J-0.924 K0.000 F30.000
G2 X18.472 Y-15.322 Z-0.500 I-18.334 J8.841 K0.000 F30.000
G2 X16.980 Y-15.410 Z-0.500 I-0.785 J0.619 K0.000 F30.000
G1 X11.391 Y-9.822 Z-0.500 F30.000
G1 X9.822 Y-11.391 Z-0.500 F30.000
G1 X15.410 Y-16.980 Z-0.500 F30.000
G2 X15.511 Y-18.276 Z-0.500 I-0.707 J-0.707 K0.000 F30.000
G2 X11.203 Y-21.225 Z-0.500 I-13.555 J15.184 K0.000 F30.000
G2 X9.790 Y-20.735 Z-0.500 I-0.489 J0.872 K0.000 F30.000
G1 X6.766 Y-13.433 Z-0.500 F30.000
G1 X4.715 Y-14.283 Z-0.500 F30.000
G1 X7.739 Y-21.584 Z-0.500 F30.000
G2 X7.336 Y-22.821 Z-0.500 I-0.924 J-0.383 K0.000 F30.000
G2 X2.228 Y-23.896 Z-0.500 I-6.712 J19.215 K0.000 F30.000
G2 X1.110 Y-22.903 Z-0.500 I-0.118 J0.993 K0.000 F30.000
G1 X1.110 Y-15.000 Z-0.500 F30.000
G1 X-1.110 Y-15.000 Z-0.500 F30.000
G1 X-1.110 Y-22.903 Z-0.500 F30.000
G2 X-1.955 Y-23.891 Z-0.500 I-1.000 J0.000 K0.000 F30.000
G2 X-7.086 Y-22.930 Z-0.500 I1.152 J20.321 K0.000 F30.000
G2 X-7.739 Y-21.584 Z-0.500 I0.271 J0.963 K0.000 F30.000
G1 X-4.715 Y-14.283 Z-0.500 F30.000
G1 X-6.766 Y-13.433 Z-0.500 F30.000
G1 X-9.790 Y-20.735 Z-0.500 F30.000
G2 X-10.949 Y-21.324 Z-0.500 I-0.924 J0.383 K0.000 F30.000
G2 X-15.322 Y-18.472 Z-0.500 I8.841 J18.334 K0.000 F30.000
G2 X-15.410 Y-16.980 Z-0.500 I0.619 J0.785 K0.000 F30.000
G1 X-9.822 Y-11.391 Z-0.500 F30.000
G1 X-11.391 Y-9.822 Z-0.500 F30.000
G1 X-16.980 Y-15.410 Z-0.500 F30.000
G2 X-18.276 Y-15.511 Z-0.500 I-0.707 J0.707 K0.000 F30.000
G2 X-21.225 Y-11.203 Z-0.500 I15.184 J13.555 K0.000 F30.000
G2 X-20.735 Y-9.790 Z-0.500 I0.872 J0.489 K0.000 F30.000
G1 X-13.433 Y-6.766 Z-0.500 F30.000
G1 X-14.283 Y-4.715 Z-0.500 F30.000
G1 X-21.584 Y-7.739 Z-0.500 F30.000
G2 X-22.821 Y-7.336 Z-0.500 I-0.383 J0.924 K0.000 F30.000
G2 X-23.896 Y-2.228 Z-0.500 I19.215 J6.712 K0.000 F30.000
G2 X-22.903 Y-1.110 Z-0.500 I0.993 J0.118 K0.000 F30.000
G1 X-15.000 Y-1.110 Z-0.500 F30.000
G1 X-15.000 Y1.110 Z-0.500 F30.000
G1 X-22.903 Y1.110 Z-0.500 F30.000
G2 X-23.891 Y1.955 Z-0.500 I0.000 J1.000 K0.000 F30.000
G2 X-22.930 Y7.086 Z-0.500 I20.321 J-1.152 K0.000 F30.000
G2 X-21.584 Y7.739 Z-0.500 I0.963 J-0.271 K0.000 F30.000
G1 X-14.283 Y4.715 Z-0.500 F30.000
G1 X-13.433 Y6.766 Z-0.500 F30.000
G1 X-20.735 Y9.790 Z-0.500 F30.000
G2 X-21.324 Y10.949 Z-0.500 I0.383 J0.924 K0.000 F30.000
G2 X-18.472 Y15.322 Z-0.500 I18.334 J-8.841 K0.000 F30.000
G2 X-16.980 Y15.410 Z-0.500 I0.785 J-0.619 K0.000 F30.000
G1 X-11.391 Y9.822 Z-0.500 F30.000
G1 X-9.822 Y11.391 Z-0.500 F30.000
G1 X-15.410 Y16.980 Z-0.500 F30.000
G2 X-15.511 Y18.276 Z-0.500 I0.707 J0.707 K0.000 F30.000
G2 X-11.203 Y21.225 Z-0.500 I13.555 J-15.184 K0.000 F30.000
G2 X-9.790 Y20.735 Z-0.500 I0.489 J-0.872 K0.000 F30.000
G1 X-6.766 Y13.433 Z-0.500 F30.000
G1 X-4.715 Y14.283 Z-0.500 F30.000
G1 X-7.739 Y21.584 Z-0.500 F30.000
G2 X-7.336 Y22.821 Z-0.500 I0.924 J0.383 K0.000 F30.000
G2 X-2.228 Y23.896 Z-0.500 I6.712 J-19.215 K0.000 F30.000
G2 X-1.110 Y22.903 Z-0.500 I0.118 J-0.993 K0.000 F30.000
G1 X-1.110 Y15.000 Z-0.500 F30.000
G1 X1.110 Y15.000 Z-0.500 F30.000
G1 X1.110 Y22.903 Z-0.500 F30.000
G2 X1.955 Y23.891 Z-0.500 I1.000 J0.000 K0.000 F30.000
G2 X7.086 Y22.930 Z-0.500 I-1.152 J-20.321 K0.000 F30.000
G2 X7.739 Y21.584 Z-0.500 I-0.271 J-0.963 K0.000 F30.000
G1 X4.715 Y14.283 Z-0.500 F30.000
G1 X6.766 Y13.433 Z-0.500 F30.000
G1 X9.790 Y20.735 Z-0.500 F30.000
G2 X10.949 Y21.324 Z-0.500 I0.924 J-0.383 K0.000 F30.000
G2 X15.322 Y18.472 Z-0.500 I-8.841 J-18.334 K0.000 F30.000
G2 X15.531 Y18.247 Z-0.500 I-0.619 J-0.785 K0.000 F30.000
G1 X15.531 Y18.247 Z-1.000 F30.000
G2 X15.410 Y16.980 Z-1.000 I-0.829 J-0.560 K0.000 F30.000
G1 X9.822 Y11.391 Z-1.000 F30.000
G1 X11.391 Y9.822 Z-1.000 F30.000
G1 X16.980 Y15.410 Z-1.000 F30.000
G2 X18.276 Y15.511 Z-1.000 I0.707 J-0.707 K0.000 F30.000
G2 X21.225 Y11.203 Z-1.000 I-15.184 J-13.555 K0.000 F30.000
G2 X20.735 Y9.790 Z-1.000 I-0.872 J-0.489 K0.000 F30.000
G1 X13.433 Y6.766 Z-1.000 F30.000
G1 X14.283 Y4.715 Z-1.000 F30.000
G1 X21.584 Y7.739 Z-1.000 F30.000
G2 X22.821 Y7.336 Z-1.000 I0.383 J-0.924 K0.000 F30.000
G2 X23.896 Y2.228 Z-1.000 I-19.215 J-6.712 K0.000 F30.000
G2 X22.903 Y1.110 Z-1.000 I-0.993 J-0.118 K0.000 F30.000
G1 X15.000 Y1.110 Z-1.000 F30.000
G1 X15.000 Y-1.110 Z-1.000 F30.000
G1 X22.903 Y-1.110 Z-1.000 F30.000
G2 X23.891 Y-1.955 Z-1.000 I-0.000 J-1.000 K0.000 F30.000
G2 X22.930 Y-7.086 Z-1.000 I-20.321 J1.152 K0.000 F30.000
G2 X21.584 Y-7.739 Z-1.000 I-0.963 J0.271 K0.000 F30.000
G1 X14.283 Y-4.715 Z-1.000 F30.000
G1 X13.433 Y-6.766 Z-1.000 F30.000
G1 X20.735 Y-9.790 Z-1.000 F30.000
G2 X21.324 Y-10.949 Z-1.000 I-0.383 J-0.924 K0.000 F30.000
G2 X18.472 Y-15.322 Z-1.000 I-18.334 J8.841 K0.000 F30.000
G2 X16.980 Y-15.410 Z-1.000 I-0.785 J0.619 K0.000 F30.000
G1 X11.391 Y-9.822 Z-1.000 F30.000
G1 X9.822 Y-11.391 Z-1.000 F30.000
G1 X15.410 Y-16.980 Z-1.000 F30.000
G2 X15.511 Y-18.276 Z-1.000 I-0.707 J-0.707 K0.000 F30.000
G2 X11.203 Y-21.225 Z-1.000 I-13.555 J15.184 K0.000 F30.000
G2 X9.790 Y-20.735 Z-1.000 I-0.489 J0.872 K0.000 F30.000
G1 X6.766 Y-13.433 Z-1.000 F30.000
G1 X4.715 Y-14.283 Z-1.000 F30.000
G1 X7.739 Y-21.584 Z-1.000 F30.000
G2 X7.336 Y-22.821 Z-1.000 I-0.924 J-0.383 K0.000 F30.000
G2 X2.228 Y-23.896 Z-1.000 I-6.712 J19.215 K0.000 F30.000
G2 X1.110 Y-22.903 Z-1.000 I-0.118 J0.993 K0.000 F30.000
G1 X1.110 Y-15.000 Z-1.000 F30.000
G1 X-1.110 Y-15.000 Z-1.000 F30.000
G1 X-1.110 Y-22.903 Z-1.000 F30.000
G2 X-1.955 Y-23.891 Z-1.000 I-1.000 J0.000 K0.000 F30.000
G2 X-7.086 Y-22.930 Z-1.000 I1.152 J20.321 K0.000 F30.000
G2 X-7.739 Y-21.584 Z-1.000 I0.271 J0.963 K0.000 F30.000
G1 X-4.715 Y-14.283 Z-1.000 F30.000
G1 X-6.766 Y-13.433 Z-1.000 F30.000
G1 X-9.790 Y-20.735 Z-1.000 F30.000
G2 X-10.949 Y-21.324 Z-1.000 I-0.924 J0.383 K0.000 F30.000
G2 X-15.322 Y-18.472 Z-1.000 I8.841 J18.334 K0.000 F30.000
G2 X-15.410 Y-16.980 Z-1.000 I0.619 J0.785 K0.000 F30.000
G1 X-9.822 Y-11.391 Z-1.000 F30.000
G1 X-11.391 Y-9.822 Z-1.000 F30.000
G1 X-16.980 Y-15.410 Z-1.000 F30.000
G2 X-18.276 Y-15.511 Z-1.000 I-0.707 J0.707 K0.000 F30.000
G2 X-21.225 Y-11.203 Z-1.000 I15.184 J13.555 K0.000 F30.000
G2 X-20.735 Y-9.790 Z-1.000 I0.872 J0.489 K0.000 F30.000
G1 X-13.433 Y-6.766 Z-1.000 F30.000
G1 X-14.283 Y-4.715 Z-1.000 F30.000
G1 X-21.584 Y-7.739 Z-1.000 F30.000
G2 X-22.821 Y-7.336 Z-1.000 I-0.383 J0.924 K0.000 F30.000
G2 X-23.896 Y-2.228 Z-1.000 I19.215 J6.712 K0.000 F30.000
G2 X-22.903 Y-1.110 Z-1.000 I0.993 J0.118 K0.000 F30.000
G1 X-15.000 Y-1.110 Z-1.000 F30.000
G1 X-15.000 Y1.110 Z-1.000 F30.000
G1 X-22.903 Y1.110 Z-1.000 F30.000
G2 X-23.891 Y1.955 Z-1.000 I0.000 J1.000 K0.000 F30.000
G2 X-22.930 Y7.086 Z-1.000 I20.321 J-1.152 K0.000 F30.000
G2 X-21.584 Y7.739 Z-1.000 I0.963 J-0.271 K0.000 F30.000
G1 X-14.283 Y4.715 Z-1.000 F30.000
G1 X-13.433 Y6.766 Z-1.000 F30.000
G1 X-20.735 Y9.790 Z-1.000 F30.000
G2 X-21.324 Y10.949 Z-1.000 I0.383 J0.924 K0.000 F30.000
G2 X-18.472 Y15.322 Z-1.000 I18.334 J-8.841 K0.000 F30.000
G2 X-16.980 Y15.410 Z-1.000 I0.785 J-0.619 K0.000 F30.000
G1 X-11.391 Y9.822 Z-1.000 F30.000
G1 X-9.822 Y11.391 Z-1.000 F30.000
G1 X-15.410 Y16.980 Z-1.000 F30.000
G2 X-15.511 Y18.276 Z-1.000 I0.707 J0.707 K0.000 F30.000
G2 X-11.203 Y21.225 Z-1.000 I13.555 J-15.184 K0.000 F30.000
G2 X-9.790 Y20.735 Z-1.000 I0.489 J-0.872 K0.000 F30.000
G1 X-6.766 Y13.433 Z-1.000 F30.000
G1 X-4.715 Y14.283 Z-1.000 F30.000
G1 X-7.739 Y21.584 Z-1.000 F30.000
G2 X-7.336 Y22.821 Z-1.000 I0.924 J0.383 K0.000 F30.000
G2 X-2.228 Y23.896 Z-1.000 I6.712 J-19.215 K0.000 F30.000
G2 X-1.110 Y22.903 Z-1.000 I0.118 J-0.993 K0.000 F30.000
G1 X-1.110 Y15.000 Z-1.000 F30.000
G1 X1.110 Y15.000 Z-1.000 F30.000
G1 X1.110 Y22.903 Z-1.000 F30.000
G2 X1.955 Y23.891 Z-1.000 I1.000 J0.000 K0.000 F30.000
G2 X7.086 Y22.930 Z-1.000 I-1.152 J-20.321 K0.000 F30.000
G2 X7.739 Y21.584 Z-1.000 I-0.271 J-0.963 K0.000 F30.000
G1 X4.715 Y14.283 Z-1.000 F30.000
G1 X6.766 Y13.433 Z-1.000 F30.000
G1 X9.790 Y20.735 Z-1.000 F30.000
G2 X10.949 Y21.324 Z-1.000 I0.924 J-0.383 K0.000 F30.000
G2 X15.322 Y18.472 Z-1.000 I-8.841 J-18.334 K0.000 F30.000
G2 X15.531 Y18.247 Z-1.000 I-0.619 J-0.785 K0.000 F30.000
G1 X15.531 Y18.247 Z-1.500 F30.000
G2 X15.410 Y16.980 Z-1.500 I-0.829 J-0.560 K0.000 F30.000
G1 X9.822 Y11.391 Z-1.500 F30.000
G1 X11.391 Y9.822 Z-1.500 F30.000
G1 X16.980 Y15.410 Z-1.500 F30.000
G2 X18.276 Y15.511 Z-1.500 I0.707 J-0.707 K0.000 F30.000
G2 X21.225 Y11.203 Z-1.500 I-15.184 J-13.555 K0.000 F30.000
G2 X20.735 Y9.790 Z-1.500 I-0.872 J-0.489 K0.000 F30.000
G1 X13.433 Y6.766 Z-1.500 F30.000
G1 X14.283 Y4.715 Z-1.500 F30.000
G1 X21.584 Y7.739 Z-1.500 F30.000
G2 X22.821 Y7.336 Z-1.500 I0.383 J-0.924 K0.000 F30.000
G2 X23.896 Y2.228 Z-1.500 I-19.215 J-6.712 K0.000 F30.000
G2 X22.903 Y1.110 Z-1.500 I-0.993 J-0.118 K0.000 F30.000
G1 X15.000 Y1.110 Z-1.500 F30.000
G1 X15.000 Y-1.110 Z-1.500 F30.000
G1 X22.903 Y-1.110 Z-1.500 F30.000
G2 X23.891 Y-1.955 Z-1.500 I-0.000 J-1.000 K0.000 F30.000
G2 X22.930 Y-7.086 Z-1.500 I-20.321 J1.152 K0.000 F30.000
G2 X21.584 Y-7.739 Z-1.500 I-0.963 J0.271 K0.000 F30.000
G1 X14.283 Y-4.715 Z-1.500 F30.000
G1 X13.433 Y-6.766 Z-1.500 F30.000
G1 X20.735 Y-9.790 Z-1.500 F30.000
G2 X21.324 Y-10.949 Z-1.500 I-0.383 J-0.924 K0.000 F30.000
G2 X18.472 Y-15.322 Z-1.500 I-18.334 J8.841 K0.000 F30.000
G2 X16.980 Y-15.410 Z-1.500 I-0.785 J0.619 K0.000 F30.000
G1 X11.391 Y-9.822 Z-1.500 F30.000
G1 X9.822 Y-11.391 Z-1.500 F30.000
G1 X15.410 Y-16.980 Z-1.500 F30.000
G2 X15.511 Y-18.276 Z-1.500 I-0.707 J-0.707 K0.000 F30.000
G2 X11.203 Y-21.225 Z-1.500 I-13.555 J15.184 K0.000 F30.000
G2 X9.790 Y-20.735 Z-1.500 I-0.489 J0.872 K0.000 F30.000
G1 X6.766 Y-13.433 Z-1.500 F30.000
G1 X4.715 Y-14.283 Z-1.500 F30.000
G1 X7.739 Y-21.584 Z-1.500 F30.000
G2 X7.336 Y-22.821 Z-1.500 I-0.924 J-0.383 K0.000 F30.000
G2 X2.228 Y-23.896 Z-1.500 I-6.712 J19.215 K0.000 F30.000
G2 X1.110 Y-22.903 Z-1.500 I-0.118 J0.993 K0.000 F30.000
G1 X1.110 Y-15.000 Z-1.500 F30.000
G1 X-1.110 Y-15.000 Z-1.500 F30.000
G1 X-1.110 Y-22.903 Z-1.500 F30.000
G2 X-1.955 Y-23.891 Z-1.500 I-1.000 J0.000 K0.000 F30.000
G2 X-7.086 Y-22.930 Z-1.500 I1.152 J20.321 K0.000 F30.000
G2 X-7.739 Y-21.584 Z-1.500 I0.271 J0.963 K0.000 F30.000
G1 X-4.715 Y-14.283 Z-1.500 F30.000
G1 X-6.766 Y-13.433 Z-1.500 F30.000
G1 X-9.790 Y-20.735 Z-1.500 F30.000
G2 X-10.949 Y-21.324 Z-1.500 I-0.924 J0.383 K0.000 F30.000
G2 X-15.322 Y-18.472 Z-1.500 I8.841 J18.334 K0.000 F30.000
G2 X-15.410 Y-16.980 Z-1.500 I0.619 J0.785 K0.000 F30.000
G1 X-9.822 Y-11.391 Z-1.500 F30.000
G1 X-11.391 Y-9.822 Z-1.500 F30.000
G1 X-16.980 Y-15.410 Z-1.500 F30.000
G2 X-18.276 Y-15.511 Z-1.500 I-0.707 J0.707 K0.000 F30.000
G2 X-21.225 Y-11.203 Z-1.500 I15.184 J13.555 K0.000 F30.000
G2 X-20.735 Y-9.790 Z-1.500 I0.872 J0.489 K0.000 F30.000
G1 X-13.433 Y-6.766 Z-1.500 F30.000
G1 X-14.283 Y-4.715 Z-1.500 F30.000
G1 X-21.584 Y-7.739 Z-1.500 F30.000
G2 X-22.821 Y-7.336 Z-1.500 I-0.383 J0.924 K0.000 F30.000
G2 X-23.896 Y-2.228 Z-1.500 I19.215 J6.712 K0.000 F30.000
G2 X-22.903 Y-1.110 Z-1.500 I0.993 J0.118 K0.000 F30.000
G1 X-15.000 Y-1.110 Z-1.500 F30.000
G1 X-15.000 Y1.110 Z-1.500 F30.000
G1 X-22.903 Y1.110 Z-1.500 F30.000
G2 X-23.891 Y1.955 Z-1.500 I0.000 J1.000 K0.000 F30.000
G2 X-22.930 Y7.086 Z-1.500 I20.321 J-1.152 K0.000 F30.000
G2 X-21.584 Y7.739 Z-1.500 I0.963 J-0.271 K0.000 F30.000
G1 X-14.283 Y4.715 Z-1.500 F30.000
G1 X-13.433 Y6.766 Z-1.500 F30.000
G1 X-20.735 Y9.790 Z-1.500 F30.000
G2 X-21.324 Y10.949 Z-1.500 I0.383 J0.924 K0.000 F30.000
G2 X-18.472 Y15.322 Z-1.500 I18.334 J-8.841 K0.000 F30.000
G2 X-16.980 Y15.410 Z-1.500 I0.785 J-0.619 K0.000 F30.000
G1 X-11.391 Y9.822 Z-1.500 F30.000
G1 X-9.822 Y11.391 Z-1.500 F30.000
G1 X-15.410 Y16.980 Z-1.500 F30.000
G2 X-15.511 Y18.276 Z-1.500 I0.707 J0.707 K0.000 F30.000
G2 X-11.203 Y21.225 Z-1.500 I13.555 J-15.184 K0.000 F30.000
G2 X-9.790 Y20.735 Z-1.500 I0.489 J-0.872 K0.000 F30.000
G1 X-6.766 Y13.433 Z-1.500 F30.000
G1 X-4.715 Y14.283 Z-1.500 F30.000
G1 X-7.739 Y21.584 Z-1.500 F30.000
G2 X-7.336 Y22.821 Z-1.500 I0.924 J0.383 K0.000 F30.000
G2 X-2.228 Y23.896 Z-1.500 I6.712 J-19.215 K0.000 F30.000
G2 X-1.110 Y22.903 Z-1.500 I0.118 J-0.993 K0.000 F30.000
G1 X-1.110 Y15.000 Z-1.500 F30.000
G1 X1.110 Y15.000 Z-1.500 F30.000
G1 X1.110 Y22.903 Z-1.500 F30.000
G2 X1.955 Y23.891 Z-1.500 I1.000 J0.000 K0.000 F30.000
G2 X7.086 Y22.930 Z-1.500 I-1.152 J-20.321 K0.000 F30.000
G2 X7.739 Y21.584 Z-1.500 I-0.271 J-0.963 K0.000 F30.000
G1 X4.715 Y14.283 Z-1.500 F30.000
G1 X6.766 Y13.433 Z-1.500 F30.000
G1 X9.790 Y20.735 Z-1.500 F30.000
G2 X10.949 Y21.324 Z-1.500 I0.924 J-0.383 K0.000 F30.000
G2 X15.322 Y18.472 Z-1.500 I-8.841 J-18.334 K0.000 F30.000
G2 X15.531 Y18.247 Z-1.500 I-0.619 J-0.785 K0.000 F30.000
G1 X15.531 Y18.247 Z-2.000 F30.000
G2 X15.410 Y16.980 Z-2.000 I-0.829 J-0.560 K0.000 F30.000
G1 X9.822 Y11.391 Z-2.000 F30.000
G1 X11.391 Y9.822 Z-2.000 F30.000
G1 X16.980 Y15.410 Z-2.000 F30.000
G2 X18.276 Y15.511 Z-2.000 I0.707 J-0.707 K0.000 F30.000
G2 X21.225 Y11.203 Z-2.000 I-15.184 J-13.555 K0.000 F30.000
G2 X20.735 Y9.790 Z-2.000 I-0.872 J-0.489 K0.000 F30.000
G1 X13.433 Y6.766 Z-2.000 F30.000
G1 X14.283 Y4.715 Z-2.000 F30.000
G1 X21.584 Y7.739 Z-2.000 F30.000
G2 X22.821 Y7.336 Z-2.000 I0.383 J-0.924 K0.000 F30.000
G2 X23.896 Y2.228 Z-2.000 I-19.215 J-6.712 K0.000 F30.000
G2 X22.903 Y1.110 Z-2.000 I-0.993 J-0.118 K0.000 F30.000
G1 X15.000 Y1.110 Z-2.000 F30.000
G1 X15.000 Y-1.110 Z-2.000 F30.000
G1 X22.903 Y-1.110 Z-2.000 F30.000
G2 X23.891 Y-1.955 Z-2.000 I-0.000 J-1.000 K0.000 F30.000
G2 X22.930 Y-7.086 Z-2.000 I-20.321 J1.152 K0.000 F30.000
G2 X21.584 Y-7.739 Z-2.000 I-0.963 J0.271 K0.000 F30.000
G1 X14.283 Y-4.715 Z-2.000 F30.000
G1 X13.433 Y-6.766 Z-2.000 F30.000
G1 X20.735 Y-9.790 Z-2.000 F30.000
G2 X21.324 Y-10.949 Z-2.000 I-0.383 J-0.924 K0.000 F30.000
G2 X18.472 Y-15.322 Z-2.000 I-18.334 J8.841 K0.000 F30.000
G2 X16.980 Y-15.410 Z-2.000 I-0.785 J0.619 K0.000 F30.000
G1 X11.391 Y-9.822 Z-2.000 F30.000
G1 X9.822 Y-11.391 Z-2.000 F30.000
G1 X15.410 Y-16.980 Z-2.000 F30.000
G2 X15.511 Y-18.276 Z-2.000 I-0.707 J-0.707 K0.000 F30.000
G2 X11.203 Y-21.225 Z-2.000 I-13.555 J15.184 K0.000 F30.000
G2 X9.790 Y-20.735 Z-2.000 I-0.489 J0.872 K0.000 F30.000
G1 X6.766 Y-13.433 Z-2.000 F30.000
G1 X4.715 Y-14.283 Z-2.000 F30.000
G1 X7.739 Y-21.584 Z-2.000 F30.000
G2 X7.336 Y-22.821 Z-2.000 I-0.924 J-0.383 K0.000 F30.000
G2 X2.228 Y-23.896 Z-2.000 I-6.712 J19.215 K0.000 F30.000
G2 X1.110 Y-22.903 Z-2.000 I-0.118 J0.993 K0.000 F30.000
G1 X1.110 Y-15.000 Z-2.000 F30.000
G1 X-1.110 Y-15.000 Z-2.000 F30.000
G1 X-1.110 Y-22.903 Z-2.000 F30.000
G2 X-1.955 Y-23.891 Z-2.000 I-1.000 J0.000 K0.000 F30.000
G2 X-7.086 Y-22.930 Z-2.000 I1.152 J20.321 K0.000 F30.000
G2 X-7.739 Y-21.584 Z-2.000 I0.271 J0.963 K0.000 F30.000
G1 X-4.715 Y-14.283 Z-2.000 F30.000
G1 X-6.766 Y-13.433 Z-2.000 F30.000
G1 X-9.790 Y-20.735 Z-2.000 F30.000
G2 X-10.949 Y-21.324 Z-2.000 I-0.924 J0.383 K0.000 F30.000
G2 X-15.322 Y-18.472 Z-2.000 I8.841 J18.334 K0.000 F30.000
G2 X-15.410 Y-16.980 Z-2.000 I0.619 J0.785 K0.000 F30.000
G1 X-9.822 Y-11.391 Z-2.000 F30.000
G1 X-11.391 Y-9.822 Z-2.000 F30.000
G1 X-16.980 Y-15.410 Z-2.000 F30.000
G2 X-18.276 Y-15.511 Z-2.000 I-0.707 J0.707 K0.000 F30.000
G2 X-21.225 Y-11.203 Z-2.000 I15.184 J13.555 K0.000 F30.000
G2 X-20.735 Y-9.790 Z-2.000 I0.872 J0.489 K0.000 F30.000
G1 X-13.433 Y-6.766 Z-2.000 F30.000
G1 X-14.283 Y-4.715 Z-2.000 F30.000
G1 X-21.584 Y-7.739 Z-2.000 F30.000
G2 X-22.821 Y-7.336 Z-2.000 I-0.383 J0.924 K0.000 F30.000
G2 X-23.896 Y-2.228 Z-2.000 I19.215 J6.712 K0.000 F30.000
G2 X-22.903 Y-1.110 Z-2.000 I0.993 J0.118 K0.000 F30.000
G1 X-15.000 Y-1.110 Z-2.000 F30.000
G1 X-15.000 Y1.110 Z-2.000 F30.000
G1 X-22.903 Y1.110 Z-2.000 F30.000
G2 X-23.891 Y1.955 Z-2.000 I0.000 J1.000 K0.000 F30.000
G2 X-22.930 Y7.086 Z-2.000 I20.321 J-1.152 K0.000 F30.000
G2 X-21.584 Y7.739 Z-2.000 I0.963 J-0.271 K0.000 F30.000
G1 X-14.283 Y4.715 Z-2.000 F30.000
G1 X-13.433 Y6.766 Z-2.000 F30.000
G1 X-20.735 Y9.790 Z-2.000 F30.000
G2 X-21.324 Y10.949 Z-2.000 I0.383 J0.924 K0.000 F30.000
G2 X-18.472 Y15.322 Z-2.000 I18.334 J-8.841 K0.000 F30.000
G2 X-16.980 Y15.410 Z-2.000 I0.785 J-0.619 K0.000 F30.000
G1 X-11.391 Y9.822 Z-2.000 F30.000
G1 X-9.822 Y11.391 Z-2.000 F30.000
G1 X-15.410 Y16.980 Z-2.000 F30.000
G2 X-15.511 Y18.276 Z-2.000 I0.707 J0.707 K0.000 F30.000
G2 X-11.203 Y21.225 Z-2.000 I13.555 J-15.184 K0.000 F30.000
G2 X-9.790 Y20.735 Z-2.000 I0.489 J-0.872 K0.000 F30.000
G1 X-6.766 Y13.433 Z-2.000 F30.000
G1 X-4.715 Y14.283 Z-2.000 F30.000
G1 X-7.739 Y21.584 Z-2.000 F30.000
G2 X-7.336 Y22.821 Z-2.000 I0.924 J0.383 K0.000 F30.000
G2 X-2.228 Y23.896 Z-2.000 I6.712 J-19.215 K0.000 F30.000
G2 X-1.110 Y22.903 Z-2.000 I0.118 J-0.993 K0.000 F30.000
G1 X-1.110 Y15.000 Z-2.000 F30.000
G1 X1.110 Y15.000 Z-2.000 F30.000
G1 X1.110 Y22.903 Z-2.000 F30.000
G2 X1.955 Y23.891 Z-2.000 I1.000 J0.000 K0.000 F30.000
G2 X7.086 Y22.930 Z-2.000 I-1.152 J-20.321 K0.000 F30.000
G2 X7.739 Y21.584 Z-2.000 I-0.271 J-0.963 K0.000 F30.000
G1 X4.715 Y14.283 Z-2.000 F30.000
G1 X6.766 Y13.433 Z-2.000 F30.000
G1 X9.790 Y20.735 Z-2.000 F30.000
G2 X10.949 Y21.324 Z-2.000 I0.924 J-0.383 K0.000 F30.000
G2 X15.322 Y18.472 Z-2.000 I-8.841 J-18.334 K0.000 F30.000
G2 X15.531 Y18.247 Z-2.000 I-0.619 J-0.785 K0.000 F30.000
G1 X15.531 Y18.247 Z-2.500 F30.000
G2 X15.410 Y16.980 Z-2.500 I-0.829 J-0.560 K0.000 F30.000
G1 X9.822 Y11.391 Z-2.500 F30.000
G1 X11.391 Y9.822 Z-2.500 F30.000
G1 X16.980 Y15.410 Z-2.500 F30.000
G2 X18.276 Y15.511 Z-2.500 I0.707 J-0.707 K0.000 F30.000
G2 X21.225 Y11.203 Z-2.500 I-15.184 J-13.555 K0.000 F30.000
G2 X20.735 Y9.790 Z-2.500 I-0.872 J-0.489 K0.000 F30.000
G1 X13.433 Y6.766 Z-2.500 F30.000
G1 X14.283 Y4.715 Z-2.500 F30.000
G1 X21.584 Y7.739 Z-2.500 F30.000
G2 X22.821 Y7.336 Z-2.500 I0.383 J-0.924 K0.000 F30.000
G2 X23.896 Y2.228 Z-2.500 I-19.215 J-6.712 K0.000 F30.000
G2 X22.903 Y1.110 Z-2.500 I-0.993 J-0.118 K0.000 F30.000
G1 X15.000 Y1.110 Z-2.500 F30.000
G1 X15.000 Y-1.110 Z-2.500 F30.000
G1 X22.903 Y-1.110 Z-2.500 F30.000
G2 X23.891 Y-1.955 Z-2.500 I-0.000 J-1.000 K0.000 F30.000
G2 X22.930 Y-7.086 Z-2.500 I-20.321 J1.152 K0.000 F30.000
G2 X21.584 Y-7.739 Z-2.500 I-0.963 J0.271 K0.000 F30.000
G1 X14.283 Y-4.715 Z-2.500 F30.000
G1 X13.433 Y-6.766 Z-2.500 F30.000
G1 X20.735 Y-9.790 Z-2.500 F30.000
G2 X21.324 Y-10.949 Z-2.500 I-0.383 J-0.924 K0.000 F30.000
G2 X18.472 Y-15.322 Z-2.500 I-18.334 J8.841 K0.000 F30.000
G2 X16.980 Y-15.410 Z-2.500 I-0.785 J0.619 K0.000 F30.000
G1 X11.391 Y-9.822 Z-2.500 F30.000
G1 X9.822 Y-11.391 Z-2.500 F30.000
G1 X15.410 Y-16.980 Z-2.500 F30.000
G2 X15.511 Y-18.276 Z-2.500 I-0.707 J-0.707 K0.000 F30.000
G2 X11.203 Y-21.225 Z-2.500 I-13.555 J15.184 K0.000 F30.000
G2 X9.790 Y-20.735 Z-2.500 I-0.489 J0.872 K0.000 F30.000
G1 X6.766 Y-13.433 Z-2.500 F30.000
G1 X4.715 Y-14.283 Z-2.500 F30.000
G1 X7.739 Y-21.584 Z-2.500 F30.000
G2 X7.336 Y-22.821 Z-2.500 I-0.924 J-0.383 K0.000 F30.000
G2 X2.228 Y-23.896 Z-2.500 I-6.712 J19.215 K0.000 F30.000
G2 X1.110 Y-22.903 Z-2.500 I-0.118 J0.993 K0.000 F30.000
G1 X1.110 Y-15.000 Z-2.500 F30.000
G1 X-1.110 Y-15.000 Z-2.500 F30.000
G1 X-1.110 Y-22.903 Z-2.500 F30.000
G2 X-1.955 Y-23.891 Z-2.500 I-1.000 J0.000 K0.000 F30.000
G2 X-7.086 Y-22.930 Z-2.500 I1.152 J20.321 K0.000 F30.000
G2 X-7.739 Y-21.584 Z-2.500 I0.271 J0.963 K0.000 F30.000
G1 X-4.715 Y-14.283 Z-2.500 F30.000
G1 X-6.766 Y-13.433 Z-2.500 F30.000
G1 X-9.790 Y-20.735 Z-2.500 F30.000
G2 X-10.949 Y-21.324 Z-2.500 I-0.924 J0.383 K0.000 F30.000
G2 X-15.322 Y-18.472 Z-2.500 I8.841 J18.334 K0.000 F30.000
G2 X-15.410 Y-16.980 Z-2.500 I0.619 J0.785 K0.000 F30.000
G1 X-9.822 Y-11.391 Z-2.500 F30.000
G1 X-11.391 Y-9.822 Z-2.500 F30.000
G1 X-16.980 Y-15.410 Z-2.500 F30.000
G2 X-18.276 Y-15.511 Z-2.500 I-0.707 J0.707 K0.000 F30.000
G2 X-21.225 Y-11.203 Z-2.500 I15.184 J13.555 K0.000 F30.000
G2 X-20.735 Y-9.790 Z-2.500 I0.872 J0.489 K0.000 F30.000
G1 X-13.433 Y-6.766 Z-2.500 F30.000
G1 X-14.283 Y-4.715 Z-2.500 F30.000
G1 X-21.584 Y-7.739 Z-2.500 F30.000
G2 X-22.821 Y-7.336 Z-2.500 I-0.383 J0.924 K0.000 F30.000
G2 X-23.896 Y-2.228 Z-2.500 I19.215 J6.712 K0.000 F30.000
G2 X-22.903 Y-1.110 Z-2.500 I0.993 J0.118 K0.000 F30.000
G1 X-15.000 Y-1.110 Z-2.500 F30.000
G1 X-15.000 Y1.110 Z-2.500 F30.000
G1 X-22.903 Y1.110 Z-2.500 F30.000
G2 X-23.891 Y1.955 Z-2.500 I0.000 J1.000 K0.000 F30.000
G2 X-22.930 Y7.086 Z-2.500 I20.321 J-1.152 K0.000 F30.000
G2 X-21.584 Y7.739 Z-2.500 I0.963 J-0.271 K0.000 F30.000
G1 X-14.283 Y4.715 Z-2.500 F30.000
G1 X-13.433 Y6.766 Z-2.500 F30.000
G1 X-20.735 Y9.790 Z-2.500 F30.000
G2 X-21.324 Y10.949 Z-2.500 I0.383 J0.924 K0.000 F30.000
G2 X-18.472 Y15.322 Z-2.500 I18.334 J-8.841 K0.000 F30.000
G2 X-16.980 Y15.410 Z-2.500 I0.785 J-0.619 K0.000 F30.000
G1 X-11.391 Y9.822 Z-2.500 F30.000
G1 X-9.822 Y11.391 Z-2.500 F30.000
G1 X-15.410 Y16.980 Z-2.500 F30.000
G2 X-15.511 Y18.276 Z-2.500 I0.707 J0.707 K0.000 F30.000
G2 X-11.203 Y21.225 Z-2.500 I13.555 J-15.184 K0.000 F30.000
G2 X-9.790 Y20.735 Z-2.500 I0.489 J-0.872 K0.000 F30.000
G1 X-6.766 Y13.433 Z-2.500 F30.000
G1 X-4.715 Y14.283 Z-2.500 F30.000
G1 X-7.739 Y21.584 Z-2.500 F30.000
G2 X-7.336 Y22.821 Z-2.500 I0.924 J0.383 K0.000 F30.000
G2 X-2.228 Y23.896 Z-2.500 I6.712 J-19.215 K0.000 F30.000
G2 X-1.110 Y22.903 Z-2.500 I0.118 J-0.993 K0.000 F30.000
G1 X-1.110 Y15.000 Z-2.500 F30.000
G1 X1.110 Y15.000 Z-2.500 F30.000
G1 X1.110 Y22.903 Z-2.500 F30.000
G2 X1.955 Y23.891 Z-2.500 I1.000 J0.000 K0.000 F30.000
G2 X7.086 Y22.930 Z-2.500 I-1.152 J-20.321 K0.000 F30.000
G2 X7.739 Y21.584 Z-2.500 I-0.271 J-0.963 K0.000 F30.000
G1 X4.715 Y14.283 Z-2.500 F30.000
G1 X6.766 Y13.433 Z-2.500 F30.000
G1 X9.790 Y20.735 Z-2.500 F30.000
G2 X10.949 Y21.324 Z-2.500 I0.924 J-0.383 K0.000 F30.000
G2 X15.322 Y18.472 Z-2.500 I-8.841 J-18.334 K0.000 F30.000
G2 X15.531 Y18.247 Z-2.500 I-0.619 J-0.785 K0.000 F30.000
G1 X15.531 Y18.247 Z-3.000 F30.000
G2 X15.410 Y16.980 Z-3.000 I-0.829 J-0.560 K0.000 F30.000
G1 X9.822 Y11.391 Z-3.000 F30.000
G1 X11.391 Y9.822 Z-3.000 F30.000
G1 X16.980 Y15.410 Z-3.000 F30.000
G2 X18.276 Y15.511 Z-3.000 I0.707 J-0.707 K0.000 F30.000
G2 X21.225 Y11.203 Z-3.000 I-15.184 J-13.555 K0.000 F30.000
G2 X20.735 Y9.790 Z-3.000 I-0.872 J-0.489 K0.000 F30.000
G1 X13.433 Y6.766 Z-3.000 F30.000
G1 X14.283 Y4.715 Z-3.000 F30.000
G1 X21.584 Y7.739 Z-3.000 F30.000
G2 X22.821 Y7.336 Z-3.000 I0.383 J-0.924 K0.000 F30.000
G2 X23.896 Y2.228 Z-3.000 I-19.215 J-6.712 K0.000 F30.000
G2 X22.903 Y1.110 Z-3.000 I-0.993 J-0.118 K0.000 F30.000
G1 X15.000 Y1.110 Z-3.000 F30.000
G1 X15.000 Y-1.110 Z-3.000 F30.000
G1 X22.903 Y-1.110 Z-3.000 F30.000
G2 X23.891 Y-1.955 Z-3.000 I-0.000 J-1.000 K0.000 F30.000
G2 X22.930 Y-7.086 Z-3.000 I-20.321 J1.152 K0.000 F30.000
G2 X21.584 Y-7.739 Z-3.000 I-0.963 J0.271 K0.000 F30.000
G1 X14.283 Y-4.715 Z-3.000 F30.000
G1 X13.433 Y-6.766 Z-3.000 F30.000
G1 X20.735 Y-9.790 Z-3.000 F30.000
G2 X21.324 Y-10.949 Z-3.000 I-0.383 J-0.924 K0.000 F30.000
G2 X18.472 Y-15.322 Z-3.000 I-18.334 J8.841 K0.000 F30.000
G2 X16.980 Y-15.410 Z-3.000 I-0.785 J0.619 K0.000 F30.000
G1 X11.391 Y-9.822 Z-3.000 F30.000
G1 X9.822 Y-11.391 Z-3.000 F30.000
G1 X15.410 Y-16.980 Z-3.000 F30.000
G2 X15.511 Y-18.276 Z-3.000 I-0.707 J-0.707 K0.000 F30.000
G2 X11.203 Y-21.225 Z-3.000 I-13.555 J15.184 K0.000 F30.000
G2 X9.790 Y-20.735 Z-3.000 I-0.489 J0.872 K0.000 F30.000
G1 X6.766 Y-13.433 Z-3.000 F30.000
G1 X4.715 Y-14.283 Z-3.000 F30.000
G1 X7.739 Y-21.584 Z-3.000 F30.000
G2 X7.336 Y-22.821 Z-3.000 I-0.924 J-0.383 K0.000 F30.000
G2 X2.228 Y-23.896 Z-3.000 I-6.712 J19.215 K0.000 F30.000
G2 X1.110 Y-22.903 Z-3.000 I-0.118 J0.993 K0.000 F30.000
G1 X1.110 Y-15.000 Z-3.000 F30.000
G1 X-1.110 Y-15.000 Z-3.000 F30.000
G1 X-1.110 Y-22.903 Z-3.000 F30.000
G2 X-1.955 Y-23.891 Z-3.000 I-1.000 J0.000 K0.000 F30.000
G2 X-7.086 Y-22.930 Z-3.000 I1.152 J20.321 K0.000 F30.000
G2 X-7.739 Y-21.584 Z-3.000 I0.271 J0.963 K0.000 F30.000
G1 X-4.715 Y-14.283 Z-3.000 F30.000
G1 X-6.766 Y-13.433 Z-3.000 F30.000
G1 X-9.790 Y-20.735 Z-3.000 F30.000
G2 X-10.949 Y-21.324 Z-3.000 I-0.924 J0.383 K0.000 F30.000
G2 X-15.322 Y-18.472 Z-3.000 I8.841 J18.334 K0.000 F30.000
G2 X-15.410 Y-16.980 Z-3.000 I0.619 J0.785 K0.000 F30.000
G1 X-9.822 Y-11.391 Z-3.000 F30.000
G1 X-11.391 Y-9.822 Z-3.000 F30.000
G1 X-16.980 Y-15.410 Z-3.000 F30.000
G2 X-18.276 Y-15.511 Z-3.000 I-0.707 J0.707 K0.000 F30.000
G2 X-21.225 Y-11.203 Z-3.000 I15.184 J13.555 K0.000 F30.000
G2 X-20.735 Y-9.790 Z-3.000 I0.872 J0.489 K0.000 F30.000
G1 X-13.433 Y-6.766 Z-3.000 F30.000
G1 X-14.283 Y-4.715 Z-3.000 F30.000
G1 X-21.584 Y-7.739 Z-3.000 F30.000
G2 X-22.821 Y-7.336 Z-3.000 I-0.383 J0.924 K0.000 F30.000
G2 X-23.896 Y-2.228 Z-3.000 I19.215 J6.712 K0.000 F30.000
G2 X-22.903 Y-1.110 Z-3.000 I0.993 J0.118 K0.000 F30.000
G1 X-15.000 Y-1.110 Z-3.000 F30.000
G1 X-15.000 Y1.110 Z-3.000 F30.000
G1 X-22.903 Y1.110 Z-3.000 F30.000
G2 X-23.891 Y1.955 Z-3.000 I0.000 J1.000 K0.000 F30.000
G2 X-22.930 Y7.086 Z-3.000 I20.321 J-1.152 K0.000 F30.000
G2 X-21.584 Y7.739 Z-3.000 I0.963 J-0.271 K0.000 F30.000
G1 X-14.283 Y4.715 Z-3.000 F30.000
G1 X-13.433 Y6.766 Z-3.000 F30.000
G1 X-20.735 Y9.790 Z-3.000 F30.000
G2 X-21.324 Y10.949 Z-3.000 I0.383 J0.924 K0.000 F30.000
G2 X-18.472 Y15.322 Z-3.000 I18.334 J-8.841 K0.000 F30.000
G2 X-16.980 Y15.410 Z-3.000 I0.785 J-0.619 K0.000 F30.000
G1 X-11.391 Y9.822 Z-3.000 F30.000
G1 X-9.822 Y11.391 Z-3.000 F30.000
G1 X-15.410 Y16.980 Z-3.000 F30.000
G2 X-15.511 Y18.276 Z-3.000 I0.707 J0.707 K0.000 F30.000
G2 X-11.203 Y21.225 Z-3.000 I13.555 J-15.184 K0.000 F30.000
G2 X-9.790 Y20.735 Z-3.000 I0.489 J-0.872 K0.000 F30.000
G1 X-6.766 Y13.433 Z-3.000 F30.000
G1 X-4.715 Y14.283 Z-3.000 F30.000
G1 X-7.739 Y21.584 Z-3.000 F30.000
G2 X-7.336 Y22.821 Z-3.000 I0.924 J0.383 K0.000 F30.000
G2 X-2.228 Y23.896 Z-3.000 I6.712 J-19.215 K0.000 F30.000
G2 X-1.110 Y22.903 Z-3.000 I0.118 J-0.993 K0.000 F30.000
G1 X-1.110 Y15.000 Z-3.000 F30.000
G1 X1.110 Y15.000 Z-3.000 F30.000
G1 X1.110 Y22.903 Z-3.000 F30.000
G2 X1.955 Y23.891 Z-3.000 I1.000 J0.000 K0.000 F30.000
G2 X7.086 Y22.930 Z-3.000 I-1.152 J-20.321 K0.000 F30.000
G2 X7.739 Y21.584 Z-3.000 I-0.271 J-0.963 K0.000 F30.000
G1 X4.715 Y14.283 Z-3.000 F30.000
G1 X6.766 Y13.433 Z-3.000 F30.000
G1 X9.790 Y20.735 Z-3.000 F30.000
G2 X10.949 Y21.324 Z-3.000 I0.924 J-0.383 K0.000 F30.000
G2 X15.322 Y18.472 Z-3.000 I-8.841 J-18.334 K0.000 F30.000
G2 X15.531 Y18.247 Z-3.000 I-0.619 J-0.785 K0.000 F30.000
G1 X15.531 Y18.247 Z-3.500 F30.000
G2 X15.410 Y16.980 Z-3.500 I-0.829 J-0.560 K0.000 F30.000
G1 X9.822 Y11.391 Z-3.500 F30.000
G1 X11.391 Y9.822 Z-3.500 F30.000
G1 X16.980 Y15.410 Z-3.500 F30.000
G2 X18.276 Y15.511 Z-3.500 I0.707 J-0.707 K0.000 F30.000
G2 X21.225 Y11.203 Z-3.500 I-15.184 J-13.555 K0.000 F30.000
G2 X20.735 Y9.790 Z-3.500 I-0.872 J-0.489 K0.000 F30.000
G1 X13.433 Y6.766 Z-3.500 F30.000
G1 X14.283 Y4.715 Z-3.500 F30.000
G1 X21.584 Y7.739 Z-3.500 F30.000
G2 X22.821 Y7.336 Z-3.500 I0.383 J-0.924 K0.000 F30.000
G2 X23.896 Y2.228 Z-3.500 I-19.215 J-6.712 K0.000 F30.000
G2 X22.903 Y1.110 Z-3.500 I-0.993 J-0.118 K0.000 F30.000
G1 X15.000 Y1.110 Z-3.500 F30.000
G1 X15.000 Y-1.110 Z-3.500 F30.000
G1 X22.903 Y-1.110 Z-3.500 F30.000
G2 X23.891 Y-1.955 Z-3.500 I-0.000 J-1.000 K0.000 F30.000
G2 X22.930 Y-7.086 Z-3.500 I-20.321 J1.152 K0.000 F30.000
G2 X21.584 Y-7.739 Z-3.500 I-0.963 J0.271 K0.000 F30.000
G1 X14.283 Y-4.715 Z-3.500 F30.000
G1 X13.433 Y-6.766 Z-3.500 F30.000
G1 X20.735 Y-9.790 Z-3.500 F30.000
G2 X21.324 Y-10.949 Z-3.500 I-0.383 J-0.924 K0.000 F30.000
G2 X18.472 Y-15.322 Z-3.500 I-18.334 J8.841 K0.000 F30.000
G2 X16.980 Y-15.410 Z-3.500 I-0.785 J0.619 K0.000 F30.000
G1 X11.391 Y-9.822 Z-3.500 F30.000
G1 X9.822 Y-11.391 Z-3.500 F30.000
G1 X15.410 Y-16.980 Z-3.500 F30.000
G2 X15.511 Y-18.276 Z-3.500 I-0.707 J-0.707 K0.000 F30.000
G2 X11.203 Y-21.225 Z-3.500 I-13.555 J15.184 K0.000 F30.000
G2 X9.790 Y-20.735 Z-3.500 I-0.489 J0.872 K0.000 F30.000
G1 X6.766 Y-13.433 Z-3.500 F30.000
G1 X4.715 Y-14.283 Z-3.500 F30.000
G1 X7.739 Y-21.584 Z-3.500 F30.000
G2 X7.336 Y-22.821 Z-3.500 I-0.924 J-0.383 K0.000 F30.000
G2 X2.228 Y-23.896 Z-3.500 I-6.712 J19.215 K0.000 F30.000
G2 X1.110 Y-22.903 Z-3.500 I-0.118 J0.993 K0.000 F30.000
G1 X1.110 Y-15.000 Z-3.500 F30.000
G1 X-1.110 Y-15.000 Z-3.500 F30.000
G1 X-1.110 Y-22.903 Z-3.500 F30.000
G2 X-1.955 Y-23.891 Z-3.500 I-1.000 J0.000 K0.000 F30.000
G2 X-7.086 Y-22.930 Z-3.500 I1.152 J20.321 K0.000 F30.000
G2 X-7.739 Y-21.584 Z-3.500 I0.271 J0.963 K0.000 F30.000
G1 X-4.715 Y-14.283 Z-3.500 F30.000
G1 X-6.766 Y-13.433 Z-3.500 F30.000
G1 X-9.790 Y-20.735 Z-3.500 F30.000
G2 X-10.949 Y-21.324 Z-3.500 I-0.924 J0.383 K0.000 F30.000
G2 X-15.322 Y-18.472 Z-3.500 I8.841 J18.334 K0.000 F30.000
G2 X-15.410 Y-16.980 Z-3.500 I0.619 J0.785 K0.000 F30.000
G1 X-9.822 Y-11.391 Z-3.500 F30.000
G1 X-11.391 Y-9.822 Z-3.500 F30.000
G1 X-16.980 Y-15.410 Z-3.500 F30.000
G2 X-18.276 Y-15.511 Z-3.500 I-0.707 J0.707 K0.000 F30.000
G2 X-21.225 Y-11.203 Z-3.500 I15.184 J13.555 K0.000 F30.000
G2 X-20.735 Y-9.790 Z-3.500 I0.872 J0.489 K0.000 F30.000
G1 X-13.433 Y-6.766 Z-3.500 F30.000
G1 X-14.283 Y-4.715 Z-3.500 F30.000
G1 X-21.584 Y-7.739 Z-3.500 F30.000
G2 X-22.821 Y-7.336 Z-3.500 I-0.383 J0.924 K0.000 F30.000
G2 X-23.896 Y-2.228 Z-3.500 I19.215 J6.712 K0.000 F30.000
G2 X-22.903 Y-1.110 Z-3.500 I0.993 J0.118 K0.000 F30.000
G1 X-15.000 Y-1.110 Z-3.500 F30.000
G1 X-15.000 Y1.110 Z-3.500 F30.000
G1 X-22.903 Y1.110 Z-3.500 F30.000
G2 X-23.891 Y1.955 Z-3.500 I0.000 J1.000 K0.000 F30.000
G2 X-22.930 Y7.086 Z-3.500 I20.321 J-1.152 K0.000 F30.000
G2 X-21.584 Y7.739 Z-3.500 I0.963 J-0.271 K0.000 F30.000
G1 X-14.283 Y4.715 Z-3.500 F30.000
G1 X-13.433 Y6.766 Z-3.500 F30.000
G1 X-20.735 Y9.790 Z-3.500 F30.000
G2 X-21.324 Y10.949 Z-3.500 I0.383 J0.924 K0.000 F30.000
G2 X-18.472 Y15.322 Z-3.500 I18.334 J-8.841 K0.000 F30.000
G2 X-16.980 Y15.410 Z-3.500 I0.785 J-0.619 K0.000 F30.000
G1 X-11.391 Y9.822 Z-3.500 F30.000
G1 X-9.822 Y11.391 Z-3.500 F30.000
G1 X-15.410 Y16.980 Z-3.500 F30.000
G2 X-15.511 Y18.276 Z-3.500 I0.707 J0.707 K0.000 F30.000
G2 X-11.203 Y21.225 Z-3.500 I13.555 J-15.184 K0.000 F30.000
G2 X-9.790 Y20.735 Z-3.500 I0.489 J-0.872 K0.000 F30.000
G1 X-6.766 Y13.433 Z-3.500 F30.000
G1 X-4.715 Y14.283 Z-3.500 F30.000
G1 X-7.739 Y21.584 Z-3.500 F30.000
G2 X-7.336 Y22.821 Z-3.500 I0.924 J0.383 K0.000 F30.000
G2 X-2.228 Y23.896 Z-3.500 I6.712 J-19.215 K0.000 F30.000
G2 X-1.110 Y22.903 Z-3.500 I0.118 J-0.993 K0.000 F30.000
G1 X-1.110 Y15.000 Z-3.500 F30.000
G1 X1.110 Y15.000 Z-3.500 F30.000
G1 X1.110 Y22.903 Z-3.500 F30.000
G2 X1.955 Y23.891 Z-3.500 I1.000 J0.000 K0.000 F30.000
G2 X7.086 Y22.930 Z-3.500 I-1.152 J-20.321 K0.000 F30.000
G2 X7.739 Y21.584 Z-3.500 I-0.271 J-0.963 K0.000 F30.000
G1 X4.715 Y14.283 Z-3.500 F30.000
G1 X6.766 Y13.433 Z-3.500 F30.000
G1 X9.790 Y20.735 Z-3.500 F30.000
G2 X10.949 Y21.324 Z-3.500 I0.924 J-0.383 K0.000 F30.000
G2 X15.322 Y18.472 Z-3.500 I-8.841 J-18.334 K0.000 F30.000
G2 X15.531 Y18.247 Z-3.500 I-0.619 J-0.785 K0.000 F30.000
G1 X15.531 Y18.247 Z-4.000 F30.000
G2 X15.410 Y16.980 Z-4.000 I-0.829 J-0.560 K0.000 F30.000
G1 X9.822 Y11.391 Z-4.000 F30.000
G1 X11.391 Y9.822 Z-4.000 F30.000
G1 X16.980 Y15.410 Z-4.000 F30.000
G2 X18.276 Y15.511 Z-4.000 I0.707 J-0.707 K0.000 F30.000
G2 X21.225 Y11.203 Z-4.000 I-15.184 J-13.555 K0.000 F30.000
G2 X20.735 Y9.790 Z-4.000 I-0.872 J-0.489 K0.000 F30.000
G1 X13.433 Y6.766 Z-4.000 F30.000
G1 X14.283 Y4.715 Z-4.000 F30.000
G1 X21.584 Y7.739 Z-4.000 F30.000
G2 X22.821 Y7.336 Z-4.000 I0.383 J-0.924 K0.000 F30.000
G2 X23.896 Y2.228 Z-4.000 I-19.215 J-6.712 K0.000 F30.000
G2 X22.903 Y1.110 Z-4.000 I-0.993 J-0.118 K0.000 F30.000
G1 X15.000 Y1.110 Z-4.000 F30.000
G1 X15.000 Y-1.110 Z-4.000 F30.000
G1 X22.903 Y-1.110 Z-4.000 F30.000
G2 X23.891 Y-1.955 Z-4.000 I-0.000 J-1.000 K0.000 F30.000
G2 X22.930 Y-7.086 Z-4.000 I-20.321 J1.152 K0.000 F30.000
G2 X21.584 Y-7.739 Z-4.000 I-0.963 J0.271 K0.000 F30.000
G1 X14.283 Y-4.715 Z-4.000 F30.000
G1 X13.433 Y-6.766 Z-4.000 F30.000
G1 X20.735 Y-9.790 Z-4.000 F30.000
G2 X21.324 Y-10.949 Z-4.000 I-0.383 J-0.924 K0.000 F30.000
G2 X18.472 Y-15.322 Z-4.000 I-18.334 J8.841 K0.000 F30.000
G2 X16.980 Y-15.410 Z-4.000 I-0.785 J0.619 K0.000 F30.000
G1 X11.391 Y-9.822 Z-4.000 F30.000
G1 X9.822 Y-11.391 Z-4.000 F30.000
G1 X15.410 Y-16.980 Z-4.000 F30.000
G2 X15.511 Y-18.276 Z-4.000 I-0.707 J-0.707 K0.000 F30.000
G2 X11.203 Y-21.225 Z-4.000 I-13.555 J15.184 K0.000 F30.000
G2 X9.790 Y-20.735 Z-4.000 I-0.489 J0.872 K0.000 F30.000
G1 X6.766 Y-13.433 Z-4.000 F30.000
G1 X4.715 Y-14.283 Z-4.000 F30.000
G1 X7.739 Y-21.584 Z-4.000 F30.000
G2 X7.336 Y-22.821 Z-4.000 I-0.924 J-0.383 K0.000 F30.000
G2 X2.228 Y-23.896 Z-4.000 I-6.712 J19.215 K0.000 F30.000
G2 X1.110 Y-22.903 Z-4.000 I-0.118 J0.993 K0.000 F30.000
G1 X1.110 Y-15.000 Z-4.000 F30.000
G1 X-1.110 Y-15.000 Z-4.000 F30.000
G1 X-1.110 Y-22.903 Z-4.000 F30.000
G2 X-1.955 Y-23.891 Z-4.000 I-1.000 J0.000 K0.000 F30.000
G2 X-7.086 Y-22.930 Z-4.000 I1.152 J20.321 K0.000 F30.000
G2 X-7.739 Y-21.584 Z-4.000 I0.271 J0.963 K0.000 F30.000
G1 X-4.715 Y-14.283 Z-4.000 F30.000
G1 X-6.766 Y-13.433 Z-4.000 F30.000
G1 X-9.790 Y-20.735 Z-4.000 F30.000
G2 X-10.949 Y-21.324 Z-4.000 I-0.924 J0.383 K0.000 F30.000
G2 X-15.322 Y-18.472 Z-4.000 I8.841 J18.334 K0.000 F30.000
G2 X-15.410 Y-16.980 Z-4.000 I0.619 J0.785 K0.000 F30.000
G1 X-9.822 Y-11.391 Z-4.000 F30.000
G1 X-11.391 Y-9.822 Z-4.000 F30.000
G1 X-16.980 Y-15.410 Z-4.000 F30.000
G2 X-18.276 Y-15.511 Z-4.000 I-0.707 J0.707 K0.000 F30.000
G2 X-21.225 Y-11.203 Z-4.000 I15.184 J13.555 K0.000 F30.000
G2 X-20.735 Y-9.790 Z-4.000 I0.872 J0.489 K0.000 F30.000
G1 X-13.433 Y-6.766 Z-4.000 F30.000
G1 X-14.283 Y-4.715 Z-4.000 F30.000
G1 X-21.584 Y-7.739 Z-4.000 F30.000
G2 X-22.821 Y-7.336 Z-4.000 I-0.383 J0.924 K0.000 F30.000
G2 X-23.896 Y-2.228 Z-4.000 I19.215 J6.712 K0.000 F30.000
G2 X-22.903 Y-1.110 Z-4.000 I0.993 J0.118 K0.000 F30.000
G1 X-15.000 Y-1.110 Z-4.000 F30.000
G1 X-15.000 Y1.110 Z-4.000 F30.000
G1 X-22.903 Y1.110 Z-4.000 F30.000
G2 X-23.891 Y1.955 Z-4.000 I0.000 J1.000 K0.000 F30.000
G2 X-22.930 Y7.086 Z-4.000 I20.321 J-1.152 K0.000 F30.000
G2 X-21.584 Y7.739 Z-4.000 I0.963 J-0.271 K0.000 F30.000
G1 X-14.283 Y4.715 Z-4.000 F30.000
G1 X-13.433 Y6.766 Z-4.000 F30.000
G1 X-20.735 Y9.790 Z-4.000 F30.000
G2 X-21.324 Y10.949 Z-4.000 I0.383 J0.924 K0.000 F30.000
G2 X-18.472 Y15.322 Z-4.000 I18.334 J-8.841 K0.000 F30.000
G2 X-16.980 Y15.410 Z-4.000 I0.785 J-0.619 K0.000 F30.000
G1 X-11.391 Y9.822 Z-4.000 F30.000
G1 X-9.822 Y11.391 Z-4.000 F30.000
G1 X-15.410 Y16.980 Z-4.000 F30.000
G2 X-15.511 Y18.276 Z-4.000 I0.707 J0.707 K0.000 F30.000
G2 X-11.203 Y21.225 Z-4.000 I13.555 J-15.184 K0.000 F30.000
G2 X-9.790 Y20.735 Z-4.000 I0.489 J-0.872 K0.000 F30.000
G1 X-6.766 Y13.433 Z-4.000 F30.000
G1 X-4.715 Y14.283 Z-4.000 F30.000
G1 X-7.739 Y21.584 Z-4.000 F30.000
G2 X-7.336 Y22.821 Z-4.000 I0.924 J0.383 K0.000 F30.000
G2 X-2.228 Y23.896 Z-4.000 I6.712 J-19.215 K0.000 F30.000
G2 X-1.110 Y22.903 Z-4.000 I0.118 J-0.993 K0.000 F30.000
G1 X-1.110 Y15.000 Z-4.000 F30.000
G1 X1.110 Y15.000 Z-4.000 F30.000
G1 X1.110 Y22.903 Z-4.000 F30.000
G2 X1.955 Y23.891 Z-4.000 I1.000 J0.000 K0.000 F30.000
G2 X7.086 Y22.930 Z-4.000 I-1.152 J-20.321 K0.000 F30.000
G2 X7.739 Y21.584 Z-4.000 I-0.271 J-0.963 K0.000 F30.000
G1 X4.715 Y14.283 Z-4.000 F30.000
G1 X6.766 Y13.433 Z-4.000 F30.000
G1 X9.790 Y20.735 Z-4.000 F30.000
G2 X10.949 Y21.324 Z-4.000 I0.924 J-0.383 K0.000 F30.000
G2 X15.322 Y18.472 Z-4.000 I-8.841 J-18.334 K0.000 F30.000
G2 X15.531 Y18.247 Z-4.000 I-0.619 J-0.785 K0.000 F30.000
G1 X15.531 Y18.247 Z-4.500 F30.000
G2 X15.410 Y16.980 Z-4.500 I-0.829 J-0.560 K0.000 F30.000
G1 X9.822 Y11.391 Z-4.500 F30.000
G1 X11.391 Y9.822 Z-4.500 F30.000
G1 X16.980 Y15.410 Z-4.500 F30.000
G2 X18.276 Y15.511 Z-4.500 I0.707 J-0.707 K0.000 F30.000
G2 X21.225 Y11.203 Z-4.500 I-15.184 J-13.555 K0.000 F30.000
G2 X20.735 Y9.790 Z-4.500 I-0.872 J-0.489 K0.000 F30.000
G1 X13.433 Y6.766 Z-4.500 F30.000
G1 X14.283 Y4.715 Z-4.500 F30.000
G1 X21.584 Y7.739 Z-4.500 F30.000
G2 X22.821 Y7.336 Z-4.500 I0.383 J-0.924 K0.000 F30.000
G2 X23.896 Y2.228 Z-4.500 I-19.215 J-6.712 K0.000 F30.000
G2 X22.903 Y1.110 Z-4.500 I-0.993 J-0.118 K0.000 F30.000
G1 X15.000 Y1.110 Z-4.500 F30.000
G1 X15.000 Y-1.110 Z-4.500 F30.000
G1 X22.903 Y-1.110 Z-4.500 F30.000
G2 X23.891 Y-1.955 Z-4.500 I-0.000 J-1.000 K0.000 F30.000
G2 X22.930 Y-7.086 Z-4.500 I-20.321 J1.152 K0.000 F30.000
G2 X21.584 Y-7.739 Z-4.500 I-0.963 J0.271 K0.000 F30.000
G1 X14.283 Y-4.715 Z-4.500 F30.000
G1 X13.433 Y-6.766 Z-4.500 F30.000
G1 X20.735 Y-9.790 Z-4.500 F30.000
G2 X21.324 Y-10.949 Z-4.500 I-0.383 J-0.924 K0.000 F30.000
G2 X18.472 Y-15.322 Z-4.500 I-18.334 J8.841 K0.000 F30.000
G2 X16.980 Y-15.410 Z-4.500 I-0.785 J0.619 K0.000 F30.000
G1 X11.391 Y-9.822 Z-4.500 F30.000
G1 X9.822 Y-11.391 Z-4.500 F30.000
G1 X15.410 Y-16.980 Z-4.500 F30.000
G2 X15.511 Y-18.276 Z-4.500 I-0.707 J-0.707 K0.000 F30.000
G2 X11.203 Y-21.225 Z-4.500 I-13.555 J15.184 K0.000 F30.000
G2 X9.790 Y-20.735 Z-4.500 I-0.489 J0.872 K0.000 F30.000
G1 X6.766 Y-13.433 Z-4.500 F30.000
G1 X4.715 Y-14.283 Z-4.500 F30.000
G1 X7.739 Y-21.584 Z-4.500 F30.000
G2 X7.336 Y-22.821 Z-4.500 I-0.924 J-0.383 K0.000 F30.000
G2 X2.228 Y-23.896 Z-4.500 I-6.712 J19.215 K0.000 F30.000
G2 X1.110 Y-22.903 Z-4.500 I-0.118 J0.993 K0.000 F30.000
G1 X1.110 Y-15.000 Z-4.500 F30.000
G1 X-1.110 Y-15.000 Z-4.500 F30.000
G1 X-1.110 Y-22.903 Z-4.500 F30.000
G2 X-1.955 Y-23.891 Z-4.500 I-1.000 J0.000 K0.000 F30.000
G2 X-7.086 Y-22.930 Z-4.500 I1.152 J20.321 K0.000 F30.000
G2 X-7.739 Y-21.584 Z-4.500 I0.271 J0.963 K0.000 F30.000
G1 X-4.715 Y-14.283 Z-4.500 F30.000
G1 X-6.766 Y-13.433 Z-4.500 F30.000
G1 X-9.790 Y-20.735 Z-4.500 F30.000
G2 X-10.949 Y-21.324 Z-4.500 I-0.924 J0.383 K0.000 F30.000
G2 X-15.322 Y-18.472 Z-4.500 I8.841 J18.334 K0.000 F30.000
G2 X-15.410 Y-16.980 Z-4.500 I0.619 J0.785 K0.000 F30.000
G1 X-9.822 Y-11.391 Z-4.500 F30.000
G1 X-11.391 Y-9.822 Z-4.500 F30.000
G1 X-16.980 Y-15.410 Z-4.500 F30.000
G2 X-18.276 Y-15.511 Z-4.500 I-0.707 J0.707 K0.000 F30.000
G2 X-21.225 Y-11.203 Z-4.500 I15.184 J13.555 K0.000 F30.000
G2 X-20.735 Y-9.790 Z-4.500 I0.872 J0.489 K0.000 F30.000
G1 X-13.433 Y-6.766 Z-4.500 F30.000
G1 X-14.283 Y-4.715 Z-4.500 F30.000
G1 X-21.584 Y-7.739 Z-4.500 F30.000
G2 X-22.821 Y-7.336 Z-4.500 I-0.383 J0.924 K0.000 F30.000
G2 X-23.896 Y-2.228 Z-4.500 I19.215 J6.712 K0.000 F30.000
G2 X-22.903 Y-1.110 Z-4.500 I0.993 J0.118 K0.000 F30.000
G1 X-15.000 Y-1.110 Z-4.500 F30.000
G1 X-15.000 Y1.110 Z-4.500 F30.000
G1 X-22.903 Y1.110 Z-4.500 F30.000
G2 X-23.891 Y1.955 Z-4.500 I0.000 J1.000 K0.000 F30.000
G2 X-22.930 Y7.086 Z-4.500 I20.321 J-1.152 K0.000 F30.000
G2 X-21.584 Y7.739 Z-4.500 I0.963 J-0.271 K0.000 F30.000
G1 X-14.283 Y4.715 Z-4.500 F30.000
G1 X-13.433 Y6.766 Z-4.500 F30.000
G1 X-20.735 Y9.790 Z-4.500 F30.000
G2 X-21.324 Y10.949 Z-4.500 I0.383 J0.924 K0.000 F30.000
G2 X-18.472 Y15.322 Z-4.500 I18.334 J-8.841 K0.000 F30.000
G2 X-16.980 Y15.410 Z-4.500 I0.785 J-0.619 K0.000 F30.000
G1 X-11.391 Y9.822 Z-4.500 F30.000
G1 X-9.822 Y11.391 Z-4.500 F30.000
G1 X-15.410 Y16.980 Z-4.500 F30.000
G2 X-15.511 Y18.276 Z-4.500 I0.707 J0.707 K0.000 F30.000
G2 X-11.203 Y21.225 Z-4.500 I13.555 J-15.184 K0.000 F30.000
G2 X-9.790 Y20.735 Z-4.500 I0.489 J-0.872 K0.000 F30.000
G1 X-6.766 Y13.433 Z-4.500 F30.000
G1 X-4.715 Y14.283 Z-4.500 F30.000
G1 X-7.739 Y21.584 Z-4.500 F30.000
G2 X-7.336 Y22.821 Z-4.500 I0.924 J0.383 K0.000 F30.000
G2 X-2.228 Y23.896 Z-4.500 I6.712 J-19.215 K0.000 F30.000
G2 X-1.110 Y22.903 Z-4.500 I0.118 J-0.993 K0.000 F30.000
G1 X-1.110 Y15.000 Z-4.500 F30.000
G1 X1.110 Y15.000 Z-4.500 F30.000
G1 X1.110 Y22.903 Z-4.500 F30.000
G2 X1.955 Y23.891 Z-4.500 I1.000 J0.000 K0.000 F30.000
G2 X7.086 Y22.930 Z-4.500 I-1.152 J-20.321 K0.000 F30.000
G2 X7.739 Y21.584 Z-4.500 I-0.271 J-0.963 K0.000 F30.000
G1 X4.715 Y14.283 Z-4.500 F30.000
G1 X6.766 Y13.433 Z-4.500 F30.000
G1 X9.790 Y20.735 Z-4.500 F30.000
G2 X10.949 Y21.324 Z-4.500 I0.924 J-0.383 K0.000 F30.000
G2 X15.322 Y18.472 Z-4.500 I-8.841 J-18.334 K0.000 F30.000
G2 X15.531 Y18.247 Z-4.500 I-0.619 J-0.785 K0.000 F30.000
G1 X15.531 Y18.247 Z-5.000 F30.000
G2 X15.410 Y16.980 Z-5.000 I-0.829 J-0.560 K0.000 F30.000
G1 X9.822 Y11.391 Z-5.000 F30.000
G1 X11.391 Y9.822 Z-5.000 F30.000
G1 X16.980 Y15.410 Z-5.000 F30.000
G2 X18.276 Y15.511 Z-5.000 I0.707 J-0.707 K0.000 F30.000
G2 X21.225 Y11.203 Z-5.000 I-15.184 J-13.555 K0.000 F30.000
G2 X20.735 Y9.790 Z-5.000 I-0.872 J-0.489 K0.000 F30.000
G1 X13.433 Y6.766 Z-5.000 F30.000
G1 X14.283 Y4.715 Z-5.000 F30.000
G1 X21.584 Y7.739 Z-5.000 F30.000
G2 X22.821 Y7.336 Z-5.000 I0.383 J-0.924 K0.000 F30.000
G2 X23.896 Y2.228 Z-5.000 I-19.215 J-6.712 K0.000 F30.000
G2 X22.903 Y1.110 Z-5.000 I-0.993 J-0.118 K0.000 F30.000
G1 X15.000 Y1.110 Z-5.000 F30.000
G1 X15.000 Y-1.110 Z-5.000 F30.000
G1 X22.903 Y-1.110 Z-5.000 F30.000
G2 X23.891 Y-1.955 Z-5.000 I-0.000 J-1.000 K0.000 F30.000
G2 X22.930 Y-7.086 Z-5.000 I-20.321 J1.152 K0.000 F30.000
G2 X21.584 Y-7.739 Z-5.000 I-0.963 J0.271 K0.000 F30.000
G1 X14.283 Y-4.715 Z-5.000 F30.000
G1 X13.433 Y-6.766 Z-5.000 F30.000
G1 X20.735 Y-9.790 Z-5.000 F30.000
G2 X21.324 Y-10.949 Z-5.000 I-0.383 J-0.924 K0.000 F30.000
G2 X18.472 Y-15.322 Z-5.000 I-18.334 J8.841 K0.000 F30.000
G2 X16.980 Y-15.410 Z-5.000 I-0.785 J0.619 K0.000 F30.000
G1 X11.391 Y-9.822 Z-5.000 F30.000
G1 X9.822 Y-11.391 Z-5.000 F30.000
G1 X15.410 Y-16.980 Z-5.000 F30.000
G2 X15.511 Y-18.276 Z-5.000 I-0.707 J-0.707 K0.000 F30.000
G2 X11.203 Y-21.225 Z-5.000 I-13.555 J15.184 K0.000 F30.000
G2 X9.790 Y-20.735 Z-5.000 I-0.489 J0.872 K0.000 F30.000
G1 X6.766 Y-13.433 Z-5.000 F30.000
G1 X4.715 Y-14.283 Z-5.000 F30.000
G1 X7.739 Y-21.584 Z-5.000 F30.000
G2 X7.336 Y-22.821 Z-5.000 I-0.924 J-0.383 K0.000 F30.000
G2 X2.228 Y-23.896 Z-5.000 I-6.712 J19.215 K0.000 F30.000
G2 X1.110 Y-22.903 Z-5.000 I-0.118 J0.993 K0.000 F30.000
G1 X1.110 Y-15.000 Z-5.000 F30.000
G1 X-1.110 Y-15.000 Z-5.000 F30.000
G1 X-1.110 Y-22.903 Z-5.000 F30.000
G2 X-1.955 Y-23.891 Z-5.000 I-1.000 J0.000 K0.000 F30.000
G2 X-7.086 Y-22.930 Z-5.000 I1.152 J20.321 K0.000 F30.000
G2 X-7.739 Y-21.584 Z-5.000 I0.271 J0.963 K0.000 F30.000
G1 X-4.715 Y-14.283 Z-5.000 F30.000
G1 X-6.766 Y-13.433 Z-5.000 F30.000
G1 X-9.790 Y-20.735 Z-5.000 F30.000
G2 X-10.949 Y-21.324 Z-5.000 I-0.924 J0.383 K0.000 F30.000
G2 X-15.322 Y-18.472 Z-5.000 I8.841 J18.334 K0.000 F30.000
G2 X-15.410 Y-16.980 Z-5.000 I0.619 J0.785 K0.000 F30.000
G1 X-9.822 Y-11.391 Z-5.000 F30.000
G1 X-11.391 Y-9.822 Z-5.000 F30.000
G1 X-16.980 Y-15.410 Z-5.000 F30.000
G2 X-18.276 Y-15.511 Z-5.000 I-0.707 J0.707 K0.000 F30.000
G2 X-21.225 Y-11.203 Z-5.000 I15.184 J13.555 K0.000 F30.000
G2 X-20.735 Y-9.790 Z-5.000 I0.872 J0.489 K0.000 F30.000
G1 X-13.433 Y-6.766 Z-5.000 F30.000
G1 X-14.283 Y-4.715 Z-5.000 F30.000
G1 X-21.584 Y-7.739 Z-5.000 F30.000
G2 X-22.821 Y-7.336 Z-5.000 I-0.383 J0.924 K0.000 F30.000
G2 X-23.896 Y-2.228 Z-5.000 I19.215 J6.712 K0.000 F30.000
G2 X-22.903 Y-1.110 Z-5.000 I0.993 J0.118 K0.000 F30.000
G1 X-15.000 Y-1.110 Z-5.000 F30.000
G1 X-15.000 Y1.110 Z-5.000 F30.000
G1 X-22.903 Y1.110 Z-5.000 F30.000
G2 X-23.891 Y1.955 Z-5.000 I0.000 J1.000 K0.000 F30.000
G2 X-22.930 Y7.086 Z-5.000 I20.321 J-1.152 K0.000 F30.000
G2 X-21.584 Y7.739 Z-5.000 I0.963 J-0.271 K0.000 F30.000
G1 X-14.283 Y4.715 Z-5.000 F30.000
G1 X-13.433 Y6.766 Z-5.000 F30.000
G1 X-20.735 Y9.790 Z-5.000 F30.000
G2 X-21.324 Y10.949 Z-5.000 I0.383 J0.924 K0.000 F30.000
G2 X-18.472 Y15.322 Z-5.000 I18.334 J-8.841 K0.000 F30.000
G2 X-16.980 Y15.410 Z-5.000 I0.785 J-0.619 K0.000 F30.000
G1 X-11.391 Y9.822 Z-5.000 F30.000
G1 X-9.822 Y11.391 Z-5.000 F30.000
G1 X-15.410 Y16.980 Z-5.000 F30.000
G2 X-15.511 Y18.276 Z-5.000 I0.707 J0.707 K0.000 F30.000
G2 X-11.203 Y21.225 Z-5.000 I13.555 J-15.184 K0.000 F30.000
G2 X-9.790 Y20.735 Z-5.000 I0.489 J-0.872 K0.000 F30.000
G1 X-6.766 Y13.433 Z-5.000 F30.000
G1 X-4.715 Y14.283 Z-5.000 F30.000
G1 X-7.739 Y21.584 Z-5.000 F30.000
G2 X-7.336 Y22.821 Z-5.000 I0.924 J0.383 K0.000 F30.000
G2 X-2.228 Y23.896 Z-5.000 I6.712 J-19.215 K0.000 F30.000
G2 X-1.110 Y22.903 Z-5.000 I0.118 J-0.993 K0.000 F30.000
G1 X-1.110 Y15.000 Z-5.000 F30.000
G1 X1.110 Y15.000 Z-5.000 F30.000
G1 X1.110 Y22.903 Z-5.000 F30.000
G2 X1.955 Y23.891 Z-5.000 I1.000 J0.000 K0.000 F30.000
G2 X7.086 Y22.930 Z-5.000 I-1.152 J-20.321 K0.000 F30.000
G2 X7.739 Y21.584 Z-5.000 I-0.271 J-0.963 K0.000 F30.000
G1 X4.715 Y14.283 Z-5.000 F30.000
G1 X6.766 Y13.433 Z-5.000 F30.000
G1 X9.790 Y20.735 Z-5.000 F30.000
G2 X10.949 Y21.324 Z-5.000 I0.924 J-0.383 K0.000 F30.000
G2 X15.322 Y18.472 Z-5.000 I-8.841 J-18.334 K0.000 F30.000
G2 X15.531 Y18.247 Z-5.000 I-0.619 J-0.785 K0.000 F30.000
G0 Z5.000
G0 Z5.000
(Finish operation: Profile032)
(Begin postamble)
M5
G17 G90
M2
