(Exported by FreeCAD)
(Post Processor: grbl_post)
(Output Time:2025-09-20 17:32:35.917081)
(Begin preamble)
G17 G90
G21
(Begin operation: Fixture)
(Path: Fixture)
G54
(Finish operation: Fixture)
(Begin operation: 2mm-6-Endmill001)
(Path: 2mm-6-Endmill001)
(2mm-6-Endmill001)
(Begin toolchange)
( M6 T2 )
(Finish operation: 2mm-6-Endmill001)
(Begin operation: Profile)
(Path: Profile)
(Profile)
(Compensated Tool Path. Diameter: 2.0)
G0 Z5.000
G0 X1.200 Y5.000
G0 Z3.000
G1 X1.200 Y5.000 Z-0.500 F30.000
G1 X-1.200 Y5.000 Z-0.500 F30.000
G1 X-1.200 Y-5.000 Z-0.500 F30.000
G1 X1.200 Y-5.000 Z-0.500 F30.000
G1 X1.200 Y5.000 Z-0.500 F30.000
G1 X1.200 Y5.000 Z-1.000 F30.000
G1 X-1.200 Y5.000 Z-1.000 F30.000
G1 X-1.200 Y-5.000 Z-1.000 F30.000
G1 X1.200 Y-5.000 Z-1.000 F30.000
G1 X1.200 Y5.000 Z-1.000 F30.000
G1 X1.200 Y5.000 Z-1.500 F30.000
G1 X-1.200 Y5.000 Z-1.500 F30.000
G1 X-1.200 Y-5.000 Z-1.500 F30.000
G1 X1.200 Y-5.000 Z-1.500 F30.000
G1 X1.200 Y5.000 Z-1.500 F30.000
G1 X1.200 Y5.000 Z-2.000 F30.000
G1 X-1.200 Y5.000 Z-2.000 F30.000
G1 X-1.200 Y-5.000 Z-2.000 F30.000
G1 X1.200 Y-5.000 Z-2.000 F30.000
G1 X1.200 Y5.000 Z-2.000 F30.000
G1 X1.200 Y5.000 Z-2.500 F30.000
G1 X-1.200 Y5.000 Z-2.500 F30.000
G1 X-1.200 Y-5.000 Z-2.500 F30.000
G1 X1.200 Y-5.000 Z-2.500 F30.000
G1 X1.200 Y5.000 Z-2.500 F30.000
G1 X1.200 Y5.000 Z-3.000 F30.000
G1 X-1.200 Y5.000 Z-3.000 F30.000
G1 X-1.200 Y-5.000 Z-3.000 F30.000
G1 X1.200 Y-5.000 Z-3.000 F30.000
G1 X1.200 Y5.000 Z-3.000 F30.000
G1 X1.200 Y5.000 Z-3.500 F30.000
G1 X-1.200 Y5.000 Z-3.500 F30.000
G1 X-1.200 Y-5.000 Z-3.500 F30.000
G1 X1.200 Y-5.000 Z-3.500 F30.000
G1 X1.200 Y5.000 Z-3.500 F30.000
G1 X1.200 Y5.000 Z-4.000 F30.000
G1 X-1.200 Y5.000 Z-4.000 F30.000
G1 X-1.200 Y-5.000 Z-4.000 F30.000
G1 X1.200 Y-5.000 Z-4.000 F30.000
G1 X1.200 Y5.000 Z-4.000 F30.000
G1 X1.200 Y5.000 Z-4.500 F30.000
G1 X-1.200 Y5.000 Z-4.500 F30.000
G1 X-1.200 Y-5.000 Z-4.500 F30.000
G1 X1.200 Y-5.000 Z-4.500 F30.000
G1 X1.200 Y5.000 Z-4.500 F30.000
G1 X1.200 Y5.000 Z-5.000 F30.000
G1 X-1.200 Y5.000 Z-5.000 F30.000
G1 X-1.200 Y-5.000 Z-5.000 F30.000
G1 X1.200 Y-5.000 Z-5.000 F30.000
G1 X1.200 Y5.000 Z-5.000 F30.000
G0 Z5.000
G0 Z5.000
(Finish operation: Profile)
(Begin postamble)
M5
G17 G90
M2
